; generated by PrusaSlicer 2.5.0+win64 on 2023-04-12 at 17:08:29 UTC


;
;

;
;
; 

; external perimeters extrusion width = 0.45mm
; perimeters extrusion width = 0.45mm
; infill extrusion width = 0.45mm
; solid infill extrusion width = 0.45mm
; top infill extrusion width = 0.40mm
; first layer extrusion width = 0.42mm

M73 P0 R6
M201 X2500 Y2500 Z400 E5000 ; sets maximum accelerations, mm/sec^2
M203 X180 Y180 Z12 E80 ; sets maximum feedrates, mm / sec
M204 P1250 R1250 T2500 ; sets acceleration (P, T) and retract acceleration (R), mm/sec^2
M205 X8.00 Y8.00 Z2.00 E10.00 ; sets the jerk limits, mm/sec
M205 S0 T0 ; sets the minimum extruding and travel feed rate, mm/sec
M107
;TYPE:Custom
M862.3 P "MINI" ; printer model check
G90 ; use absolute coordinates
M83 ; extruder relative mode
M104 S170 ; set extruder temp for bed leveling
M140 S60 ; set bed temp
M109 R170 ; wait for bed leveling temp
M190 S60 ; wait for bed temp
M204 T1250 ; set travel acceleration
G28 ; home all without mesh bed level
G29 ; mesh bed leveling 
M204 T2500 ; restore travel acceleration
M104 S215 ; set extruder temp
G92 E0
G1 Y-2 X179 F2400
G1 Z3 F720
M109 S215 ; wait for extruder temp

; intro line
M73 P1 R6
G1 X170 F1000
G1 Z0.2 F720
G1 X110 E8 F900
G1 X40 E10 F700
G92 E0

M221 S95 ; set flow
G21 ; set units to millimeters
G90 ; use absolute coordinates
M83 ; use relative distances for extrusion
M900 K0.2 ; Filament gcode LA 1.5
; ; Filament gcode LA 1.0
M107
;LAYER_CHANGE
;Z:0.2
;HEIGHT:0.2
;BEFORE_LAYER_CHANGE
G92 E0.0
;0.2


M73 P2 R6
G1 E-3.2 F4200
M73 P3 R6
G1 Z.2 F720
;AFTER_LAYER_CHANGE
;0.2
G1 Z.4
G1 X77.57 Y78.032 F9000
G1 Z.2 F720
M73 P4 R6
G1 E3.2 F2400
M204 P800
;TYPE:Skirt/Brim
;WIDTH:0.42
G1 F1200
G1 X86.081 Y69.733 E.37271
G1 X88.003 Y68.951 E.06508
G1 X92.003 Y68.951 E.12542
G1 X93.926 Y69.733 E.06509
G1 X102.267 Y77.867 E.36528
G1 X103.458 Y79.127 E.05437
G1 X104.628 Y80.645 E.06007
G1 X105.766 Y82.543 E.06938
G1 X106.554 Y84.289 E.06007
G1 X107.149 Y86.11 E.06007
G1 X107.496 Y87.692 E.05077
G1 X107.719 Y89.595 E.06007
G1 X107.72 Y91.807 E.06938
G1 X107.546 Y93.417 E.05077
G1 X107.151 Y95.292 E.06007
G1 X106.447 Y97.39 E.06938
G1 X105.631 Y99.123 E.06007
G1 X104.799 Y100.512 E.05077
G1 X98.651 Y109.814 E.34961
G1 X97.541 Y110.78 E.04612
G1 X96.353 Y111.049 E.03819
G1 X83.653 Y111.049 E.3982
G1 X82.236 Y110.656 E.04612
M73 P5 R6
G1 X81.356 Y109.814 E.03819
G1 X75.252 Y100.578 E.34712
G1 X74.42 Y99.204 E.05035
G1 X73.6 Y97.49 E.05959
G1 X72.888 Y95.413 E.06882
G1 X72.483 Y93.557 E.05959
G1 X72.297 Y91.962 E.05035
G1 X72.277 Y89.767 E.06882
G1 X72.435 Y88.169 E.05035
G1 X72.807 Y86.305 E.05959
G1 X73.376 Y84.492 E.05959
G1 X74.135 Y82.75 E.05959
G1 X75.077 Y81.099 E.05959
G1 X76.189 Y79.558 E.05959
G1 X77.529 Y78.076 E.06264
M204 P1000
G1 X77.808 Y78.329 F9000
M204 P800
G1 F1200
G1 X86.344 Y70.003 E.37386
G1 X88.003 Y69.328 E.05617
G1 X92.003 Y69.328 E.12542
G1 X93.663 Y70.003 E.05618
G1 X102.004 Y78.137 E.36528
G1 X103.184 Y79.386 E.05388
G1 X104.327 Y80.873 E.0588
M73 P6 R6
G1 X105.424 Y82.701 E.06683
G1 X106.197 Y84.409 E.0588
G1 X106.712 Y85.944 E.05077
G1 X107.128 Y87.773 E.0588
G1 X107.345 Y89.635 E.0588
G1 X107.345 Y91.767 E.06683
G1 X107.171 Y93.377 E.05077
G1 X106.783 Y95.211 E.0588
G1 X106.105 Y97.232 E.06683
G1 X105.427 Y98.703 E.05077
G1 X104.476 Y100.318 E.0588
G1 X98.336 Y109.606 E.34908
G1 X97.288 Y110.48 E.04278
G1 X96.353 Y110.672 E.02993
G1 X83.653 Y110.672 E.3982
G1 X82.346 Y110.28 E.04278
G1 X81.671 Y109.606 E.02993
G1 X75.574 Y100.383 E.34665
G1 X74.742 Y99.009 E.05035
G1 X73.942 Y97.33 E.05832
G1 X73.256 Y95.33 E.06629
G1 X72.858 Y93.513 E.05832
G1 X72.672 Y91.918 E.05035
G1 X72.653 Y89.804 E.06629
G1 X72.81 Y88.206 E.05035
G1 X73.176 Y86.382 E.05832
G1 X73.734 Y84.608 E.05832
G1 X74.48 Y82.903 E.05832
G1 X75.403 Y81.288 E.05832
M73 P7 R6
G1 X76.493 Y79.781 E.05832
G1 X77.768 Y78.373 E.05955
M204 P1000
; printing object A00020-PART-26.STL id:0 copy 0
G1 E-2.24 F4200
;WIPE_START
G1 F7200
G1 X78.946 Y77.224 E-.912
;WIPE_END
G1 E-.048 F4200
G1 Z.4 F720
G1 X88.466 Y76.411 F9000
G1 Z.2 F720
G1 E3.2 F2400
M204 P800
;TYPE:Perimeter
;WIDTH:0.419999
G1 F1200
G1 X88.716 Y76.841 E.0156
G1 X89.094 Y77.182 E.01599
G1 X89.6 Y77.394 E.0172
G1 X90.127 Y77.433 E.01657
G1 X90.366 Y77.394 E.00758
G1 X90.842 Y77.225 E.01583
G1 X91.228 Y76.937 E.01511
G1 X91.54 Y76.505 E.0167
G1 X91.719 Y75.947 E.01836
G1 X91.701 Y75.362 E.01836
;WIDTH:0.46685
G1 X91.675 Y75.224 E.00496
;WIDTH:0.513701
G1 X91.649 Y75.086 E.0055
;WIDTH:0.560552
G1 X91.623 Y74.947 E.00605
G1 X91.412 Y74.586 E.01803
;WIDTH:0.556274
G1 X91.311 Y74.512 E.00532
;WIDTH:0.514094
G1 X91.21 Y74.439 E.00488
;WIDTH:0.471914
G1 X91.11 Y74.365 E.00444
;WIDTH:0.429733
G1 X90.659 Y74.109 E.01667
;WIDTH:0.419999
G1 X90.409 Y74.022 E.00831
G1 X89.8 Y73.986 E.01911
G1 X89.26 Y74.145 E.01765
G1 X88.786 Y74.491 E.01839
G1 X88.79 Y72.492 E.06266
G1 X91.267 Y72.492 E.07766
G1 X91.286 Y72.642 E.00472
G1 X91.465 Y73.36 E.02323
;WIDTH:0.450844
G1 X91.599 Y73.714 E.01282
;WIDTH:0.481688
G1 X91.733 Y74.068 E.01379
;WIDTH:0.519066
G1 X91.89 Y74.36 E.01314
;WIDTH:0.556444
G1 X92.047 Y74.652 E.01417
G1 X92.131 Y74.73 E.00489
;WIDTH:0.521133
G1 X92.216 Y74.807 E.00456
;WIDTH:0.485821
G1 X92.445 Y75.041 E.01205
;WIDTH:0.45291
G1 X92.674 Y75.275 E.01115
;WIDTH:0.419999
G1 X93.226 Y75.737 E.02259
G1 X93.87 Y76.124 E.02355
G1 X94.567 Y76.405 E.02355
G1 X95.211 Y76.559 E.02077
G1 X95.67 Y76.602 E.01447
G1 X99.79 Y80.399 E.17567
G1 X100.853 Y81.526 E.04857
G1 X101.779 Y82.749 E.0481
G1 X102.568 Y84.065 E.0481
G1 X103.211 Y85.457 E.0481
G1 X103.699 Y86.912 E.0481
G1 X104.029 Y88.41 E.0481
G1 X104.194 Y90.082 E.05268
G1 X104.195 Y91.469 E.04349
G1 X104.04 Y92.899 E.04511
G1 X103.701 Y94.494 E.05113
G1 X103.213 Y95.947 E.04804
G1 X102.571 Y97.34 E.0481
G1 X101.783 Y98.656 E.0481
G1 X100.857 Y99.879 E.0481
G1 X99.805 Y100.996 E.0481
G1 X98.639 Y101.992 E.0481
G1 X97.372 Y102.857 E.0481
G1 X95.842 Y103.677 E.05444
G1 X95.629 Y103.903 E.00972
G1 X95.566 Y104.162 E.00837
G1 X95.566 Y107.508 E.1049
G1 X91.04 Y107.508 E.14193
;WIDTH:0.461828
G1 X90.845 Y107.487 E.00683
;WIDTH:0.503657
G1 X90.65 Y107.466 E.00751
;WIDTH:0.545486
G1 X90.455 Y107.445 E.00819
G1 X90.536 Y107.403 E.0038
;WIDTH:0.515592
G1 X90.616 Y107.36 E.00357
;WIDTH:0.485698
G1 X90.863 Y107.2 E.01083
;WIDTH:0.452849
G1 X91.109 Y107.039 E.01003
;WIDTH:0.419999
G1 X91.49 Y106.595 E.01835
G1 X91.701 Y106.049 E.01836
G1 X91.719 Y105.463 E.01836
G1 X91.566 Y104.948 E.01685
G1 X91.263 Y104.508 E.01676
G1 X90.842 Y104.186 E.01662
M73 P8 R6
G1 X90.248 Y103.985 E.01966
G1 X89.803 Y103.985 E.01393
G1 X89.27 Y104.136 E.01738
G1 X88.824 Y104.431 E.01677
G1 X88.494 Y104.845 E.0166
G1 X88.315 Y105.319 E.01588
G1 X88.282 Y105.903 E.01836
G1 X88.447 Y106.465 E.01836
G1 X88.817 Y106.964 E.01949
G1 X89.273 Y107.276 E.01731
;WIDTH:0.459646
G1 X89.549 Y107.372 E.01014
;WIDTH:0.499292
G1 X89.826 Y107.468 E.01111
G1 X89.517 Y107.488 E.01175
;WIDTH:0.459646
G1 X89.208 Y107.508 E.01073
;WIDTH:0.419999
G1 X84.44 Y107.508 E.14949
G1 X84.433 Y104.072 E.10772
G1 X84.34 Y103.84 E.00786
G1 X84.141 Y103.663 E.00832
G1 X82.645 Y102.864 E.05319
G1 X81.387 Y102.007 E.04771
G1 X80.228 Y101.021 E.04771
G1 X79.182 Y99.917 E.04771
G1 X78.259 Y98.708 E.04771
G1 X77.47 Y97.406 E.04771
G1 X76.826 Y96.028 E.04771
G1 X76.332 Y94.588 E.04771
G1 X75.996 Y93.105 E.04771
G1 X75.819 Y91.593 E.04771
G1 X75.806 Y90.072 E.04771
G1 X75.955 Y88.558 E.04771
G1 X76.265 Y87.068 E.04771
G1 X76.733 Y85.62 E.04771
G1 X77.352 Y84.23 E.04771
G1 X78.117 Y82.915 E.04771
G1 X79.018 Y81.689 E.04771
G1 X80.045 Y80.566 E.04771
G1 X81.186 Y79.56 E.04771
G1 X82.428 Y78.681 E.04771
G1 X83.757 Y77.94 E.04771
G1 X85.157 Y77.345 E.04771
G1 X86.421 Y76.962 E.04139
G1 X86.751 Y76.877 E.0107
G1 X87.401 Y76.749 E.02076
G1 X88.256 Y76.522 E.02775
G1 X88.413 Y76.439 E.00556
M204 P1000
G1 X88.294 Y76.093 F9000
M204 P800
;TYPE:External perimeter
;WIDTH:0.430586
G1 F1200
G1 X88.349 Y75.967 E.00444
G1 X88.375 Y75.036 E.03
;WIDTH:0.420132
G1 X88.41 Y74.462 E.01805
;WIDTH:0.419999
G1 X88.413 Y72.115 E.07358
G1 X91.614 Y72.115 E.10036
G1 X91.648 Y72.525 E.01289
G1 X91.76 Y73.001 E.01534
G1 X91.94 Y73.522 E.01728
G1 X92.194 Y74.04 E.01809
G1 X92.528 Y74.541 E.01886
G1 X92.919 Y74.988 E.01862
G1 X93.423 Y75.416 E.02074
G1 X94.014 Y75.775 E.0217
G1 X94.655 Y76.038 E.0217
G1 X95.328 Y76.197 E.0217
G1 X95.83 Y76.237 E.01578
G1 X100.056 Y80.131 E.18018
G1 X101.141 Y81.282 E.04962
G1 X102.092 Y82.538 E.04938
G1 X102.902 Y83.888 E.04938
G1 X103.562 Y85.318 E.04938
G1 X104.063 Y86.811 E.04938
G1 X104.401 Y88.349 E.04938
M73 P9 R6
G1 X104.571 Y90.082 E.0546
G1 X104.572 Y91.489 E.04413
G1 X104.413 Y92.959 E.04635
G1 X104.065 Y94.594 E.0524
G1 X103.564 Y96.086 E.04936
G1 X102.905 Y97.516 E.04938
G1 X102.096 Y98.867 E.04937
G1 X101.146 Y100.123 E.04938
G1 X100.066 Y101.269 E.04938
G1 X98.869 Y102.292 E.04938
G1 X97.568 Y103.18 E.04937
G1 X96.012 Y104.017 E.05539
G1 X95.943 Y104.162 E.00505
G1 X95.943 Y107.885 E.11672
G1 X84.063 Y107.885 E.37249
G1 X84.055 Y104.106 E.11849
G1 X83.964 Y103.996 E.00448
G1 X82.45 Y103.187 E.05383
G1 X81.158 Y102.308 E.04897
G1 X79.969 Y101.296 E.04898
G1 X78.894 Y100.162 E.04897
G1 X77.947 Y98.92 E.04898
G1 X77.137 Y97.584 E.04897
G1 X76.476 Y96.169 E.04897
G1 X75.969 Y94.692 E.04897
G1 X75.623 Y93.168 E.04897
G1 X75.442 Y91.617 E.04898
G1 X75.428 Y90.055 E.04897
G1 X75.582 Y88.501 E.04898
G1 X75.9 Y86.971 E.04897
G1 X76.38 Y85.485 E.04898
G1 X77.016 Y84.058 E.04897
G1 X77.801 Y82.708 E.04898
G1 X78.726 Y81.449 E.04897
G1 X79.78 Y80.297 E.04898
G1 X80.952 Y79.263 E.04897
G1 X82.227 Y78.361 E.04898
G1 X83.591 Y77.601 E.04897
G1 X85.029 Y76.99 E.04898
G1 X86.524 Y76.537 E.04899
G1 X87.047 Y76.435 E.01669
G1 X87.77 Y76.261 E.02334
;WIDTH:0.424143
G1 X88.237 Y76.112 E.01554
M204 P1000
G1 E-3.2 F4200
G1 Z.4 F720
M73 P10 R6
G1 X88.057 Y82.14 F9000
G1 Z.2 F720
G1 E3.2 F2400
M204 P800
;TYPE:Perimeter
;WIDTH:0.419999
G1 F1200
G1 X89.305 Y81.947 E.03958
G1 X90.028 Y81.94 E.02269
G1 X90.618 Y81.94 E.01848
G1 X91.917 Y82.13 E.04117
G1 X93.174 Y82.511 E.04117
G1 X94.433 Y83.117 E.04382
G1 X95.448 Y83.81 E.03853
G1 X96.415 Y84.698 E.04117
G1 X97.287 Y85.791 E.04382
G1 X97.901 Y86.855 E.03853
G1 X98.387 Y88.075 E.04117
G1 X98.686 Y89.358 E.04132
G1 X98.79 Y90.747 E.04367
G1 X98.685 Y92.057 E.04117
G1 X98.412 Y93.255 E.03853
G1 X97.938 Y94.479 E.04117
G1 X97.287 Y95.62 E.04117
G1 X96.415 Y96.712 E.04382
G1 X95.448 Y97.601 E.04117
G1 X94.433 Y98.293 E.03853
G1 X93.253 Y98.869 E.04117
G1 X91.917 Y99.28 E.04382
G1 X90.702 Y99.464 E.03853
G1 X89.986 Y99.47 E.02245
G1 X89.284 Y99.461 E.022
G1 X88.089 Y99.28 E.03789
G1 X86.833 Y98.899 E.04117
G1 X85.574 Y98.293 E.04382
G1 X84.558 Y97.601 E.03853
G1 X83.954 Y97.048 E.02568
G1 X83.566 Y96.687 E.01663
G1 X82.768 Y95.69 E.04005
G1 X82.069 Y94.479 E.04382
G1 X81.592 Y93.242 E.04157
G1 X81.321 Y92.054 E.03821
G1 X81.216 Y90.71 E.04226
G1 X81.322 Y89.354 E.04266
G1 X81.595 Y88.156 E.03853
G1 X82.069 Y86.931 E.04117
G1 X82.721 Y85.789 E.04123
G1 X83.591 Y84.698 E.04376
G1 X84.558 Y83.81 E.04117
G1 X85.574 Y83.117 E.03853
M73 P10 R5
G1 X86.136 Y82.84 E.01965
G1 X86.754 Y82.542 E.02153
G1 X87.998 Y82.151 E.04089
M204 P1000
G1 X88.119 Y82.509 F9000
M204 P800
;TYPE:External perimeter
G1 F1200
G1 X89.361 Y82.32 E.03938
G1 X90.028 Y82.318 E.02093
G1 X90.618 Y82.318 E.01848
G1 X91.861 Y82.503 E.03941
G1 X93.063 Y82.871 E.03941
G1 X94.221 Y83.429 E.04029
G1 X95.236 Y84.121 E.03853
G1 X96.159 Y84.975 E.03941
G1 X96.96 Y85.979 E.04029
G1 X97.575 Y87.043 E.03853
G1 X98.036 Y88.213 E.03941
G1 X98.318 Y89.439 E.03946
G1 X98.413 Y90.719 E.04024
G1 X98.317 Y91.973 E.03941
G1 X98.044 Y93.171 E.03853
G1 X97.587 Y94.342 E.03941
G1 X96.959 Y95.434 E.03951
M73 P11 R5
G1 X96.159 Y96.436 E.0402
G1 X95.258 Y97.272 E.03853
G1 X94.221 Y97.982 E.03941
G1 X93.089 Y98.529 E.03941
G1 X91.861 Y98.908 E.04029
G1 X90.643 Y99.091 E.03863
G1 X89.986 Y99.093 E.02059
G1 X89.389 Y99.093 E.01872
G1 X88.146 Y98.908 E.03941
G1 X86.944 Y98.539 E.03941
G1 X85.786 Y97.982 E.04029
G1 X84.771 Y97.289 E.03853
G1 X84.21 Y96.772 E.02392
G1 X83.839 Y96.427 E.01587
G1 X83.063 Y95.454 E.03904
G1 X82.42 Y94.342 E.04029
G1 X81.96 Y93.158 E.03981
G1 X81.689 Y91.972 E.03815
G1 X81.629 Y91.191 E.02454
G1 X81.593 Y90.691 E.01573
G1 X81.685 Y89.466 E.03853
G1 X81.963 Y88.24 E.03941
G1 X82.449 Y87.014 E.04133
G1 X83.048 Y85.978 E.03754
G1 X83.546 Y85.349 E.02515
G1 X83.848 Y84.975 E.01508
G1 X84.749 Y84.139 E.03853
G1 X85.786 Y83.429 E.03941
G1 X86.918 Y82.882 E.03941
G1 X88.062 Y82.527 E.03756
M204 P1000
G1 X88.236 Y82.126 F9000
G1 E-3.2 F4200
G1 Z.4 F720
G1 X90.256 Y77.033 F9000
G1 Z.2 F720
G1 E3.2 F2400
M204 P800
G1 F1200
G1 X89.748 Y77.039 E.01591
G1 X89.276 Y76.85 E.01594
G1 X88.915 Y76.472 E.0164
;WIDTH:0.430636
G1 X88.741 Y76.087 E.01361
G1 X88.726 Y75.527 E.01806
;WIDTH:0.419999
G1 X88.852 Y75.037 E.01587
G1 X89.133 Y74.676 E.01436
G1 X89.525 Y74.436 E.0144
G1 X89.947 Y74.35 E.01348
G1 X90.431 Y74.416 E.01534
G1 X90.84 Y74.635 E.01453
G1 X91.128 Y74.946 E.01329
G1 X91.326 Y75.394 E.01534
G1 X91.354 Y75.852 E.0144
G1 X91.228 Y76.294 E.0144
G1 X90.962 Y76.668 E.0144
G1 X90.586 Y76.932 E.0144
G1 X90.313 Y77.016 E.00896
M204 P1000
G1 X90.116 Y77.408 F9000
G1 E-2.24 F4200
;WIPE_START
G1 F7200
G1 X89.748 Y77.039 E-.31327
G1 X89.276 Y76.85 E-.28171
G1 X88.915 Y76.472 E-.28989
G1 X88.895 Y76.427 E-.02713
;WIPE_END
G1 E-.048 F4200
G1 Z.4 F720
G1 X88.795 Y76.458 F9000
G1 X82.925 Y85.879
G1 X82.285 Y86.988
G1 X81.817 Y88.18
G1 X81.532 Y89.428
G1 X81.436 Y90.705
G1 X81.532 Y91.982
G1 X81.817 Y93.23
G1 X82.285 Y94.422
G1 X82.925 Y95.531
G1 X83.723 Y96.532
G1 X84.662 Y97.403
G1 X85.72 Y98.125
G1 X86.873 Y98.68
G1 X88.097 Y99.058
G1 X89.363 Y99.249
G1 X89.741 Y99.249
G1 X89.91 Y104.193
G1 X89.93 Y104.349
G1 Z.2 F720
G1 E3.2 F2400
M204 P800
G1 F1200
G1 X90.255 Y104.377 E.01024
G1 X90.643 Y104.507 E.01283
G1 X91.006 Y104.788 E.0144
G1 X91.254 Y105.175 E.01439
G1 X91.359 Y105.622 E.0144
G1 X91.31 Y106.078 E.0144
G1 X91.111 Y106.492 E.0144
G1 X90.786 Y106.816 E.01439
G1 X90.371 Y107.013 E.0144
G1 X89.914 Y107.061 E.0144
G1 X89.527 Y106.977 E.01242
G1 X89.107 Y106.723 E.0154
G1 X88.802 Y106.34 E.01534
G1 X88.659 Y105.903 E.0144
G1 X88.67 Y105.444 E.0144
G1 X88.833 Y105.015 E.01439
G1 X89.13 Y104.665 E.0144
G1 X89.545 Y104.429 E.01497
G1 X89.871 Y104.361 E.01043
M204 P1000
G1 X90.073 Y104.056 F9000
G1 E-2.24 F4200
;WIPE_START
G1 F7200
G1 X90.255 Y104.377 E-.21305
G1 X90.643 Y104.507 E-.22676
G1 X91.006 Y104.788 E-.25444
G1 X91.218 Y105.119 E-.21776
;WIPE_END
G1 E-.048 F4200
G1 Z.4 F720
G1 X90.455 Y107.445 F9000
G1 Z.2 F720
G1 E3.2 F2400
M204 P800
;TYPE:Perimeter
;WIDTH:0.545486
G1 F1200
M73 P12 R5
G1 X90.204 Y107.46 E.0105
;WIDTH:0.515598
G1 X89.954 Y107.475 E.00987
;WIDTH:0.499292
G1 X89.826 Y107.468 E.00485
M204 P1000
G1 E-2.24 F4200
;WIPE_START
G1 F7200
G1 X89.954 Y107.475 E-.07077
G1 X90.204 Y107.46 E-.13923
G1 X90.455 Y107.445 E-.13923
;WIPE_END
G1 E-.61078 F4200
G1 Z.4 F720
G1 X90.455 Y107.729 F9000
G1 X104.17 Y88.022
G1 X95.289 Y76.35
G1 X95.187 Y76.326
G1 X95.109 Y76.651
G1 Z.2 F720
G1 E3.2 F2400
M204 P800
;TYPE:Solid infill
;WIDTH:0.420072
G1 F1200
G1 X101.814 Y83.356 E.29736
G1 X102.318 Y84.197 E.03075
G1 X102.486 Y84.562 E.01262
G1 X94.636 Y76.712 E.34814
G1 X94.494 Y76.678 E.0046
G1 X93.784 Y76.393 E.02399
G1 X102.943 Y85.552 E.40621
G1 X103.215 Y86.357 E.02665
G1 X91.972 Y75.114 E.49865
G1 X92.014 Y75.689 E.0181
G1 X103.459 Y87.135 E.5076
G1 X103.609 Y87.818 E.02195
M73 P13 R5
G1 X91.954 Y76.164 E.51689
G1 X91.882 Y76.438 E.00891
G1 X91.822 Y76.565 E.00439
G1 X103.753 Y88.496 E.52915
G1 X103.819 Y89.095 E.01888
G1 X91.618 Y76.894 E.54109
G1 X91.535 Y77.017 E.00466
G1 X91.372 Y77.181 E.00726
G1 X103.884 Y89.693 E.55489
G1 X103.911 Y89.95 E.00812
G1 X103.912 Y90.254 E.00954
G1 X91.067 Y77.409 E.56968
G1 X90.994 Y77.463 E.00284
M73 P14 R5
G1 X90.708 Y77.584 E.00973
G1 X103.912 Y90.788 E.58559
G1 X103.912 Y91.321 E.01673
G1 X90.295 Y77.704 E.60391
G1 X89.756 Y77.699 E.01691
G1 X103.873 Y91.816 E.62609
G1 X103.821 Y92.297 E.01518
