; generated by PrusaSlicer 2.5.0+win64 on 2023-04-12 at 03:44:10 UTC


;
;

;
;
; 

; external perimeters extrusion width = 0.45mm
; perimeters extrusion width = 0.45mm
; infill extrusion width = 0.45mm
; solid infill extrusion width = 0.45mm
; top infill extrusion width = 0.40mm
; first layer extrusion width = 0.42mm

M73 P0 R15
M201 X2500 Y2500 Z400 E5000 ; sets maximum accelerations, mm/sec^2
M203 X180 Y180 Z12 E80 ; sets maximum feedrates, mm / sec
M204 P1250 R1250 T2500 ; sets acceleration (P, T) and retract acceleration (R), mm/sec^2
M205 X8.00 Y8.00 Z2.00 E10.00 ; sets the jerk limits, mm/sec
M205 S0 T0 ; sets the minimum extruding and travel feed rate, mm/sec
M107
;TYPE:Custom
M862.3 P "MINI" ; printer model check
G90 ; use absolute coordinates
M83 ; extruder relative mode
M104 S170 ; set extruder temp for bed leveling
M140 S60 ; set bed temp
M109 R170 ; wait for bed leveling temp
M190 S60 ; wait for bed temp
M204 T1250 ; set travel acceleration
G28 ; home all without mesh bed level
G29 ; mesh bed leveling 
M204 T2500 ; restore travel acceleration
M104 S215 ; set extruder temp
G92 E0
G1 Y-2 X179 F2400
G1 Z3 F720
M109 S215 ; wait for extruder temp

; intro line
G1 X170 F1000
G1 Z0.2 F720
G1 X110 E8 F900
G1 X40 E10 F700
G92 E0

M221 S95 ; set flow
G21 ; set units to millimeters
G90 ; use absolute coordinates
M83 ; use relative distances for extrusion
M900 K0.2 ; Filament gcode LA 1.5
; ; Filament gcode LA 1.0
M107
;LAYER_CHANGE
;Z:0.2
;HEIGHT:0.2
;BEFORE_LAYER_CHANGE
G92 E0.0
;0.2


M73 P1 R15
G1 E-3.2 F4200
G1 Z.2 F720
;AFTER_LAYER_CHANGE
;0.2
G1 Z.4
G1 X64.273 Y62.928 F9000
G1 Z.2 F720
G1 E3.2 F2400
M204 P800
;TYPE:Skirt/Brim
;WIDTH:0.42
G1 F1200
G1 X64.703 Y62.489 E.01926
G1 X67.666 Y60.033 E.12065
G1 X70.865 Y57.896 E.12065
G1 X74.046 Y56.202 E.11299
G1 X77.606 Y54.741 E.12065
G1 X81.297 Y53.653 E.12065
G1 X85.08 Y52.951 E.12065
G1 X88.915 Y52.642 E.12065
G1 X92.762 Y52.728 E.12065
G1 X96.58 Y53.21 E.12065
G1 X100.328 Y54.081 E.12065
G1 X103.966 Y55.334 E.12065
G1 X107.457 Y56.953 E.12065
G1 X110.965 Y59.06 E.12831
G1 X114.035 Y61.38 E.12065
M73 P2 R15
G1 X116.851 Y64.003 E.12065
G1 X119.382 Y66.901 E.12065
G1 X121.601 Y70.045 E.12065
G1 X123.485 Y73.4 E.12065
G1 X125.015 Y76.931 E.12065
G1 X126.173 Y80.6 E.12065
G1 X126.943 Y84.33 E.11941
G1 X127.325 Y88.036 E.11682
G1 X127.33 Y91.863 E.11998
G1 X126.948 Y95.631 E.11874
G1 X126.173 Y99.4 E.12065
G1 X125.015 Y103.069 E.12065
G1 X123.485 Y106.6 E.12065
G1 X121.601 Y109.955 E.12065
G1 X119.382 Y113.099 E.12065
G1 X116.851 Y115.997 E.12065
G1 X114.035 Y118.62 E.12065
G1 X110.762 Y121.077 E.12831
G1 X107.457 Y123.047 E.12065
G1 X103.966 Y124.666 E.12065
G1 X100.328 Y125.919 E.12065
G1 X96.58 Y126.79 E.12065
G1 X92.762 Y127.272 E.12065
G1 X88.915 Y127.358 E.12065
G1 X85.08 Y127.049 E.12065
G1 X81.297 Y126.347 E.12065
G1 X77.606 Y125.259 E.12065
G1 X74.046 Y123.798 E.12065
G1 X70.655 Y121.978 E.12065
G1 X67.47 Y119.82 E.12065
G1 X64.523 Y117.345 E.12065
G1 X61.921 Y114.67 E.117
G1 X59.547 Y111.672 E.11993
G1 X57.534 Y108.515 E.11738
G1 X55.803 Y105.079 E.12065
G1 X54.433 Y101.483 E.12065
G1 X53.441 Y97.765 E.12065
G1 X52.837 Y93.965 E.12065
G1 X52.626 Y90.122 E.12065
G1 X52.812 Y86.279 E.12065
G1 X53.391 Y82.475 E.12065
G1 X54.359 Y78.751 E.12065
G1 X55.705 Y75.146 E.12065
G1 X57.414 Y71.698 E.12065
G1 X59.468 Y68.444 E.12065
G1 X60.12 Y67.549 E.03472
G1 X61.921 Y65.33 E.08962
G1 X64.231 Y62.97 E.10353
M204 P1000
; printing object A00020-PART-15-REV-P1.STL id:0 copy 0
G1 E-2.24 F4200
;WIPE_START
G1 F7200
M73 P3 R15
G1 X64.703 Y62.489 E-.37365
G1 X65.451 Y61.869 E-.53835
;WIPE_END
G1 E-.048 F4200
G1 Z.4 F720
G1 X90.443 Y61.289 F9000
G1 Z.2 F720
G1 E3.2 F2400
M204 P800
;TYPE:Perimeter
;WIDTH:0.419999
G1 F1200
G1 X90.852 Y61.434 E.01359
G1 X91.325 Y61.808 E.01889
G1 X91.445 Y61.956 E.00599
G1 X91.687 Y62.408 E.01608
G1 X91.78 Y62.904 E.01582
G1 X91.715 Y63.473 E.01793
G1 X91.649 Y63.677 E.00675
G1 X91.363 Y64.142 E.01713
G1 X91.026 Y64.455 E.01442
G1 X90.852 Y64.566 E.00646
G1 X90.319 Y64.757 E.01776
G1 X89.679 Y64.753 E.02005
G1 X89.113 Y64.546 E.01889
G1 X88.649 Y64.163 E.01888
G1 X88.339 Y63.646 E.0189
G1 X88.218 Y63.138 E.01636
G1 X88.256 Y62.621 E.01625
G1 X88.472 Y62.083 E.0182
G1 X88.865 Y61.626 E.01889
G1 X89.387 Y61.326 E.01889
G1 X89.926 Y61.221 E.01719
G1 X90.311 Y61.242 E.0121
G1 X90.387 Y61.269 E.00252
M204 P1000
G1 X90.327 Y61.63 F9000
M204 P800
;TYPE:External perimeter
G1 F1200
G1 X90.803 Y61.851 E.01645
G1 X91.116 Y62.14 E.01334
G1 X91.338 Y62.561 E.01493
G1 X91.408 Y63.032 E.01493
G1 X91.318 Y63.497 E.01486
G1 X91.106 Y63.866 E.01334
G1 X90.769 Y64.179 E.01442
G1 X90.278 Y64.382 E.01667
G1 X89.79 Y64.393 E.01531
G1 X89.338 Y64.243 E.01493
G1 X88.961 Y63.951 E.01493
G1 X88.704 Y63.551 E.01493
G1 X88.594 Y63.088 E.01493
G1 X88.645 Y62.614 E.01493
G1 X88.851 Y62.185 E.01493
G1 X89.188 Y61.849 E.01493
G1 X89.621 Y61.644 E.01503
G1 X90.022 Y61.593 E.01265
G1 X90.268 Y61.623 E.00778
M204 P1000
G1 X90.616 Y61.353 F9000
G1 E-3.2 F4200
G1 Z.4 F720
G1 X98.289 Y57.182 F9000
G1 Z.2 F720
G1 E3.2 F2400
M204 P800
;TYPE:Perimeter
G1 F1200
G1 X98.332 Y57.178 E.00134
;WIDTH:0.376048
G1 X98.77 Y57.253 E.01232
;WIDTH:0.383328
G1 X99.07 Y57.376 E.00918
;WIDTH:0.40964
G1 X99.37 Y57.5 E.00989
;WIDTH:0.419999
G1 X99.844 Y57.952 E.02054
G1 X100.134 Y58.538 E.02048
G1 X100.212 Y59.186 E.02048
G1 X100.123 Y59.692 E.01611
G1 X99.844 Y60.228 E.01896
G1 X99.512 Y60.563 E.01478
G1 X99.213 Y60.784 E.01166
G1 X98.741 Y60.971 E.01591
G1 X98.595 Y60.997 E.00464
G1 X98.095 Y61.017 E.01569
G1 X97.499 Y60.857 E.01937
G1 X97.328 Y60.77 E.00599
G1 X96.914 Y60.461 E.01621
G1 X96.563 Y59.972 E.01886
G1 X96.484 Y59.798 E.00599
G1 X96.357 Y59.303 E.01603
G1 X96.391 Y58.697 E.01903
G1 X96.63 Y58.089 E.02047
G1 X97.058 Y57.596 E.02049
G1 X97.626 Y57.273 E.02048
G1 X97.804 Y57.218 E.00585
G1 X98.229 Y57.186 E.01337
M204 P1000
G1 X98.311 Y57.533 F9000
M204 P800
;TYPE:External perimeter
G1 F1200
G1 X98.641 Y57.574 E.01043
G1 X99.126 Y57.78 E.0165
G1 X99.514 Y58.136 E.01654
G1 X99.762 Y58.601 E.01652
G1 X99.84 Y59.122 E.01652
G1 X99.742 Y59.637 E.01642
G1 X99.494 Y60.074 E.01576
G1 X99.104 Y60.417 E.01628
G1 X98.579 Y60.62 E.01765
G1 X98.069 Y60.636 E.016
G1 X97.574 Y60.481 E.01626
G1 X97.166 Y60.18 E.01591
G1 X96.876 Y59.761 E.01598
G1 X96.732 Y59.255 E.01651
G1 X96.766 Y58.729 E.01652
G1 X96.973 Y58.245 E.01651
G1 X97.33 Y57.857 E.01652
G1 X97.796 Y57.61 E.01652
G1 X98.252 Y57.542 E.01447
M204 P1000
G1 X98.471 Y57.241 F9000
G1 E-2.24 F4200
;WIPE_START
G1 F7200
G1 X98.641 Y57.574 E-.21658
G1 X99.126 Y57.78 E-.29164
G1 X99.514 Y58.136 E-.29236
G1 X99.609 Y58.314 E-.11142
;WIPE_END
G1 E-.048 F4200
G1 Z.4 F720
G1 X100.321 Y63.281 F9000
G1 Z.2 F720
G1 E3.2 F2400
M204 P800
;TYPE:Perimeter
G1 F1200
G1 X100.39 Y63.273 E.00217
G1 X100.8 Y63.335 E.01302
G1 X101.298 Y63.551 E.017
G1 X101.774 Y64.006 E.02064
G1 X102.02 Y64.494 E.01713
G1 X102.12 Y65.077 E.01856
G1 X102.029 Y65.616 E.01713
G1 X101.787 Y66.087 E.01661
G1 X101.358 Y66.511 E.01891
G1 X101.184 Y66.621 E.00646
G1 X100.614 Y66.815 E.01889
G1 X100.018 Y66.81 E.01867
G1 X99.446 Y66.601 E.01911
G1 X98.981 Y66.218 E.01889
G1 X98.671 Y65.701 E.01889
G1 X98.551 Y65.111 E.01889
G1 X98.604 Y64.6 E.01612
G1 X98.804 Y64.138 E.01579
G1 X98.911 Y63.979 E.00599
G1 X99.329 Y63.579 E.01813
G1 X99.895 Y63.327 E.01942
G1 X100.262 Y63.287 E.01157
M204 P1000
G1 X100.66 Y63.685 F9000
M204 P800
;TYPE:External perimeter
G1 F1200
G1 X101.098 Y63.873 E.01494
G1 X101.447 Y64.194 E.01486
G1 X101.65 Y64.567 E.01334
G1 X101.743 Y65.063 E.0158
G1 X101.651 Y65.553 E.01563
G1 X101.439 Y65.921 E.01334
G1 X101.067 Y66.26 E.01577
G1 X100.598 Y66.438 E.01572
G1 X100.124 Y66.449 E.01486
G1 X99.67 Y66.298 E.015
G1 X99.294 Y66.007 E.01493
G1 X99.036 Y65.606 E.01493
G1 X98.927 Y65.143 E.01493
G1 X98.978 Y64.67 E.01493
G1 X99.184 Y64.24 E.01493
G1 X99.521 Y63.904 E.01493
G1 X99.949 Y63.7 E.01486
G1 X100.354 Y63.648 E.01282
G1 X100.6 Y63.678 E.00778
M204 P1000
G1 X100.943 Y63.403 F9000
G1 E-3.2 F4200
G1 Z.4 F720
G1 X109.076 Y69.135 F9000
G1 Z.2 F720
G1 E3.2 F2400
M204 P800
;TYPE:Perimeter
G1 F1200
G1 X109.149 Y69.126 E.00232
G1 X109.56 Y69.188 E.01302
G1 X110.106 Y69.443 E.0189
G1 X110.526 Y69.846 E.01824
G1 X110.802 Y70.405 E.01956
G1 X110.872 Y71.004 E.01889
G1 X110.755 Y71.559 E.0178
G1 X110.481 Y72.033 E.01716
G1 X110.107 Y72.373 E.01585
G1 X109.944 Y72.474 E.006
G1 X109.445 Y72.661 E.01672
G1 X108.961 Y72.686 E.01519
G1 X108.376 Y72.54 E.01889
G1 X107.873 Y72.209 E.01889
G1 X107.741 Y72.071 E.00599
G1 X107.51 Y71.728 E.01295
G1 X107.327 Y71.154 E.01889
G1 X107.345 Y70.557 E.01873
G1 X107.394 Y70.367 E.00615
G1 X107.611 Y69.907 E.01595
G1 X107.957 Y69.534 E.01596
G1 X108.11 Y69.42 E.00599
G1 X108.571 Y69.198 E.01604
G1 X109.016 Y69.142 E.01407
M204 P1000
G1 X109.419 Y69.538 F9000
M204 P800
;TYPE:External perimeter
G1 F1200
G1 X109.857 Y69.726 E.01494
G1 X110.207 Y70.048 E.01493
G1 X110.43 Y70.469 E.01493
G1 X110.5 Y70.94 E.01493
G1 X110.409 Y71.407 E.01493
G1 X110.124 Y71.855 E.01664
G1 X109.803 Y72.124 E.01312
G1 X109.357 Y72.291 E.01494
G1 X108.881 Y72.301 E.01493
G1 X108.43 Y72.151 E.01493
G1 X108.053 Y71.859 E.01493
G1 X107.822 Y71.517 E.01295
G1 X107.686 Y70.996 E.01689
G1 X107.737 Y70.522 E.01493
G1 X107.943 Y70.093 E.01493
G1 X108.28 Y69.757 E.01493
G1 X108.708 Y69.553 E.01486
G1 X109.113 Y69.501 E.01282
G1 X109.36 Y69.531 E.00778
M204 P1000
G1 X109.703 Y69.256 F9000
G1 E-3.2 F4200
G1 Z.4 F720
G1 X115.403 Y77.951 F9000
G1 Z.2 F720
G1 E3.2 F2400
M204 P800
;TYPE:Perimeter
G1 F1200
G1 X115.88 Y78.144 E.01615
G1 X116.269 Y78.475 E.01602
G1 X116.591 Y78.985 E.01889
G1 X116.727 Y79.591 E.0195
G1 X116.655 Y80.17 E.0183
G1 X116.42 Y80.666 E.01719
G1 X115.97 Y81.123 E.0201
G1 X115.796 Y81.233 E.00646
G1 X115.325 Y81.414 E.01584
G1 X114.814 Y81.445 E.01607
G1 X114.229 Y81.3 E.01889
G1 X113.726 Y80.968 E.01889
G1 X113.362 Y80.488 E.01889
G1 X113.284 Y80.314 E.00599
G1 X113.163 Y79.723 E.01889
G1 X113.247 Y79.127 E.01889
G1 X113.475 Y78.65 E.01656
G1 X113.881 Y78.23 E.01832
G1 X114.332 Y77.994 E.01597
G1 X114.87 Y77.888 E.01719
G1 X115.347 Y77.928 E.01501
M204 P1000
G1 X115.272 Y78.298 F9000
M204 P800
;TYPE:External perimeter
G1 F1200
G1 X115.71 Y78.485 E.01494
G1 X116.06 Y78.808 E.01493
G1 X116.283 Y79.229 E.01493
G1 X116.354 Y79.642 E.01316
G1 X116.275 Y80.137 E.01572
G1 X116.051 Y80.534 E.01427
G1 X115.679 Y80.872 E.01577
G1 X115.21 Y81.051 E.01573
G1 X114.691 Y81.047 E.01628
G1 X114.282 Y80.911 E.01351
G1 X113.906 Y80.619 E.01493
G1 X113.649 Y80.219 E.01493
G1 X113.539 Y79.755 E.01493
G1 X113.59 Y79.282 E.01493
G1 X113.796 Y78.853 E.01493
G1 X114.185 Y78.491 E.01665
G1 X114.561 Y78.312 E.01306
G1 X114.999 Y78.264 E.01383
G1 X115.213 Y78.29 E.00674
M204 P1000
G1 X115.555 Y78.015 F9000
G1 E-2.24 F4200
;WIPE_START
G1 F7200
G1 X115.71 Y78.485 E-.2961
G1 X116.06 Y78.808 E-.26382
G1 X116.283 Y79.229 E-.26382
G1 X116.31 Y79.385 E-.08826
;WIPE_END
G1 E-.048 F4200
G1 Z.4 F720
G1 X117.457 Y88.282 F9000
G1 Z.2 F720
G1 E3.2 F2400
M204 P800
;TYPE:Perimeter
G1 F1200
G1 X117.918 Y88.466 E.01558
G1 X118.325 Y88.808 E.01664
G1 X118.646 Y89.317 E.01889
M73 P3 R14
G1 X118.78 Y89.904 E.01889
G1 X118.786 Y90.044 E.00437
G1 X118.671 Y90.632 E.01879
G1 X118.423 Y91.08 E.01605
G1 X118.015 Y91.465 E.01762
G1 X117.523 Y91.698 E.01703
G1 X117.282 Y91.76 E.00783
G1 X116.779 Y91.774 E.01577
G1 X116.284 Y91.632 E.01613
G1 X115.823 Y91.336 E.01719
G1 X115.426 Y90.832 E.0201
G1 X115.339 Y90.646 E.00646
G1 X115.217 Y90.108 E.01731
G1 X115.299 Y89.465 E.02032
G1 X115.545 Y88.977 E.01713
G1 X115.928 Y88.569 E.01755
G1 X116.387 Y88.326 E.01629
G1 X116.926 Y88.221 E.01719
G1 X117.401 Y88.26 E.01496
M204 P1000
G1 X117.327 Y88.63 F9000
M204 P800
;TYPE:External perimeter
G1 F1200
G1 X117.765 Y88.818 E.01494
G1 X118.116 Y89.14 E.01493
G1 X118.338 Y89.561 E.01493
G1 X118.41 Y90.015 E.0144
G1 X118.317 Y90.499 E.01547
G1 X118.076 Y90.909 E.01493
G1 X117.711 Y91.216 E.01493
G1 X117.266 Y91.383 E.01493
G1 X116.79 Y91.393 E.01493
G1 X116.339 Y91.244 E.01486
G1 X116 Y90.987 E.01334
G1 X115.704 Y90.551 E.01654
G1 X115.594 Y90.088 E.01493
G1 X115.645 Y89.616 E.01486
G1 X115.824 Y89.231 E.01334
G1 X116.169 Y88.86 E.01586
G1 X116.616 Y88.645 E.01558
G1 X117.022 Y88.593 E.01282
G1 X117.268 Y88.623 E.00778
M204 P1000
G1 X117.611 Y88.348 F9000
G1 E-3.2 F4200
G1 Z.4 F720
G1 X121.961 Y86.401 F9000
G1 Z.2 F720
G1 E3.2 F2400
M204 P800
;TYPE:Perimeter
G1 F1200
G1 X122.032 Y86.393 E.00224
G1 X122.456 Y86.459 E.01345
G1 X123.049 Y86.732 E.02049
G1 X123.518 Y87.187 E.02048
G1 X123.739 Y87.595 E.01454
;WIDTH:0.408196
G1 X123.851 Y88.155 E.01734
;WIDTH:0.375747
G1 X123.864 Y88.404 E.00689
;WIDTH:0.419999
G1 X123.807 Y88.878 E.01498
G1 X123.518 Y89.463 E.02048
G1 X123.049 Y89.918 E.02048
G1 X122.452 Y90.192 E.02061
M73 P4 R14
G1 X122.266 Y90.232 E.00597
G1 X121.628 Y90.231 E.01999
G1 X121.133 Y90.078 E.01624
G1 X120.631 Y89.731 E.01914
G1 X120.296 Y89.295 E.01723
G1 X120.158 Y89.033 E.00928
G1 X120.025 Y88.483 E.01775
G1 X120.065 Y87.932 E.01733
G1 X120.235 Y87.477 E.01523
G1 X120.411 Y87.165 E.01121
G1 X120.761 Y86.803 E.0158
G1 X121.235 Y86.541 E.01698
G1 X121.478 Y86.453 E.00811
G1 X121.901 Y86.407 E.01335
M204 P1000
G1 X122.315 Y86.809 F9000
M204 P800
;TYPE:External perimeter
G1 F1200
G1 X122.8 Y87.015 E.01652
G1 X123.188 Y87.371 E.01652
G1 X123.436 Y87.836 E.01652
G1 X123.515 Y88.353 E.01638
G1 X123.415 Y88.874 E.01666
G1 X123.148 Y89.329 E.01652
G1 X122.746 Y89.669 E.01653
G1 X122.25 Y89.856 E.01661
G1 X121.731 Y89.868 E.01628
G1 X121.242 Y89.713 E.01607
G1 X120.82 Y89.394 E.01659
G1 X120.53 Y88.958 E.01642
G1 X120.401 Y88.455 E.01627
G1 X120.444 Y87.939 E.01624
G1 X120.647 Y87.479 E.01577
G1 X121.004 Y87.091 E.01652
G1 X121.469 Y86.845 E.01652
G1 X121.993 Y86.768 E.0166
G1 X122.256 Y86.801 E.00829
M204 P1000
G1 X122.596 Y86.524 F9000
G1 E-3.2 F4200
G1 Z.4 F720
G1 X123.805 Y84.737 F9000
G1 Z.2 F720
G1 E3.2 F2400
M204 P800
;TYPE:Perimeter
G1 F1200
G1 X124.134 Y87.728 E.09434
;WIDTH:0.388336
G1 X124.191 Y88.44 E.02052
;WIDTH:0.419999
G1 X124.212 Y90.014 E.04937
G1 X124.168 Y91.751 E.05447
G1 X123.804 Y95.265 E.11076
G1 X123.084 Y98.713 E.11044
G1 X122.013 Y102.068 E.11044
G1 X120.602 Y105.296 E.11044
G1 X118.867 Y108.361 E.11044
G1 X116.826 Y111.232 E.11044
G1 X114.501 Y113.878 E.11044
G1 X111.916 Y116.271 E.11044
G1 X109.099 Y118.385 E.11044
G1 X106.079 Y120.198 E.11044
G1 X102.587 Y121.82 E.12071
;WIDTH:0.375292
G1 X102.037 Y122.02 E.01619
;WIDTH:0.389493
G1 X101.716 Y122.115 E.00963
;WIDTH:0.419999
G1 X101.396 Y122.211 E.01048
G1 X99.562 Y122.849 E.06088
G1 X96.134 Y123.658 E.11044
G1 X92.64 Y124.11 E.11044
G1 X89.119 Y124.201 E.11044
G1 X85.607 Y123.929 E.11044
G1 X82.142 Y123.297 E.11044
G1 X78.76 Y122.313 E.11044
G1 X75.497 Y120.986 E.11044
G1 X72.388 Y119.33 E.11044
G1 X69.466 Y117.364 E.11044
G1 X66.761 Y115.108 E.11044
G1 X64.296 Y112.579 E.11072
G1 X63.675 Y111.839 E.0303
;WIDTH:0.389956
G1 X63.443 Y111.576 E.01011
;WIDTH:0.405052
G1 X63.012 Y111.011 E.02141
;WIDTH:0.419999
G1 X62.658 Y110.564 E.01787
G1 X62.125 Y109.836 E.02829
G1 X60.226 Y106.851 E.11092
G1 X58.651 Y103.7 E.11044
G1 X57.409 Y100.404 E.11044
G1 X56.512 Y96.998 E.11044
G1 X55.969 Y93.518 E.11044
G1 X55.788 Y90 E.11044
G1 X55.969 Y86.482 E.11044
G1 X56.512 Y83.002 E.11044
G1 X57.409 Y79.596 E.11044
G1 X58.651 Y76.3 E.11044
G1 X60.226 Y73.149 E.11044
G1 X60.913 Y72.055 E.0405
;WIDTH:0.405064
G1 X61.176 Y71.603 E.01575
;WIDTH:0.41277
G1 X61.233 Y71.56 E.00218
;WIDTH:0.46182
G1 X61.289 Y71.517 E.00247
;WIDTH:0.510869
G1 X61.346 Y71.474 E.00276
;WIDTH:0.559919
G1 X61.403 Y71.432 E.00305
;WIDTH:0.608969
G1 X61.459 Y71.389 E.00334
;WIDTH:0.658018
G1 X61.516 Y71.346 E.00363
G1 X61.506 Y71.414 E.00352
;WIDTH:0.608969
G1 X61.497 Y71.482 E.00324
;WIDTH:0.559919
G1 X61.487 Y71.55 E.00296
;WIDTH:0.510869
G1 X61.477 Y71.619 E.00268
;WIDTH:0.46182
G1 X61.467 Y71.687 E.0024
;WIDTH:0.41277
G1 X61.458 Y71.755 E.00212
;WIDTH:0.384984
G1 X61.328 Y72.016 E.00828
;WIDTH:0.419999
G1 X61.232 Y72.64 E.0198
G1 X61.248 Y72.83 E.00599
G1 X61.443 Y73.454 E.02048
