; generated by PrusaSlicer 2.5.0+win64 on 2023-04-12 at 18:57:41 UTC


;
;

;
;
; 

; external perimeters extrusion width = 0.45mm
; perimeters extrusion width = 0.45mm
; infill extrusion width = 0.45mm
; solid infill extrusion width = 0.45mm
; top infill extrusion width = 0.40mm
; first layer extrusion width = 0.42mm

M73 P0 R7
M201 X2500 Y2500 Z400 E5000 ; sets maximum accelerations, mm/sec^2
M203 X180 Y180 Z12 E80 ; sets maximum feedrates, mm / sec
M204 P1250 R1250 T2500 ; sets acceleration (P, T) and retract acceleration (R), mm/sec^2
M205 X8.00 Y8.00 Z2.00 E10.00 ; sets the jerk limits, mm/sec
M205 S0 T0 ; sets the minimum extruding and travel feed rate, mm/sec
M107
;TYPE:Custom
M862.3 P "MINI" ; printer model check
G90 ; use absolute coordinates
M83 ; extruder relative mode
M104 S170 ; set extruder temp for bed leveling
M140 S60 ; set bed temp
M109 R170 ; wait for bed leveling temp
M190 S60 ; wait for bed temp
M204 T1250 ; set travel acceleration
G28 ; home all without mesh bed level
G29 ; mesh bed leveling 
M204 T2500 ; restore travel acceleration
M104 S215 ; set extruder temp
G92 E0
G1 Y-2 X179 F2400
G1 Z3 F720
M109 S215 ; wait for extruder temp

; intro line
M73 P1 R7
G1 X170 F1000
G1 Z0.2 F720
G1 X110 E8 F900
G1 X40 E10 F700
G92 E0

M221 S95 ; set flow
G21 ; set units to millimeters
G90 ; use absolute coordinates
M83 ; use relative distances for extrusion
M900 K0.2 ; Filament gcode LA 1.5
; ; Filament gcode LA 1.0
M107
;LAYER_CHANGE
;Z:0.2
;HEIGHT:0.2
;BEFORE_LAYER_CHANGE
G92 E0.0
;0.2


M73 P2 R7
G1 E-3.2 F4200
M73 P3 R7
G1 Z.2 F720
;AFTER_LAYER_CHANGE
;0.2
G1 Z.4
G1 X77.139 Y80.583 F9000
G1 Z.2 F720
G1 E3.2 F2400
M204 P800
;TYPE:Skirt/Brim
;WIDTH:0.42
G1 F1200
G1 X78.205 Y79.569 E.04612
G1 X79.5 Y79.246 E.04186
G1 X100.5 Y79.246 E.65844
G1 X101.917 Y79.639 E.04612
M73 P4 R7
G1 X102.931 Y80.705 E.04612
G1 X103.254 Y82 E.04186
G1 X103.254 Y98 E.50167
G1 X102.861 Y99.417 E.04612
G1 X101.795 Y100.431 E.04612
G1 X100.5 Y100.754 E.04186
G1 X79.5 Y100.754 E.65844
G1 X78.083 Y100.361 E.04612
G1 X77.069 Y99.295 E.04612
G1 X76.746 Y98 E.04186
G1 X76.746 Y82 E.50167
G1 X77.123 Y80.64 E.04424
M204 P1000
G1 X77.497 Y80.752 F9000
M204 P800
G1 F1200
G1 X77.515 Y80.693 E.00195
G1 X78.56 Y79.817 E.04278
G1 X79.5 Y79.623 E.03008
G1 X100.5 Y79.623 E.65844
G1 X101.807 Y80.015 E.04278
M73 P5 R6
G1 X102.683 Y81.06 E.04278
G1 X102.877 Y82 E.03008
G1 X102.877 Y98 E.50167
G1 X102.485 Y99.307 E.04278
G1 X101.44 Y100.183 E.04278
G1 X100.5 Y100.377 E.03008
G1 X79.5 Y100.377 E.65844
G1 X78.193 Y99.985 E.04278
G1 X77.317 Y98.94 E.04278
G1 X77.123 Y98 E.03008
G1 X77.123 Y82 E.50167
G1 X77.479 Y80.81 E.03895
M204 P1000
; printing object A00020-PART-28-REV-P1.STL id:0 copy 0
G1 E-2.24 F4200
;WIPE_START
G1 F7200
G1 X77.515 Y80.693 E-.06768
G1 X78.56 Y79.817 E-.75612
G1 X78.716 Y79.784 E-.0882
;WIPE_END
G1 E-.048 F4200
G1 Z.4 F720
G1 X97.117 Y82.772 F9000
G1 Z.2 F720
G1 E3.2 F2400
M204 P800
;TYPE:Perimeter
;WIDTH:0.399645
G1 F1200
G1 X96.989 Y82.805 E.00392
;WIDTH:0.419999
G1 X96.476 Y83.053 E.01787
G1 X96.078 Y83.461 E.01788
G1 X95.834 Y83.975 E.01785
G1 X95.763 Y84.441 E.01477
G1 X95.763 Y95.221 E.33802
G1 X95.771 Y95.653 E.01354
M73 P6 R6
G1 X95.894 Y96.2 E.01756
G1 X96.192 Y96.686 E.01788
G1 X96.632 Y97.049 E.01788
G1 X97.167 Y97.232 E.01773
G1 X96.597 Y97.213 E.01787
G1 X83.315 Y97.213 E.41647
G1 X83.022 Y97.227 E.00919
;WIDTH:0.391711
G1 X82.729 Y97.24 E.0085
G1 X82.919 Y97.206 E.00561
;WIDTH:0.419999
G1 X83.11 Y97.172 E.00606
G1 X83.603 Y96.886 E.01788
G1 X83.977 Y96.455 E.01788
G1 X84.191 Y95.927 E.01788
G1 X84.237 Y95.559 E.01161
G1 X84.237 Y84.779 E.33802
G1 X84.229 Y84.347 E.01354
G1 X84.106 Y83.8 E.01756
G1 X83.808 Y83.314 E.01788
G1 X83.368 Y82.951 E.01788
G1 X82.878 Y82.771 E.01636
G1 X83.403 Y82.787 E.01645
G1 X96.597 Y82.787 E.41371
G1 X97.057 Y82.773 E.01442
M204 P1000
G1 E-3.2 F4200
G1 Z.4 F720
G1 X99.713 Y82.787 F9000
G1 Z.2 F720
G1 E3.2 F2400
M204 P800
G1 F1200
G1 X99.713 Y83.219 E.01353
G1 X99.713 Y83.261 E.00131
;WIDTH:0.463316
G1 X99.691 Y83.595 E.01171
;WIDTH:0.506632
G1 X99.67 Y83.929 E.01292
G1 X99.688 Y84.441 E.01974
;WIDTH:0.469381
G1 X99.688 Y95.559 E.39426
;WIDTH:0.483142
G1 X99.697 Y96.142 E.02133
;WIDTH:0.451571
G1 X99.713 Y96.4 E.00877
;WIDTH:0.419999
G1 X99.713 Y97.213 E.0255
G1 X98.022 Y97.227 E.05302
;WIDTH:0.391711
G1 X97.729 Y97.24 E.0085
G1 X97.919 Y97.206 E.00561
;WIDTH:0.419999
G1 X98.11 Y97.172 E.00606
G1 X98.603 Y96.886 E.01788
G1 X98.977 Y96.455 E.01788
;WIDTH:0.462535
G1 X99.211 Y95.934 E.01995
;WIDTH:0.469381
G1 X99.262 Y95.559 E.01339
G1 X99.262 Y84.441 E.39426
;WIDTH:0.506632
G1 X99.209 Y83.968 E.01835
G1 X99.163 Y83.881 E.00379
;WIDTH:0.475574
G1 X99.117 Y83.794 E.00354
;WIDTH:0.444516
G1 X98.808 Y83.314 E.01907
;WIDTH:0.419999
M73 P7 R6
G1 X98.368 Y82.951 E.01788
G1 X97.878 Y82.771 E.01636
G1 X99.653 Y82.787 E.05565
M204 P1000
G1 E-3.2 F4200
G1 Z.4 F720
G1 X97.628 Y83.096 F9000
G1 Z.2 F720
G1 E3.2 F2400
M204 P800
;TYPE:External perimeter
G1 F1200
G1 X97.863 Y83.141 E.00752
G1 X98.269 Y83.33 E.01402
G1 X98.591 Y83.64 E.01402
G1 X98.795 Y84.038 E.01401
G1 X98.86 Y84.441 E.0128
G1 X98.86 Y95.559 E.34861
G1 X98.835 Y95.804 E.00772
G1 X98.68 Y96.224 E.01402
G1 X98.397 Y96.57 E.01402
G1 X98.017 Y96.806 E.01402
G1 X97.581 Y96.906 E.01402
G1 X97.137 Y96.859 E.01402
G1 X96.731 Y96.67 E.01402
G1 X96.409 Y96.36 E.01402
G1 X96.199 Y95.922 E.01522
G1 X96.14 Y95.559 E.01154
G1 X96.14 Y84.441 E.34861
G1 X96.225 Y83.98 E.01471
G1 X96.447 Y83.591 E.01402
G1 X96.783 Y83.296 E.01402
G1 X97.197 Y83.126 E.01402
G1 X97.568 Y83.1 E.01167
M204 P1000
G1 X97.758 Y82.894 F9000
G1 E-3.2 F4200
G1 Z.4 F720
G1 X94.031 Y84.73 F9000
G1 Z.2 F720
G1 E3.2 F2400
M204 P800
;TYPE:Perimeter
G1 F1200
G1 X94.037 Y95.221 E.32894
G1 X94.029 Y95.319 E.00308
G1 X93.932 Y95.55 E.00784
G1 X93.745 Y95.717 E.00787
G1 X93.471 Y95.787 E.00885
G1 X86.529 Y95.787 E.21769
G1 X86.256 Y95.717 E.00882
G1 X86.017 Y95.463 E.01093
G1 X85.963 Y95.221 E.00777
G1 X85.963 Y84.779 E.32743
G1 X86.008 Y84.557 E.00709
G1 X86.068 Y84.45 E.00383
G1 X86.255 Y84.283 E.00787
G1 X86.529 Y84.213 E.00885
G1 X93.471 Y84.213 E.21769
G1 X93.745 Y84.283 E.00885
G1 X93.932 Y84.45 E.00787
G1 X94.024 Y84.671 E.00749
M204 P1000
G1 X93.66 Y84.779 F9000
M204 P800
;TYPE:External perimeter
G1 F1200
G1 X93.657 Y95.254 E.32845
G1 X93.563 Y95.387 E.0051
M73 P8 R6
G1 X93.471 Y95.41 E.00295
G1 X86.529 Y95.41 E.21769
G1 X86.375 Y95.331 E.0054
G1 X86.34 Y95.221 E.00362
G1 X86.34 Y84.779 E.32743
G1 X86.375 Y84.669 E.0036
G1 X86.529 Y84.59 E.00542
G1 X93.471 Y84.59 E.21769
G1 X93.625 Y84.669 E.00542
G1 X93.642 Y84.721 E.00172
M204 P1000
G1 X94.046 Y84.882 F9000
G1 E-2.24 F4200
;WIPE_START
G1 F7200
G1 X93.644 Y86.367 E-.912
;WIPE_END
G1 E-.048 F4200
G1 Z.4 F720
G1 X93.816 Y86.367 F9000
G1 X96.003 Y95.8
G1 X96.065 Y96.043
G1 X96.165 Y96.272
G1 X96.302 Y96.482
G1 X96.472 Y96.667
G1 X96.67 Y96.821
G1 X96.89 Y96.94
G1 X97.127 Y97.021
G1 X97.375 Y97.062
G1 X97.625 Y97.062
G1 X97.658 Y97.057
G1 X97.689 Y97.244
G1 Z.2 F720
G1 E3.2 F2400
M204 P800
;TYPE:Perimeter
;WIDTH:0.382816
G1 F1200
G1 X97.167 Y97.232 E.01476
M204 P1000
G1 E-2.24 F4200
;WIPE_START
G1 F7200
G1 X97.689 Y97.244 E-.28937
;WIPE_END
G1 E-.67063 F4200
G1 Z.4 F720
G1 X97.658 Y97.057 F9000
G1 X97.625 Y97.062
G1 X97.375 Y97.062
G1 X97.127 Y97.021
G1 X96.89 Y96.94
G1 X96.67 Y96.821
G1 X96.472 Y96.667
G1 X96.302 Y96.482
G1 X96.165 Y96.272
G1 X96.065 Y96.043
G1 X96.003 Y95.8
G1 X95.984 Y95.573
G1 X95.984 Y84.427
G1 X96.003 Y84.2
G1 X96.065 Y83.957
G1 X96.165 Y83.728
G1 X96.302 Y83.518
G1 X96.472 Y83.333
G1 X96.67 Y83.179
G1 X96.89 Y83.06
G1 X97.127 Y82.979
G1 X97.151 Y82.975
G1 X97.117 Y82.772
G1 Z.2 F720
G1 E3.2 F2400
M204 P800
;WIDTH:0.38923
G1 F1200
G1 X97.685 Y82.755 E.01635
;WIDTH:0.38845
G1 X97.878 Y82.771 E.00558
M204 P1000
G1 E-3.2 F4200
G1 Z.4 F720
G1 X82.117 Y82.772 F9000
G1 Z.2 F720
G1 E3.2 F2400
M204 P800
;WIDTH:0.399643
G1 F1200
G1 X81.989 Y82.805 E.00392
;WIDTH:0.419999
G1 X81.476 Y83.053 E.01787
G1 X81.078 Y83.461 E.01788
;WIDTH:0.463316
G1 X80.934 Y83.714 E.01018
;WIDTH:0.506632
G1 X80.791 Y83.968 E.01123
G1 X80.738 Y84.441 E.01835
;WIDTH:0.469381
G1 X80.738 Y95.559 E.39426
;WIDTH:0.506632
G1 X80.791 Y96.032 E.01835
G1 X80.837 Y96.119 E.00379
;WIDTH:0.476215
G1 X80.883 Y96.206 E.00354
;WIDTH:0.445798
G1 X81.192 Y96.686 E.01913
;WIDTH:0.419999
G1 X81.632 Y97.049 E.01788
G1 X82.167 Y97.232 E.01773
G1 X81.597 Y97.213 E.01787
G1 X80.287 Y97.213 E.04108
G1 X80.287 Y96.739 E.01485
;WIDTH:0.463316
G1 X80.309 Y96.405 E.01171
;WIDTH:0.506632
G1 X80.33 Y96.071 E.01292
G1 X80.312 Y95.559 E.01974
;WIDTH:0.469381
G1 X80.312 Y84.441 E.39426
;WIDTH:0.475034
G1 X80.299 Y83.647 E.02854
;WIDTH:0.444518
M73 P9 R6
G1 X80.287 Y82.787 E.0287
;WIDTH:0.419999
G1 X82.057 Y82.773 E.0555
M204 P1000
G1 X82.628 Y83.096 F9000
M204 P800
;TYPE:External perimeter
G1 F1200
G1 X82.863 Y83.141 E.00752
G1 X83.269 Y83.33 E.01402
G1 X83.591 Y83.64 E.01402
G1 X83.801 Y84.078 E.01522
G1 X83.86 Y84.441 E.01154
G1 X83.86 Y95.559 E.34861
G1 X83.835 Y95.804 E.00772
G1 X83.68 Y96.224 E.01402
G1 X83.397 Y96.57 E.01402
G1 X83.017 Y96.806 E.01402
G1 X82.581 Y96.906 E.01402
G1 X82.137 Y96.859 E.01402
G1 X81.731 Y96.67 E.01402
G1 X81.409 Y96.36 E.01402
G1 X81.205 Y95.962 E.01401
G1 X81.14 Y95.559 E.0128
G1 X81.14 Y84.441 E.34861
G1 X81.225 Y83.98 E.01471
G1 X81.447 Y83.591 E.01402
G1 X81.783 Y83.296 E.01402
G1 X82.197 Y83.126 E.01402
G1 X82.568 Y83.1 E.01167
M204 P1000
G1 X82.758 Y82.894 F9000
G1 X82.117 Y82.772
M204 P800
;TYPE:Perimeter
;WIDTH:0.389228
G1 F1200
G1 X82.685 Y82.755 E.01635
;WIDTH:0.38845
G1 X82.878 Y82.771 E.00558
M204 P1000
G1 E-2.24 F4200
;WIPE_START
G1 F7200
G1 X82.685 Y82.755 E-.10765
G1 X82.117 Y82.772 E-.31462
;WIPE_END
G1 E-.53773 F4200
G1 Z.4 F720
G1 X82.151 Y82.975 F9000
G1 X82.127 Y82.979
G1 X81.89 Y83.06
G1 X81.67 Y83.179
G1 X81.472 Y83.333
G1 X81.302 Y83.518
G1 X81.165 Y83.728
G1 X81.065 Y83.957
G1 X81.003 Y84.2
G1 X80.984 Y84.427
G1 X80.984 Y95.573
G1 X81.003 Y95.8
G1 X81.065 Y96.043
G1 X81.165 Y96.272
G1 X81.302 Y96.482
G1 X81.472 Y96.667
G1 X81.67 Y96.821
G1 X81.89 Y96.94
G1 X82.127 Y97.021
G1 X82.375 Y97.062
G1 X82.625 Y97.062
G1 X82.658 Y97.057
G1 X82.689 Y97.244
G1 Z.2 F720
G1 E3.2 F2400
M204 P800
;WIDTH:0.38282
G1 F1200
G1 X82.167 Y97.232 E.01476
M204 P1000
G1 E-3.2 F4200
G1 Z.4 F720
G1 X79.91 Y97.59 F9000
G1 Z.2 F720
G1 E3.2 F2400
M204 P800
;TYPE:External perimeter
;WIDTH:0.419999
G1 F1200
G1 X79.91 Y82.41 E.47596
G1 X100.09 Y82.41 E.63273
G1 X100.09 Y97.59 E.47596
M73 P10 R6
G1 X79.97 Y97.59 E.63085
M204 P1000
G1 X80.031 Y97.209 F9000
G1 X80.471 Y96.212
M204 P800
;TYPE:Solid infill
;WIDTH:0.495415
G1 F1200
G1 X81.359 Y97.1 E.04724
M204 P1000
G1 E-3.2 F4200
G1 Z.4 F720
G1 X80.68 Y82.9 F9000
G1 Z.2 F720
G1 E3.2 F2400
M204 P800
;WIDTH:0.449003
G1 F1200
G1 X80.948 Y83.168 E.01281
G1 X80.714 Y83.508 E.01394
G1 X80.408 Y83.203 E.01458
M204 P1000
G1 E-3.2 F4200
G1 Z.4 F720
G1 X96.09 Y83.264 F9000
G1 Z.2 F720
G1 E3.2 F2400
M204 P800
;WIDTH:0.427296
G1 F1200
G1 X95.896 Y83.07 E.0088
G1 X95.352 Y83.07 E.01737
G1 X95.751 Y83.469 E.01805
G1 X95.641 Y83.672 E.00738
G1 X95.582 Y83.844 E.00579
G1 X94.808 Y83.07 E.03498
G1 X94.265 Y83.07 E.01737
G1 X95.499 Y84.304 E.05579
G1 X95.48 Y84.434 E.00419
G1 X95.48 Y84.829 E.01262
G1 X93.721 Y83.07 E.0795
G1 X93.178 Y83.07 E.01737
G1 X95.48 Y85.372 E.10407
G1 X95.48 Y85.916 E.01737
G1 X94.318 Y84.753 E.05255
G1 X94.297 Y84.582 E.00551
G1 X94.252 Y84.445 E.00462
G1 X94.16 Y84.281 E.006
G1 X93.882 Y84.033 E.01193
G1 X93.498 Y83.934 E.01265
G1 X92.634 Y83.07 E.03906
G1 X92.091 Y83.07 E.01737
G1 X92.951 Y83.93 E.03888
G1 X92.407 Y83.93 E.01737
G1 X91.547 Y83.07 E.03888
G1 X91.003 Y83.07 E.01737
G1 X91.864 Y83.93 E.03888
G1 X91.32 Y83.93 E.01737
G1 X90.46 Y83.07 E.03888
M73 P11 R6
G1 X89.916 Y83.07 E.01737
G1 X90.776 Y83.93 E.03888
G1 X90.233 Y83.93 E.01737
G1 X89.373 Y83.07 E.03888
G1 X88.829 Y83.07 E.01737
G1 X89.689 Y83.93 E.03888
G1 X89.146 Y83.93 E.01737
G1 X88.285 Y83.07 E.03888
G1 X87.742 Y83.07 E.01737
G1 X88.602 Y83.93 E.03888
G1 X88.059 Y83.93 E.01737
G1 X87.198 Y83.07 E.03888
G1 X86.655 Y83.07 E.01737
G1 X87.515 Y83.93 E.03888
G1 X86.971 Y83.93 E.01737
G1 X86.111 Y83.07 E.03888
G1 X85.567 Y83.07 E.01737
G1 X86.435 Y83.938 E.03923
G1 X86.115 Y84.036 E.0107
G1 X86.049 Y84.095 E.00284
G1 X85.024 Y83.07 E.04633
G1 X84.48 Y83.07 E.01737
G1 X85.787 Y84.376 E.05904
G1 X85.703 Y84.582 E.00711
G1 X85.68 Y84.813 E.00742
G1 X84.102 Y83.235 E.07134
G1 X84.167 Y83.319 E.00342
G1 X84.359 Y83.672 E.01283
G1 X84.444 Y83.921 E.00841
G1 X84.479 Y84.156 E.00757
G1 X85.68 Y85.357 E.0543
G1 X85.68 Y85.9 E.01737
G1 X84.52 Y84.74 E.05245
G1 X84.52 Y85.284 E.01737
G1 X85.68 Y86.444 E.05245
G1 X85.68 Y86.988 E.01737
G1 X84.52 Y85.827 E.05246
G1 X84.519 Y86.371 E.01737
G1 X85.68 Y87.531 E.05246
G1 X85.68 Y88.075 E.01737
G1 X84.519 Y86.914 E.05247
G1 X84.519 Y87.457 E.01737
G1 X85.68 Y88.618 E.05248
G1 X85.68 Y89.162 E.01737
G1 X84.519 Y88.001 E.05248
G1 X84.519 Y88.544 E.01737
G1 X85.68 Y89.706 E.05249
G1 X85.68 Y90.249 E.01737
G1 X84.519 Y89.088 E.05249
G1 X84.519 Y89.631 E.01737
G1 X85.68 Y90.793 E.0525
G1 X85.68 Y91.336 E.01737
G1 X84.519 Y90.175 E.0525
G1 X84.518 Y90.718 E.01737
G1 X85.68 Y91.88 E.05251
G1 X85.68 Y92.424 E.01737
G1 X84.518 Y91.262 E.05251
G1 X84.518 Y91.805 E.01737
G1 X85.68 Y92.967 E.05252
G1 X85.68 Y93.511 E.01737
G1 X84.518 Y92.349 E.05253
G1 X84.518 Y92.892 E.01737
G1 X85.68 Y94.054 E.05253
G1 X85.68 Y94.598 E.01737
G1 X84.348 Y93.266 E.06021
M204 P1000
G1 E-2.24 F4200
;WIPE_START
G1 F7200
G1 X85.512 Y94.43 E-.912
;WIPE_END
G1 E-.048 F4200
G1 Z.4 F720
G1 X86.184 Y94.43 F9000
G1 X86.184 Y84.434
G1 X93.816 Y84.434
G1 X93.816 Y85.13
G1 X94.15 Y85.13
G1 Z.2 F720
G1 E3.2 F2400
M204 P800
G1 F1200
G1 X95.48 Y86.459 E.06011
G1 X95.48 Y87.003 E.01737
G1 X94.32 Y85.843 E.05244
G1 X94.32 Y86.386 E.01737
M73 P12 R6
G1 X95.48 Y87.547 E.05244
G1 X95.48 Y88.09 E.01737
G1 X94.32 Y86.93 E.05244
G1 X94.32 Y87.474 E.01737
G1 X95.48 Y88.634 E.05244
G1 X95.48 Y89.177 E.01737
G1 X94.32 Y88.017 E.05244
G1 X94.32 Y88.561 E.01737
G1 X95.48 Y89.721 E.05244
G1 X95.48 Y90.265 E.01737
G1 X94.32 Y89.104 E.05244
G1 X94.32 Y89.648 E.01737
G1 X95.48 Y90.808 E.05244
G1 X95.48 Y91.352 E.01737
G1 X94.32 Y90.191 E.05244
G1 X94.32 Y90.735 E.01737
G1 X95.48 Y91.895 E.05244
G1 X95.48 Y92.439 E.01737
G1 X94.32 Y91.279 E.05244
G1 X94.32 Y91.822 E.01737
G1 X95.48 Y92.983 E.05244
G1 X95.48 Y93.526 E.01737
G1 X94.32 Y92.366 E.05244
G1 X94.32 Y92.909 E.01737
G1 X95.48 Y94.07 E.05244
G1 X95.48 Y94.613 E.01737
G1 X94.32 Y93.453 E.05244
G1 X94.32 Y93.997 E.01737
G1 X95.48 Y95.157 E.05244
G1 X95.48 Y95.566 E.01308
G1 X95.503 Y95.724 E.00509
G1 X94.32 Y94.54 E.05349
G1 X94.32 Y95.084 E.01737
G1 X95.733 Y96.497 E.06388
G1 X95.833 Y96.681 E.00667
G1 X96.039 Y96.93 E.01036
G1 X95.623 Y96.93 E.01332
G1 X94.25 Y95.558 E.06202
G1 X94.16 Y95.719 E.0059
G1 X94.006 Y95.857 E.00662
G1 X95.079 Y96.93 E.04852
G1 X94.535 Y96.93 E.01737
G1 X93.652 Y96.047 E.03994
G1 X93.476 Y96.07 E.00568
G1 X93.132 Y96.07 E.01099
G1 X93.992 Y96.93 E.03888
G1 X93.448 Y96.93 E.01737
G1 X92.588 Y96.07 E.03888
G1 X92.044 Y96.07 E.01737
G1 X92.905 Y96.93 E.03888
G1 X92.361 Y96.93 E.01737
G1 X91.501 Y96.07 E.03888
G1 X90.957 Y96.07 E.01737
G1 X91.817 Y96.93 E.03888
G1 X91.274 Y96.93 E.01737
G1 X90.414 Y96.07 E.03888
G1 X89.87 Y96.07 E.01737
G1 X90.73 Y96.93 E.03888
G1 X90.187 Y96.93 E.01737
G1 X89.326 Y96.07 E.03888
G1 X88.783 Y96.07 E.01737
G1 X89.643 Y96.93 E.03888
G1 X89.1 Y96.93 E.01737
G1 X88.239 Y96.07 E.03888
G1 X87.696 Y96.07 E.01737
G1 X88.556 Y96.93 E.03888
G1 X88.012 Y96.93 E.01737
G1 X86.982 Y95.9 E.04655
M204 P1000
G1 X87.638 Y97.1 F9000
M204 P800
G1 F1200
G1 X86.608 Y96.07 E.04655
G1 X86.517 Y96.07 E.00294
G1 X86.12 Y95.968 E.01309
G1 X85.84 Y95.72 E.01196
G1 X85.721 Y95.487 E.00835
G1 X85.68 Y95.142 E.01111
G1 X84.518 Y93.979 E.05254
G1 X84.518 Y94.523 E.01737
G1 X86.925 Y96.93 E.10882
G1 X86.382 Y96.93 E.01737
G1 X84.517 Y95.066 E.08426
G1 X84.517 Y95.609 E.01737
M73 P13 R6
G1 X85.838 Y96.93 E.0597
G1 X85.294 Y96.93 E.01737
