; generated by PrusaSlicer 2.5.0+win64 on 2023-04-12 at 00:42:38 UTC


;
;

;
;
; 

; external perimeters extrusion width = 0.45mm
; perimeters extrusion width = 0.45mm
; infill extrusion width = 0.45mm
; solid infill extrusion width = 0.45mm
; top infill extrusion width = 0.40mm
; first layer extrusion width = 0.42mm

M73 P0 R93
M201 X2500 Y2500 Z400 E5000 ; sets maximum accelerations, mm/sec^2
M203 X180 Y180 Z12 E80 ; sets maximum feedrates, mm / sec
M204 P1250 R1250 T2500 ; sets acceleration (P, T) and retract acceleration (R), mm/sec^2
M205 X8.00 Y8.00 Z2.00 E10.00 ; sets the jerk limits, mm/sec
M205 S0 T0 ; sets the minimum extruding and travel feed rate, mm/sec
M107
;TYPE:Custom
M862.3 P "MINI" ; printer model check
G90 ; use absolute coordinates
M83 ; extruder relative mode
M104 S170 ; set extruder temp for bed leveling
M140 S60 ; set bed temp
M109 R170 ; wait for bed leveling temp
M190 S60 ; wait for bed temp
M204 T1250 ; set travel acceleration
G28 ; home all without mesh bed level
G29 ; mesh bed leveling 
M204 T2500 ; restore travel acceleration
M104 S215 ; set extruder temp
G92 E0
G1 Y-2 X179 F2400
G1 Z3 F720
M109 S215 ; wait for extruder temp

; intro line
G1 X170 F1000
G1 Z0.2 F720
G1 X110 E8 F900
G1 X40 E10 F700
G92 E0

M221 S95 ; set flow
G21 ; set units to millimeters
G90 ; use absolute coordinates
M83 ; use relative distances for extrusion
M900 K0.2 ; Filament gcode LA 1.5
; ; Filament gcode LA 1.0
M107
;LAYER_CHANGE
;Z:0.2
;HEIGHT:0.2
;BEFORE_LAYER_CHANGE
G92 E0.0
;0.2


G1 E-3.2 F4200
G1 Z.2 F720
;AFTER_LAYER_CHANGE
;0.2
G1 Z.4
G1 X64.465 Y67.293 F9000
G1 Z.2 F720
G1 E3.2 F2400
M204 P800
;TYPE:Skirt/Brim
;WIDTH:0.42
G1 F1200
G1 X65.51 Y66.417 E.04278
G1 X66.45 Y66.223 E.03008
G1 X113.55 Y66.223 E1.47679
G1 X114.857 Y66.615 E.04278
G1 X115.733 Y67.66 E.04278
G1 X115.927 Y68.6 E.03008
G1 X115.927 Y111.4 E1.34196
G1 X115.535 Y112.707 E.04278
M73 P0 R92
G1 X114.49 Y113.583 E.04278
G1 X113.55 Y113.777 E.03008
G1 X104.55 Y113.777 E.28219
G1 X102.972 Y113.178 E.05291
G1 X64.872 Y79.378 E1.59693
G1 X64.073 Y77.6 E.06113
G1 X64.073 Y68.6 E.28219
G1 X64.447 Y67.35 E.0409
M204 P1000
; printing object A00020-PART-14-REV-P1.STL id:0 copy 0
G1 E-2.24 F4200
;WIPE_START
G1 F7200
G1 X65.51 Y66.417 E-.78411
G1 X65.736 Y66.37 E-.12789
;WIPE_END
G1 E-.048 F4200
G1 Z.4 F720
G1 X67.237 Y69.387 F9000
G1 Z.2 F720
G1 E3.2 F2400
M204 P800
;TYPE:Perimeter
;WIDTH:0.419999
G1 F1200
G1 X112.763 Y69.387 E1.42743
G1 X112.763 Y76.921 E.23623
G1 X112.054 Y77.255 E.02456
G1 X111.611 Y77.599 E.01758
G1 X111.322 Y77.927 E.01371
G1 X111.047 Y78.375 E.01648
;WIDTH:0.468812
G1 X110.781 Y79.115 E.02784
G1 X110.751 Y79.591 E.01692
;WIDTH:0.444381
G1 X110.751 Y100.409 E.69492
;WIDTH:0.458941
G1 X110.772 Y100.794 E.01333
G1 X110.887 Y101.219 E.01523
;WIDTH:0.419999
G1 X111.088 Y101.704 E.01648
G1 X111.442 Y102.214 E.01945
G1 X111.877 Y102.628 E.01882
G1 X112.246 Y102.862 E.01371
G1 X112.763 Y103.079 E.01758
G1 X112.763 Y110.613 E.23623
G1 X105.337 Y110.613 E.23283
G1 X105.337 Y103.512 E.22266
G1 X105.376 Y103.31 E.00644
G1 X105.541 Y103.197 E.00626
G1 X109.773 Y103.187 E.13269
G1 X110.043 Y103.118 E.00874
G1 X110.261 Y102.905 E.00956
G1 X110.337 Y102.621 E.0092
G1 X110.337 Y101.767 E.0268
;WIDTH:0.45827
G1 X110.349 Y100.409 E.0469
;WIDTH:0.444381
G1 X110.349 Y79.591 E.69492
;WIDTH:0.458942
G1 X110.337 Y78.582 E.03491
;WIDTH:0.419999
G1 X110.337 Y77.379 E.03774
G1 X110.261 Y77.095 E.0092
G1 X110.042 Y76.882 E.00958
G1 X109.771 Y76.813 E.00876
G1 X105.663 Y76.813 E.12882
G1 X105.551 Y76.796 E.00355
G1 X105.391 Y76.715 E.00561
G1 X105.337 Y76.547 E.00556
G1 X105.337 Y73.1 E.10807
G1 X105.314 Y72.22 E.0276
G1 X105.224 Y72.039 E.00634
G1 X105.038 Y71.879 E.00769
G1 X104.771 Y71.813 E.0086
G1 X75.229 Y71.813 E.92629
G1 X74.963 Y71.879 E.00858
G1 X74.777 Y72.038 E.00768
G1 X74.686 Y72.219 E.00634
G1 X74.663 Y72.377 E.00501
G1 X74.653 Y76.609 E.13269
G1 X74.575 Y76.744 E.0049
G1 X74.375 Y76.813 E.00661
G1 X67.237 Y76.813 E.22381
G1 X67.237 Y69.447 E.23095
M204 P1000
G1 E-3.2 F4200
G1 Z.4 F720
G1 X75.04 Y72.378 F9000
G1 Z.2 F720
G1 E3.2 F2400
M204 P800
;TYPE:External perimeter
G1 F1200
G1 X75.03 Y76.685 E.13503
G1 X74.922 Y76.943 E.00878
G1 X74.716 Y77.12 E.00851
G1 X74.419 Y77.19 E.00956
G1 X66.86 Y77.19 E.23702
G1 X66.86 Y69.01 E.25648
G1 X113.14 Y69.01 E1.45107
G1 X113.14 Y77.24 E.25805
G1 X112.827 Y77.302 E.01
G1 X112.469 Y77.446 E.0121
G1 X112.121 Y77.659 E.01278
G1 X111.729 Y78.031 E.01696
G1 X111.409 Y78.493 E.0176
G1 X111.262 Y78.841 E.01186
G1 X111.172 Y79.208 E.01186
G1 X111.14 Y79.591 E.01205
G1 X111.14 Y100.409 E.65271
G1 X111.167 Y100.762 E.01112
G1 X111.253 Y101.131 E.01186
G1 X111.396 Y101.481 E.01186
G1 X111.591 Y101.805 E.01186
G1 X111.856 Y102.115 E.01278
G1 X112.251 Y102.423 E.01572
G1 X112.791 Y102.688 E.01885
G1 X113.14 Y102.76 E.01117
G1 X113.14 Y110.99 E.25805
G1 X104.96 Y110.99 E.25648
G1 X104.96 Y103.512 E.23448
G1 X105.03 Y103.134 E.01204
G1 X105.207 Y102.928 E.00851
G1 X105.465 Y102.82 E.00878
G1 X109.772 Y102.81 E.13503
G1 X109.91 Y102.749 E.00473
G1 X109.96 Y102.621 E.0043
G1 X109.96 Y77.379 E.79147
G1 X109.918 Y77.26 E.00395
G1 X109.771 Y77.19 E.00509
G1 X105.663 Y77.19 E.12882
G1 X105.285 Y77.12 E.01204
G1 X105.176 Y77.027 E.00451
G1 X105.028 Y76.851 E.0072
G1 X104.96 Y76.576 E.0089
G1 X104.96 Y72.379 E.1316
G1 X104.922 Y72.265 E.00374
G1 X104.771 Y72.19 E.00529
G1 X75.229 Y72.19 E.92629
G1 X75.078 Y72.265 E.00528
G1 X75.059 Y72.321 E.00185
M204 P1000
G1 X74.653 Y72.481 F9000
G1 E-3.2 F4200
G1 Z.4 F720
G1 X112.65 Y70.267 F9000
G1 Z.2 F720
G1 E3.2 F2400
M204 P800
;TYPE:Solid infill
;WIDTH:0.422266
G1 F1200
G1 X112.052 Y69.67 E.02665
G1 X111.516 Y69.67 E.01692
G1 X112.48 Y70.634 E.04301
G1 X112.48 Y71.171 E.01692
G1 X110.979 Y69.67 E.06694
G1 X110.443 Y69.67 E.01692
G1 X112.48 Y71.707 E.09087
G1 X112.48 Y72.243 E.01692
G1 X109.907 Y69.67 E.1148
G1 X109.37 Y69.67 E.01692
G1 X112.48 Y72.78 E.13874
G1 X112.48 Y73.316 E.01692
G1 X108.834 Y69.67 E.16267
G1 X108.297 Y69.67 E.01692
G1 X112.48 Y73.853 E.1866
G1 X112.48 Y74.389 E.01692
G1 X107.761 Y69.67 E.21053
G1 X107.224 Y69.67 E.01692
G1 X112.48 Y74.926 E.23446
G1 X112.48 Y75.462 E.01692
G1 X106.688 Y69.67 E.25839
G1 X106.151 Y69.67 E.01692
G1 X112.48 Y75.999 E.28232
G1 X112.48 Y76.535 E.01692
G1 X105.615 Y69.67 E.30625
G1 X105.078 Y69.67 E.01692
G1 X112.241 Y76.833 E.31953
G1 X112.103 Y76.893 E.00475
G1 X111.894 Y77.022 E.00776
G1 X104.542 Y69.67 E.32796
G1 X104.005 Y69.67 E.01692
G1 X111.591 Y77.256 E.3384
G1 X111.308 Y77.509 E.01198
G1 X103.469 Y69.67 E.34969
G1 X102.932 Y69.67 E.01692
G1 X104.796 Y71.533 E.08312
G1 X105.171 Y71.627 E.01219
G1 X105.451 Y71.867 E.01162
G1 X105.587 Y72.139 E.00959
G1 X105.617 Y72.355 E.00689
G1 X109.795 Y76.532 E.18634
G1 X109.962 Y76.551 E.00532
G1 X110.179 Y76.633 E.00732
G1 X110.394 Y76.801 E.0086
G1 X110.507 Y76.954 E.00597
G1 X110.584 Y77.133 E.00617
G1 X110.613 Y77.351 E.00693
G1 X111.187 Y77.924 E.02557
M204 P1000
G1 X110.446 Y77.72 F9000
M204 P800
G1 F1200
G1 X110.857 Y78.131 E.01835
G1 X110.699 Y78.509 E.01293
G1 X110.449 Y78.259 E.01115
M204 P1000
G1 E-3.2 F4200
G1 Z.4 F720
G1 X109.426 Y76.7 F9000
G1 Z.2 F720
G1 E3.2 F2400
M204 P800
G1 F1200
G1 X105.62 Y72.894 E.16978
G1 X105.62 Y73.43 E.01692
G1 X108.72 Y76.53 E.13828
G1 X108.183 Y76.53 E.01692
G1 X105.62 Y73.967 E.11434
G1 X105.62 Y74.503 E.01692
G1 X107.647 Y76.53 E.09041
G1 X107.11 Y76.53 E.01692
G1 X105.62 Y75.04 E.06648
G1 X105.62 Y75.576 E.01692
G1 X106.574 Y76.53 E.04255
G1 X106.037 Y76.53 E.01692
G1 X105.45 Y75.943 E.02619
M204 P1000
G1 E-3.2 F4200
G1 Z.4 F720
G1 X104.426 Y71.7 F9000
G1 Z.2 F720
G1 E3.2 F2400
M204 P800
G1 F1200
G1 X102.396 Y69.67 E.09056
G1 X101.859 Y69.67 E.01692
G1 X103.72 Y71.531 E.083
G1 X103.184 Y71.531 E.01692
G1 X101.323 Y69.67 E.08301
G1 X100.786 Y69.67 E.01692
G1 X102.648 Y71.531 E.08302
G1 X102.111 Y71.531 E.01692
G1 X100.25 Y69.67 E.08303
G1 X99.713 Y69.67 E.01692
G1 X101.575 Y71.531 E.08304
G1 X101.039 Y71.532 E.01692
G1 X99.177 Y69.67 E.08305
G1 X98.641 Y69.67 E.01692
G1 X100.502 Y71.532 E.08306
M73 P1 R92
G1 X99.966 Y71.532 E.01692
G1 X98.104 Y69.67 E.08307
G1 X97.568 Y69.67 E.01692
G1 X99.43 Y71.532 E.08307
G1 X98.894 Y71.532 E.01692
G1 X97.031 Y69.67 E.08308
G1 X96.495 Y69.67 E.01692
G1 X98.357 Y71.533 E.08309
G1 X97.821 Y71.533 E.01692
G1 X95.958 Y69.67 E.0831
G1 X95.422 Y69.67 E.01692
G1 X97.285 Y71.533 E.08311
G1 X96.749 Y71.533 E.01692
G1 X94.885 Y69.67 E.08312
G1 X94.349 Y69.67 E.01692
G1 X96.212 Y71.533 E.08313
G1 X95.676 Y71.534 E.01692
G1 X93.812 Y69.67 E.08314
G1 X93.276 Y69.67 E.01692
G1 X95.14 Y71.534 E.08315
G1 X94.603 Y71.534 E.01692
G1 X92.739 Y69.67 E.08316
G1 X92.203 Y69.67 E.01692
G1 X94.067 Y71.534 E.08317
G1 X93.531 Y71.534 E.01692
G1 X91.666 Y69.67 E.08317
G1 X91.13 Y69.67 E.01692
G1 X92.995 Y71.535 E.08318
G1 X92.458 Y71.535 E.01692
G1 X90.593 Y69.67 E.08319
G1 X90.057 Y69.67 E.01692
G1 X91.922 Y71.535 E.0832
G1 X91.386 Y71.535 E.01692
G1 X89.52 Y69.67 E.08321
G1 X88.984 Y69.67 E.01692
G1 X90.85 Y71.535 E.08322
G1 X90.313 Y71.536 E.01692
G1 X88.447 Y69.67 E.08323
G1 X87.911 Y69.67 E.01692
G1 X89.777 Y71.536 E.08324
G1 X89.241 Y71.536 E.01692
G1 X87.375 Y69.67 E.08325
G1 X86.838 Y69.67 E.01692
G1 X88.704 Y71.536 E.08326
G1 X88.168 Y71.536 E.01692
G1 X86.302 Y69.67 E.08327
G1 X85.765 Y69.67 E.01692
G1 X87.632 Y71.537 E.08328
G1 X87.096 Y71.537 E.01692
G1 X85.229 Y69.67 E.08328
G1 X84.692 Y69.67 E.01692
G1 X86.559 Y71.537 E.08329
G1 X86.023 Y71.537 E.01692
G1 X84.156 Y69.67 E.0833
G1 X83.619 Y69.67 E.01692
G1 X85.487 Y71.538 E.08331
G1 X84.951 Y71.538 E.01692
G1 X83.083 Y69.67 E.08332
G1 X82.546 Y69.67 E.01692
G1 X84.414 Y71.538 E.08333
G1 X83.878 Y71.538 E.01692
G1 X82.01 Y69.67 E.08334
G1 X81.473 Y69.67 E.01692
G1 X83.342 Y71.538 E.08335
G1 X82.805 Y71.539 E.01692
G1 X80.937 Y69.67 E.08336
G1 X80.4 Y69.67 E.01692
G1 X82.269 Y71.539 E.08337
G1 X81.733 Y71.539 E.01692
G1 X79.864 Y69.67 E.08338
G1 X79.327 Y69.67 E.01692
G1 X81.197 Y71.539 E.08339
G1 X80.66 Y71.539 E.01692
G1 X78.791 Y69.67 E.08339
G1 X78.254 Y69.67 E.01692
G1 X80.124 Y71.54 E.0834
G1 X79.588 Y71.54 E.01692
G1 X77.718 Y69.67 E.08341
G1 X77.181 Y69.67 E.01692
G1 X79.052 Y71.54 E.08342
G1 X78.515 Y71.54 E.01692
G1 X76.645 Y69.67 E.08343
G1 X76.109 Y69.67 E.01692
G1 X77.979 Y71.54 E.08344
G1 X77.443 Y71.541 E.01692
G1 X75.572 Y69.67 E.08345
G1 X75.036 Y69.67 E.01692
G1 X76.906 Y71.541 E.08346
G1 X76.37 Y71.541 E.01692
G1 X74.499 Y69.67 E.08347
G1 X73.963 Y69.67 E.01692
G1 X75.834 Y71.541 E.08348
G1 X75.298 Y71.541 E.01692
G1 X73.426 Y69.67 E.08349
G1 X72.89 Y69.67 E.01692
G1 X74.843 Y71.624 E.08716
G1 X74.55 Y71.867 E.01202
G1 X72.353 Y69.67 E.09799
G1 X71.817 Y69.67 E.01692
G1 X74.398 Y72.251 E.11512
G1 X74.38 Y72.37 E.00379
G1 X74.378 Y72.768 E.01256
G1 X71.28 Y69.67 E.13819
G1 X70.744 Y69.67 E.01692
G1 X74.375 Y73.301 E.162
G1 X74.372 Y73.835 E.01683
G1 X70.207 Y69.67 E.1858
G1 X69.671 Y69.67 E.01692
G1 X74.37 Y74.369 E.2096
G1 X74.367 Y74.902 E.01683
G1 X69.134 Y69.67 E.23341
G1 X68.598 Y69.67 E.01692
G1 X74.364 Y75.436 E.25721
G1 X74.361 Y75.97 E.01683
G1 X68.061 Y69.67 E.28102
G1 X67.525 Y69.67 E.01692
G1 X74.358 Y76.503 E.30482
G1 X74.358 Y76.53 E.00085
G1 X73.849 Y76.53 E.01607
G1 X67.52 Y70.201 E.28232
G1 X67.52 Y70.738 E.01692
G1 X73.312 Y76.53 E.25839
G1 X72.776 Y76.53 E.01692
G1 X67.52 Y71.274 E.23445
G1 X67.52 Y71.811 E.01692
G1 X72.239 Y76.53 E.21052
G1 X71.703 Y76.53 E.01692
G1 X67.52 Y72.347 E.18659
G1 X67.52 Y72.884 E.01692
G1 X71.166 Y76.53 E.16266
G1 X70.63 Y76.53 E.01692
G1 X67.52 Y73.42 E.13873
G1 X67.52 Y73.957 E.01692
G1 X70.093 Y76.53 E.1148
G1 X69.557 Y76.53 E.01692
G1 X67.52 Y74.493 E.09087
G1 X67.52 Y75.03 E.01692
G1 X69.02 Y76.53 E.06694
G1 X68.484 Y76.53 E.01692
G1 X67.52 Y75.566 E.043
G1 X67.52 Y76.103 E.01692
G1 X68.117 Y76.7 E.02664
M204 P1000
G1 E-2.24 F4200
;WIPE_START
G1 F7200
G1 X67.52 Y76.103 E-.46808
G1 X67.52 Y75.566 E-.2973
G1 X67.707 Y75.753 E-.14662
;WIPE_END
G1 E-.048 F4200
G1 Z.4 F720
G1 X67.016 Y75.753 F9000
G1 X67.016 Y69.166
G1 X112.984 Y69.166
G1 X111.014 Y79.198
G1 X110.984 Y79.578
G1 X110.984 Y100.422
G1 X111.014 Y100.802
G1 X111.108 Y101.193
G1 X111.262 Y101.566
G1 X111.473 Y101.909
G1 X111.735 Y102.215
G1 X112.041 Y102.477
G1 X112.384 Y102.688
G1 X112.757 Y102.842
G1 X112.984 Y102.896
G1 X112.984 Y103.891
G1 X112.65 Y103.891
G1 Z.2 F720
G1 E3.2 F2400
M204 P800
;WIDTH:0.426861
G1 F1200
G1 X110.617 Y101.859 E.09177
G1 X110.615 Y102.399 E.01725
G1 X112.48 Y104.265 E.08422
G1 X112.48 Y104.808 E.01733
G1 X110.571 Y102.898 E.08621
G1 X110.507 Y103.046 E.00516
G1 X110.357 Y103.228 E.0075
G1 X112.48 Y105.351 E.09585
G1 X112.48 Y105.894 E.01733
G1 X110.015 Y103.429 E.11128
G1 X109.779 Y103.47 E.00766
G1 X109.515 Y103.471 E.00843
G1 X112.48 Y106.437 E.13388
G1 X112.48 Y106.98 E.01733
G1 X108.975 Y103.474 E.15827
G1 X108.435 Y103.477 E.01724
G1 X112.48 Y107.523 E.18265
G1 X112.48 Y108.065 E.01733
G1 X107.894 Y103.48 E.20704
G1 X107.354 Y103.483 E.01724
G1 X112.48 Y108.608 E.23142
G1 X112.48 Y109.151 E.01733
G1 X106.814 Y103.486 E.25581
G1 X106.274 Y103.488 E.01724
G1 X112.48 Y109.694 E.28019
G1 X112.48 Y110.237 E.01733
G1 X105.734 Y103.491 E.30457
G1 X105.62 Y103.492 E.00365
G1 X105.62 Y103.92 E.01367
G1 X112.03 Y110.33 E.2894
G1 X111.487 Y110.33 E.01733
G1 X105.62 Y104.463 E.26489
G1 X105.62 Y105.006 E.01733
G1 X110.944 Y110.33 E.24038
G1 X110.401 Y110.33 E.01733
G1 X105.62 Y105.549 E.21586
G1 X105.62 Y106.092 E.01733
G1 X109.858 Y110.33 E.19135
G1 X109.315 Y110.33 E.01733
G1 X105.62 Y106.635 E.16683
G1 X105.62 Y107.178 E.01733
G1 X108.772 Y110.33 E.14232
G1 X108.229 Y110.33 E.01733
G1 X105.62 Y107.721 E.1178
G1 X105.62 Y108.264 E.01733
G1 X107.686 Y110.33 E.09329
G1 X107.143 Y110.33 E.01733
G1 X105.62 Y108.807 E.06877
G1 X105.62 Y109.35 E.01733
G1 X106.6 Y110.33 E.04426
G1 X106.057 Y110.33 E.01733
G1 X105.45 Y109.723 E.02741
M204 P1000
; stop printing object A00020-PART-14-REV-P1.STL id:0 copy 0
M106 S84.15
;LAYER_CHANGE
;Z:0.4
;HEIGHT:0.2
;BEFORE_LAYER_CHANGE
G92 E0.0
;0.4


G1 E-2.24 F4200
;WIPE_START
G1 F7200
G1 X106.057 Y110.33 E-.47572
G1 X106.6 Y110.33 E-.3009
G1 X106.427 Y110.157 E-.13538
;WIPE_END
G1 E-.048 F4200
G1 Z.4 F720
;AFTER_LAYER_CHANGE
;0.4
; printing object A00020-PART-14-REV-P1.STL id:0 copy 0
G1 Z.6
G1 X110.092 Y102.7 F9000
G1 Z.4 F720
G1 E3.2 F2400
M204 P800
;TYPE:Perimeter
;WIDTH:0.449999
G1 X110.163 Y102.573 E.00495
G1 X110.182 Y102.151 E.0143
G1 X110.183 Y101.213 E.03175
;WIDTH:0.497715
G1 X110.207 Y101.113 E.00387
;WIDTH:0.54543
G1 X110.23 Y101.013 E.00428
;WIDTH:0.593146
G1 X110.254 Y100.914 E.00469
;WIDTH:0.640861
G1 X110.278 Y100.814 E.00509
G1 X110.264 Y100.401 E.02056
;WIDTH:0.614381
G1 X110.264 Y79.599 E.98844
;WIDTH:0.628322
G1 X110.271 Y79.206 E.01915
M73 P1 R91
G1 X110.254 Y79.127 E.00392
;WIDTH:0.593076
G1 X110.236 Y79.049 E.00369
;WIDTH:0.557829
G1 X110.218 Y78.97 E.00345
;WIDTH:0.522582
G1 X110.2 Y78.472 E.01986
;WIDTH:0.486291
G1 X110.182 Y77.975 E.01835
;WIDTH:0.449999
G1 X110.173 Y77.474 E.01695
G1 X110.079 Y77.239 E.00856
G1 X109.854 Y77.037 E.01026
G1 X109.571 Y76.968 E.00983
G1 X105.682 Y76.968 E.13164
G1 X105.391 Y76.912 E.01005
G1 X105.267 Y76.806 E.00552
G1 X105.182 Y76.575 E.00833
G1 X105.182 Y72.579 E.13528
G1 X105.11 Y72.291 E.01003
G1 X104.993 Y72.136 E.00658
G1 X104.806 Y72.015 E.00753
G1 X104.571 Y71.968 E.00811
G1 X75.323 Y71.977 E.99002
G1 X75.008 Y72.136 E.01193
G1 X74.891 Y72.29 E.00657
G1 X74.818 Y72.577 E.01002
G1 X74.806 Y76.553 E.13458
G1 X74.733 Y76.806 E.00892
G1 X74.61 Y76.912 E.00552
G1 X74.377 Y76.968 E.00811
G1 X67.082 Y76.968 E.24691
G1 X67.082 Y69.232 E.26185
G1 X112.918 Y69.232 E1.55149
G1 X112.918 Y77.06 E.26497
G1 X112.648 Y77.133 E.00946
G1 X112.085 Y77.42 E.02141
G1 X111.724 Y77.706 E.01557
G1 X111.488 Y78.003 E.01283
G1 X111.168 Y78.494 E.01983
;WIDTH:0.49458
G1 X111.09 Y78.677 E.0075
;WIDTH:0.539161
G1 X111.012 Y78.861 E.00824
;WIDTH:0.583742
G1 X110.934 Y79.045 E.00898
;WIDTH:0.628322
G1 X110.856 Y79.229 E.00972
G1 X110.836 Y79.599 E.01805
;WIDTH:0.614381
G1 X110.836 Y100.401 E.98844
;WIDTH:0.640861
