; generated by PrusaSlicer 2.5.0+win64 on 2023-04-12 at 11:37:36 UTC


;
;

;
;
; 

; external perimeters extrusion width = 0.45mm
; perimeters extrusion width = 0.45mm
; infill extrusion width = 0.45mm
; solid infill extrusion width = 0.45mm
; top infill extrusion width = 0.40mm
; first layer extrusion width = 0.42mm

M73 P0 R54
M201 X2500 Y2500 Z400 E5000 ; sets maximum accelerations, mm/sec^2
M203 X180 Y180 Z12 E80 ; sets maximum feedrates, mm / sec
M204 P1250 R1250 T2500 ; sets acceleration (P, T) and retract acceleration (R), mm/sec^2
M205 X8.00 Y8.00 Z2.00 E10.00 ; sets the jerk limits, mm/sec
M205 S0 T0 ; sets the minimum extruding and travel feed rate, mm/sec
M107
;TYPE:Custom
M862.3 P "MINI" ; printer model check
G90 ; use absolute coordinates
M83 ; extruder relative mode
M104 S170 ; set extruder temp for bed leveling
M140 S60 ; set bed temp
M109 R170 ; wait for bed leveling temp
M190 S60 ; wait for bed temp
M204 T1250 ; set travel acceleration
G28 ; home all without mesh bed level
G29 ; mesh bed leveling 
M204 T2500 ; restore travel acceleration
M104 S215 ; set extruder temp
G92 E0
G1 Y-2 X179 F2400
G1 Z3 F720
M109 S215 ; wait for extruder temp

; intro line
G1 X170 F1000
G1 Z0.2 F720
G1 X110 E8 F900
G1 X40 E10 F700
G92 E0

M221 S95 ; set flow
G21 ; set units to millimeters
G90 ; use absolute coordinates
M83 ; use relative distances for extrusion
M900 K0.2 ; Filament gcode LA 1.5
; ; Filament gcode LA 1.0
M107
;LAYER_CHANGE
;Z:0.2
;HEIGHT:0.2
;BEFORE_LAYER_CHANGE
G92 E0.0
;0.2


G1 E-3.2 F4200
G1 Z.2 F720
;AFTER_LAYER_CHANGE
;0.2
G1 Z.4
G1 X64.226 Y62.975 F9000
G1 Z.2 F720
G1 E3.2 F2400
M204 P800
;TYPE:Skirt/Brim
;WIDTH:0.42
G1 F1200
G1 X64.703 Y62.489 E.02135
G1 X67.666 Y60.033 E.12065
G1 X70.841 Y57.909 E.11979
G1 X74.131 Y56.159 E.11682
G1 X77.606 Y54.741 E.11768
G1 X81.297 Y53.653 E.12065
G1 X85.08 Y52.951 E.12065
G1 X88.915 Y52.642 E.12065
G1 X92.762 Y52.728 E.12065
G1 X96.58 Y53.21 E.12065
G1 X100.328 Y54.081 E.12065
G1 X104.353 Y55.498 E.1338
G1 X107.673 Y57.068 E.11514
G1 X110.965 Y59.06 E.12065
G1 X114.033 Y61.378 E.12056
G1 X116.847 Y63.998 E.12056
G1 X119.382 Y66.901 E.12084
G1 X121.601 Y70.045 E.12065
G1 X123.485 Y73.4 E.12065
G1 X125.015 Y76.931 E.12065
G1 X126.17 Y80.587 E.12022
G1 X126.93 Y84.234 E.11682
G1 X127.33 Y88.137 E.123
G1 X127.33 Y91.863 E.11682
G1 X126.947 Y95.631 E.11876
G1 X126.173 Y99.4 E.12063
G1 X125.015 Y103.069 E.12065
G1 X123.424 Y106.73 E.12516
G1 X121.575 Y109.999 E.11775
G1 X119.382 Y113.099 E.11905
G1 X116.851 Y115.997 E.12065
G1 X114.035 Y118.62 E.12065
G1 X110.965 Y120.94 E.12065
G1 X107.673 Y122.932 E.12065
G1 X104.193 Y124.574 E.12065
G1 X102.375 Y125.268 E.06102
G1 X100.328 Y125.919 E.06734
G1 X96.657 Y126.779 E.11823
G1 X92.762 Y127.272 E.12308
G1 X88.915 Y127.358 E.12065
G1 X85.155 Y127.061 E.11826
G1 X81.49 Y126.394 E.11682
G1 X77.837 Y125.339 E.11921
G1 X74.267 Y123.902 E.12065
G1 X70.865 Y122.104 E.12065
G1 X67.666 Y119.967 E.12065
G1 X64.703 Y117.511 E.12065
G1 X62.008 Y114.764 E.12065
G1 X59.61 Y111.755 E.12065
G1 X57.452 Y108.375 E.12573
G1 X55.802 Y105.077 E.11564
G1 X54.433 Y101.483 E.12059
G1 X53.4 Y97.576 E.12669
G1 X52.827 Y93.895 E.11682
G1 X52.626 Y90.122 E.11845
G1 X52.812 Y86.279 E.12065
G1 X53.391 Y82.475 E.12065
G1 X54.359 Y78.751 E.12065
G1 X55.705 Y75.146 E.12065
G1 X57.414 Y71.698 E.12065
G1 X59.61 Y68.245 E.12831
G1 X61.968 Y65.278 E.11883
G1 X64.184 Y63.018 E.09924
M204 P1000
; printing object A00020-PART-19-REV-P1.STL id:0 copy 0
G1 E-2.24 F4200
;WIPE_START
G1 F7200
G1 X64.703 Y62.489 E-.41067
G1 X65.399 Y61.911 E-.50133
;WIPE_END
G1 E-.048 F4200
G1 Z.4 F720
G1 X66.761 Y64.892 F9000
G1 Z.2 F720
G1 E3.2 F2400
M204 P800
;TYPE:Perimeter
;WIDTH:0.419999
G1 F1200
G1 X69.466 Y62.636 E.11044
G1 X72.389 Y60.669 E.11048
G1 X75.493 Y59.016 E.11028
G1 X78.76 Y57.687 E.11057
G1 X81.089 Y56.995 E.07619
;WIDTH:0.430436
G1 X82.142 Y56.703 E.03521
;WIDTH:0.419999
G1 X85.607 Y56.071 E.11044
G1 X88.802 Y55.824 E.10048
;WIDTH:0.431328
G1 X90.37 Y55.825 E.05063
;WIDTH:0.419999
G1 X92.64 Y55.89 E.07121
G1 X96.134 Y56.342 E.11044
G1 X98.762 Y56.95 E.08457
;WIDTH:0.432523
G1 X99.984 Y57.298 E.04116
;WIDTH:0.419999
G1 X102.89 Y58.309 E.09648
G1 X106.079 Y59.802 E.1104
G1 X109.099 Y61.615 E.11044
G1 X111.916 Y63.729 E.11045
G1 X114.499 Y66.12 E.11035
G1 X116.826 Y68.768 E.11053
G1 X118.633 Y71.297 E.09745
;WIDTH:0.433624
G1 X119.23 Y72.281 E.03739
;WIDTH:0.419999
G1 X120.602 Y74.704 E.08731
G1 X122.013 Y77.932 E.11044
G1 X122.501 Y79.41 E.04882
;WIDTH:0.42468
G1 X122.861 Y80.59 E.03916
;WIDTH:0.419999
G1 X123.085 Y81.289 E.02301
G1 X123.673 Y84.028 E.08782
G1 X123.802 Y84.717 E.02199
G1 X124.044 Y87.053 E.07364
;WIDTH:0.427575
G1 X124.172 Y88.256 E.03867
;WIDTH:0.412252
G1 X124.173 Y88.302 E.00142
;WIDTH:0.419999
G1 X124.212 Y90.027 E.05409
G1 X124.168 Y91.751 E.0541
G1 X123.804 Y95.265 E.11075
G1 X123.084 Y98.713 E.11044
G1 X122.013 Y102.068 E.11044
M73 P1 R54
G1 X120.597 Y105.308 E.11084
G1 X119.905 Y106.617 E.04645
G1 X118.871 Y108.355 E.06341
G1 X117.348 Y110.498 E.08241
;WIDTH:0.446754
G1 X116.558 Y111.551 E.04423
;WIDTH:0.43278
G1 X115.739 Y112.47 E.03989
;WIDTH:0.419999
G1 X114.501 Y113.878 E.05879
G1 X111.916 Y116.271 E.11044
G1 X110.469 Y117.359 E.05676
;WIDTH:0.415478
G1 X110.025 Y117.706 E.01745
;WIDTH:0.419999
G1 X109.099 Y118.385 E.03602
G1 X106.079 Y120.198 E.11044
G1 X103.146 Y121.571 E.10153
G1 X102.489 Y121.844 E.0223
;WIDTH:0.432837
G1 X101.337 Y122.279 E.03995
;WIDTH:0.419999
G1 X99.571 Y122.846 E.05815
G1 X96.129 Y123.659 E.11088
G1 X92.64 Y124.11 E.1103
G1 X89.12 Y124.201 E.11043
G1 X85.526 Y123.917 E.11304
G1 X82.144 Y123.298 E.10779
G1 X78.723 Y122.298 E.11174
G1 X78.08 Y122.039 E.02175
;WIDTH:0.414331
G1 X77.613 Y121.86 E.01544
;WIDTH:0.419999
G1 X75.497 Y120.986 E.07177
G1 X72.388 Y119.33 E.11044
G1 X70.207 Y117.869 E.08231
;WIDTH:0.413778
G1 X69.713 Y117.534 E.01839
;WIDTH:0.419999
G1 X69.147 Y117.099 E.02239
G1 X66.761 Y115.108 E.09745
G1 X64.302 Y112.585 E.11044
G1 X63.576 Y111.686 E.03625
;WIDTH:0.409539
G1 X63.198 Y111.199 E.01878
;WIDTH:0.419999
G1 X62.116 Y109.823 E.05488
G1 X60.224 Y106.848 E.11055
G1 X58.651 Y103.7 E.11033
G1 X57.409 Y100.404 E.11044
G1 X56.511 Y96.996 E.11051
G1 X55.97 Y93.521 E.11028
G1 X55.788 Y90 E.11053
G1 X55.855 Y88.515 E.04662
;WIDTH:0.401733
G1 X55.886 Y87.929 E.01749
;WIDTH:0.419999
G1 X55.969 Y86.482 E.04544
G1 X56.512 Y83.002 E.11044
G1 X57.096 Y80.783 E.07194
;WIDTH:0.457192
M73 P1 R53
G1 X57.295 Y80.101 E.02448
G1 X57.411 Y79.582 E.0183
;WIDTH:0.423757
G1 X57.875 Y78.359 E.04144
;WIDTH:0.419999
G1 X58.651 Y76.3 E.069
G1 X60.226 Y73.149 E.11044
G1 X60.689 Y72.421 E.02706
;WIDTH:0.423839
G1 X61.34 Y71.37 E.03916
;WIDTH:0.419999
G1 X62.116 Y70.177 E.04463
G1 X64.304 Y67.413 E.11052
G1 X66.719 Y64.935 E.10848
M204 P1000
G1 X66.504 Y64.615 F9000
M204 P800
;TYPE:External perimeter
G1 F1200
G1 X69.239 Y62.334 E.11166
G1 X72.195 Y60.345 E.1117
G1 X75.333 Y58.674 E.1115
G1 X78.636 Y57.331 E.11179
G1 X82.055 Y56.335 E.11166
G1 X85.559 Y55.697 E.11166
G1 X89.109 Y55.422 E.11166
G1 X92.669 Y55.514 E.11166
G1 X96.201 Y55.971 E.11166
G1 X99.667 Y56.789 E.11166
G1 X103.032 Y57.959 E.1117
G1 X106.256 Y59.469 E.11162
G1 X109.309 Y61.302 E.11166
G1 X112.158 Y63.44 E.11166
G1 X114.769 Y65.856 E.11157
G1 X117.122 Y68.533 E.11175
G1 X119.186 Y71.436 E.11166
G1 X120.94 Y74.535 E.11166
G1 X122.366 Y77.798 E.11166
G1 X123.449 Y81.192 E.1117
G1 X124.042 Y83.949 E.0884
G1 X124.176 Y84.668 E.02294
G1 X124.545 Y88.246 E.1128
G1 X124.589 Y90.027 E.05584
G1 X124.544 Y91.776 E.05485
G1 X124.177 Y95.323 E.11181
G1 X123.449 Y98.809 E.11166
G1 X122.366 Y102.202 E.11166
G1 X120.937 Y105.471 E.11189
G1 X120.234 Y106.802 E.04718
G1 X119.188 Y108.561 E.06419
G1 X117.122 Y111.467 E.11176
G1 X114.771 Y114.142 E.11166
G1 X112.158 Y116.561 E.11166
G1 X109.309 Y118.698 E.11166
G1 X106.256 Y120.531 E.11166
G1 X103.026 Y122.043 E.11183
G1 X101.461 Y122.635 E.05245
G1 X99.672 Y123.21 E.05892
G1 X96.197 Y124.03 E.11196
G1 X92.669 Y124.486 E.11152
G1 X89.11 Y124.578 E.11166
G1 X85.477 Y124.291 E.11426
G1 X82.057 Y123.665 E.109
G1 X78.636 Y122.669 E.11172
G1 X75.337 Y121.328 E.11166
G1 X72.194 Y119.654 E.11166
G1 X69.239 Y117.666 E.11166
G1 X66.504 Y115.385 E.11166
G1 X64.019 Y112.834 E.11166
G1 X61.809 Y110.042 E.11166
G1 X59.895 Y107.034 E.11177
G1 X58.305 Y103.851 E.11155
G1 X57.049 Y100.519 E.11166
G1 X56.141 Y97.073 E.11173
G1 X55.594 Y93.559 E.1115
G1 X55.411 Y90 E.11175
G1 X55.594 Y86.443 E.11166
G1 X56.142 Y82.925 E.11166
G1 X57.049 Y79.481 E.11166
G1 X58.305 Y76.149 E.11166
G1 X59.897 Y72.963 E.11166
G1 X61.809 Y69.958 E.11166
G1 X64.02 Y67.164 E.11174
G1 X66.462 Y64.658 E.1097
M204 P1000
G1 X66.886 Y64.734 F9000
G1 E-3.2 F4200
G1 Z.4 F720
G1 X122.37 Y86.53 F9000
G1 Z.2 F720
G1 E3.2 F2400
M204 P800
;TYPE:Perimeter
G1 F1200
G1 X122.438 Y86.542 E.00219
G1 X123.005 Y86.805 E.01958
G1 X123.451 Y87.241 E.01958
;WIDTH:0.427575
G1 X123.731 Y87.8 E.02
G1 X123.805 Y88.311 E.01651
;WIDTH:0.41718
G1 X123.801 Y88.409 E.00304
;WIDTH:0.419999
G1 X123.664 Y89.03 E.01995
G1 X123.331 Y89.559 E.01958
G1 X122.842 Y89.946 E.01957
G1 X122.335 Y90.139 E.017
G1 X121.817 Y90.167 E.01628
G1 X121.211 Y90.016 E.01959
G1 X121.04 Y89.929 E.00599
G1 X120.631 Y89.62 E.01607
G1 X120.315 Y89.172 E.01721
G1 X120.177 Y88.773 E.01323
G1 X120.11 Y88.386 E.01231
G1 X120.157 Y87.885 E.01579
G1 X120.374 Y87.371 E.01749
G1 X120.481 Y87.213 E.00599
G1 X120.868 Y86.826 E.01717
G1 X121.325 Y86.589 E.01611
G1 X121.619 Y86.519 E.0095
G1 X122.083 Y86.478 E.01458
G1 X122.311 Y86.519 E.00726
M204 P1000
G1 X122.298 Y86.892 F9000
M204 P800
;TYPE:External perimeter
G1 F1200
G1 X122.756 Y87.088 E.01562
G1 X123.122 Y87.425 E.01562
G1 X123.356 Y87.865 E.01562
G1 X123.43 Y88.353 E.0155
G1 X123.334 Y88.846 E.01574
G1 X123.082 Y89.275 E.01562
G1 X122.701 Y89.596 E.01561
G1 X122.236 Y89.772 E.0156
G1 X121.738 Y89.782 E.01563
G1 X121.265 Y89.626 E.01562
G1 X120.871 Y89.322 E.01562
G1 X120.601 Y88.903 E.01562
G1 X120.486 Y88.418 E.01561
G1 X120.539 Y87.923 E.01562
G1 X120.754 Y87.474 E.01562
G1 X121.106 Y87.122 E.01562
G1 X121.555 Y86.907 E.01561
G1 X122.035 Y86.852 E.01513
G1 X122.238 Y86.883 E.00646
M204 P1000
G1 X122.581 Y86.609 F9000
G1 E-3.2 F4200
G1 Z.4 F720
G1 X120.743 Y81.927 F9000
G1 Z.2 F720
G1 E3.2 F2400
M204 P800
;TYPE:Perimeter
G1 F1200
G1 X120.294 Y81.953 E.01409
G1 X120.105 Y81.929 E.00598
G1 X119.592 Y81.762 E.01692
G1 X119.168 Y81.457 E.01636
G1 X119.036 Y81.319 E.00599
G1 X118.742 Y80.867 E.01691
G1 X118.604 Y80.363 E.01637
G1 X118.595 Y80.089 E.00859
G1 X118.661 Y79.581 E.01609
G1 X118.886 Y79.093 E.01683
G1 X119.26 Y78.685 E.01735
G1 X119.722 Y78.416 E.01677
G1 X119.985 Y78.32 E.00878
G1 X120.56 Y78.264 E.01812
G1 X120.916 Y78.328 E.01133
G1 X121.482 Y78.591 E.01958
G1 X121.929 Y79.027 E.01958
G1 X122.172 Y79.515 E.0171
;WIDTH:0.422633
G1 X122.28 Y80.016 E.01616
;WIDTH:0.42468
G1 X122.284 Y80.035 E.00062
G1 X122.205 Y80.636 E.01924
;WIDTH:0.419999
G1 X121.956 Y81.148 E.01787
G1 X121.809 Y81.345 E.00769
G1 X121.319 Y81.733 E.01961
G1 X120.803 Y81.924 E.01725
M204 P1000
G1 X120.71 Y81.559 F9000
M204 P800
;TYPE:External perimeter
G1 F1200
G1 X120.215 Y81.569 E.0155
G1 X119.742 Y81.412 E.01562
G1 X119.348 Y81.108 E.01562
G1 X119.078 Y80.689 E.01562
G1 X118.963 Y80.205 E.01561
G1 X119.016 Y79.709 E.01562
G1 X119.231 Y79.26 E.01562
G1 X119.583 Y78.908 E.01562
G1 X120.033 Y78.694 E.01561
G1 X120.512 Y78.638 E.01513
G1 X120.775 Y78.678 E.00834
G1 X121.233 Y78.874 E.01561
G1 X121.6 Y79.211 E.01562
G1 X121.833 Y79.651 E.01562
G1 X121.908 Y80.086 E.01385
G1 X121.812 Y80.632 E.01739
G1 X121.56 Y81.062 E.01562
G1 X121.179 Y81.383 E.01563
G1 X120.766 Y81.538 E.01383
M204 P1000
G1 X120.578 Y81.937 F9000
G1 E-2.24 F4200
;WIPE_START
G1 F7200
G1 X120.215 Y81.569 E-.3056
G1 X119.742 Y81.412 E-.27599
G1 X119.348 Y81.108 E-.27599
G1 X119.295 Y81.025 E-.05442
;WIPE_END
G1 E-.048 F4200
G1 Z.4 F720
G1 X117.223 Y74.368 F9000
G1 Z.2 F720
G1 E3.2 F2400
M204 P800
;TYPE:Perimeter
G1 F1200
G1 X117.133 Y74.395 E.00297
G1 X116.611 Y74.41 E.01637
G1 X116.092 Y74.262 E.01691
G1 X115.854 Y74.126 E.00859
G1 X115.439 Y73.779 E.01696
G1 X115.154 Y73.345 E.01627
G1 X115.007 Y72.823 E.01701
G1 X114.991 Y72.633 E.00599
G1 X115.042 Y72.113 E.01637
G1 X115.256 Y71.618 E.01691
G1 X115.363 Y71.459 E.00599
G1 X115.817 Y71.032 E.01958
G1 X116.389 Y70.78 E.01958
G1 X116.964 Y70.724 E.01812
G1 X117.32 Y70.788 E.01133
G1 X117.886 Y71.051 E.01958
G1 X118.293 Y71.44 E.01766
;WIDTH:0.433624
G1 X118.591 Y71.951 E.01921
G1 X118.682 Y72.476 E.01731
;WIDTH:0.419999
G1 X118.609 Y73.096 E.01958
G1 X118.333 Y73.656 E.01958
G1 X117.922 Y74.067 E.01822
G1 X117.444 Y74.303 E.01672
G1 X117.281 Y74.351 E.00533
M204 P1000
G1 E-2.24 F4200
;WIPE_START
G1 F7200
G1 X117.133 Y74.395 E-.08569
G1 X116.611 Y74.41 E-.2894
G1 X116.092 Y74.262 E-.29884
G1 X115.854 Y74.126 E-.15178
G1 X115.735 Y74.026 E-.08629
;WIPE_END
G1 E-.048 F4200
G1 Z.4 F720
G1 X115.863 Y73.881 F9000
G1 X115.659 Y73.701
G1 X115.485 Y73.486
G1 X115.35 Y73.244
G1 X115.257 Y72.983
G1 X115.211 Y72.71
G1 X115.211 Y72.433
G1 X115.257 Y72.16
G1 X115.35 Y71.899
G1 X115.485 Y71.657
G1 X115.659 Y71.442
G1 X115.867 Y71.259
G1 X116.102 Y71.114
G1 X116.359 Y71.01
G1 X116.63 Y70.952
G1 X116.907 Y70.94
G1 X116.936 Y70.944
G1 X116.916 Y71.098
G1 Z.2 F720
G1 E3.2 F2400
M204 P800
;TYPE:External perimeter
G1 F1200
G1 X117.179 Y71.138 E.00834
G1 X117.637 Y71.334 E.01562
G1 X118.004 Y71.671 E.01561
G1 X118.237 Y72.111 E.01562
G1 X118.311 Y72.603 E.01562
G1 X118.216 Y73.092 E.01562
G1 X117.965 Y73.52 E.01554
G1 X117.616 Y73.821 E.01446
G1 X117.128 Y74.017 E.01651
G1 X116.619 Y74.029 E.01596
G1 X116.146 Y73.873 E.01562
G1 X115.752 Y73.568 E.01562
G1 X115.482 Y73.149 E.01562
G1 X115.367 Y72.665 E.01561
G1 X115.42 Y72.17 E.01562
G1 X115.635 Y71.72 E.01562
G1 X115.987 Y71.368 E.01561
G1 X116.437 Y71.154 E.01561
G1 X116.856 Y71.105 E.01325
M204 P1000
G1 X117.05 Y70.869 F9000
G1 E-3.2 F4200
G1 Z.4 F720
G1 X98.395 Y57.261 F9000
G1 Z.2 F720
G1 E3.2 F2400
M204 P800
;TYPE:Perimeter
;WIDTH:0.41522
G1 F1200
G1 X98.681 Y57.293 E.00889
;WIDTH:0.432523
G1 X99.17 Y57.464 E.0168
G1 X99.657 Y57.857 E.02029
;WIDTH:0.419999
G1 X99.99 Y58.386 E.01958
G1 X100.127 Y58.995 E.01958
G1 X100.051 Y59.621 E.01976
G1 X99.988 Y59.8 E.00596
G1 X99.717 Y60.263 E.01681
G1 X99.331 Y60.611 E.01631
G1 X99.168 Y60.711 E.00599
G1 X98.66 Y60.904 E.01704
G1 X98.143 Y60.932 E.01624
G1 X97.953 Y60.908 E.00599
G1 X97.453 Y60.747 E.01648
G1 X97.017 Y60.436 E.0168
G1 X96.862 Y60.265 E.00721
G1 X96.562 Y59.763 E.01834
G1 X96.436 Y59.248 E.01663
G1 X96.473 Y58.718 E.01666
G1 X96.7 Y58.137 E.01958
G1 X97.108 Y57.664 E.01958
G1 X97.651 Y57.354 E.01958
G1 X98.265 Y57.246 E.01957
;WIDTH:0.41522
G1 X98.336 Y57.254 E.00219
M204 P1000
G1 X98.361 Y57.617 F9000
M204 P800
;TYPE:External perimeter
;WIDTH:0.419999
G1 F1200
G1 X98.624 Y57.657 E.00834
G1 X99.082 Y57.853 E.01565
G1 X99.448 Y58.19 E.01558
G1 X99.682 Y58.63 E.01562
G1 X99.755 Y59.123 E.01563
G1 X99.659 Y59.616 E.01575
G1 X99.408 Y60.041 E.01547
G1 X99.027 Y60.361 E.01562
G1 X98.561 Y60.537 E.01561
G1 X98.064 Y60.547 E.01562
G1 X97.591 Y60.391 E.01562
G1 X97.175 Y60.054 E.01679
G1 X96.919 Y59.637 E.01533
G1 X96.814 Y59.154 E.0155
G1 X96.865 Y58.688 E.01469
G1 X97.08 Y58.239 E.01561
G1 X97.432 Y57.887 E.01562
G1 X97.881 Y57.673 E.01561
G1 X98.301 Y57.624 E.01325
M204 P1000
G1 X98.495 Y57.388 F9000
G1 E-3.2 F4200
G1 Z.4 F720
G1 X90.401 Y56.209 F9000
G1 Z.2 F720
G1 E3.2 F2400
M204 P800
;TYPE:Perimeter
;WIDTH:0.413067
G1 F1200
G1 X90.481 Y56.22 E.00247
;WIDTH:0.419999
G1 X91.049 Y56.479 E.01957
G1 X91.495 Y56.915 E.01958
G1 X91.771 Y57.476 E.01958
G1 X91.846 Y58.086 E.01928
G1 X91.745 Y58.623 E.01714
G1 X91.495 Y59.085 E.01645
G1 X91.346 Y59.259 E.00721
G1 X90.953 Y59.589 E.01609
G1 X90.482 Y59.783 E.01596
G1 X90.295 Y59.823 E.00599
G1 X89.736 Y59.833 E.01753
G1 X89.255 Y59.69 E.01575
G1 X89.084 Y59.604 E.00599
G1 X88.643 Y59.261 E.01753
G1 X88.358 Y58.847 E.01575
G1 X88.28 Y58.673 E.00599
G1 X88.155 Y58.167 E.01634
G1 X88.191 Y57.628 E.01694
G1 X88.418 Y57.046 E.01958
