; generated by PrusaSlicer 2.5.2+win64 on 2023-04-24 at 09:41:16 UTC


;
;

;
;
; 

; external perimeters extrusion width = 0.45mm
; perimeters extrusion width = 0.45mm
; infill extrusion width = 0.45mm
; solid infill extrusion width = 0.45mm
; top infill extrusion width = 0.40mm
; first layer extrusion width = 0.42mm

M73 P0 R10
M201 X2500 Y2500 Z400 E5000 ; sets maximum accelerations, mm/sec^2
M203 X180 Y180 Z12 E80 ; sets maximum feedrates, mm / sec
M204 P1250 R1250 T2500 ; sets acceleration (P, T) and retract acceleration (R), mm/sec^2
M205 X8.00 Y8.00 Z2.00 E10.00 ; sets the jerk limits, mm/sec
M205 S0 T0 ; sets the minimum extruding and travel feed rate, mm/sec
M107
;TYPE:Custom
M862.3 P "MINI" ; printer model check
G90 ; use absolute coordinates
M83 ; extruder relative mode
M104 S170 ; set extruder temp for bed leveling
M140 S60 ; set bed temp
M109 R170 ; wait for bed leveling temp
M190 S60 ; wait for bed temp
M204 T1250 ; set travel acceleration
G28 ; home all without mesh bed level
G29 ; mesh bed leveling 
M204 T2500 ; restore travel acceleration
M104 S215 ; set extruder temp
G92 E0
G1 Y-2 X179 F2400
G1 Z3 F720
M109 S215 ; wait for extruder temp

; intro line
G1 X170 F1000
G1 Z0.2 F720
G1 X110 E8 F900
G1 X40 E10 F700
G92 E0

M221 S95 ; set flow
G21 ; set units to millimeters
G90 ; use absolute coordinates
M83 ; use relative distances for extrusion
M900 K0.2 ; Filament gcode LA 1.5
; ; Filament gcode LA 1.0
M107
;LAYER_CHANGE
;Z:0.2
;HEIGHT:0.2
;BEFORE_LAYER_CHANGE
G92 E0.0
;0.2


M73 P1 R10
G1 E-3.2 F4200
M73 P2 R10
G1 Z.2 F720
;AFTER_LAYER_CHANGE
;0.2
G1 Z.4
G1 X68.705 Y79.569 F9000
G1 Z.2 F720
G1 E3.2 F2400
M204 P800
;TYPE:Skirt/Brim
;WIDTH:0.42
G1 F1200
G1 X70 Y79.246 E.04186
G1 X110 Y79.246 E1.25417
G1 X111.417 Y79.639 E.04612
G1 X112.431 Y80.705 E.04612
G1 X112.754 Y82 E.04186
G1 X112.754 Y98 E.50167
G1 X112.361 Y99.417 E.04612
G1 X111.295 Y100.431 E.04612
M73 P3 R10
G1 X110 Y100.754 E.04186
G1 X70 Y100.754 E1.25417
G1 X68.583 Y100.361 E.04612
G1 X67.569 Y99.295 E.04612
G1 X67.246 Y98 E.04186
G1 X67.246 Y82 E.50167
G1 X67.639 Y80.583 E.04612
G1 X68.661 Y79.611 E.04424
M204 P1000
G1 X68.927 Y79.928 F9000
M204 P800
G1 F1200
G1 X69.06 Y79.817 E.00544
G1 X70 Y79.623 E.03008
G1 X110 Y79.623 E1.25417
G1 X111.307 Y80.015 E.04278
G1 X112.183 Y81.06 E.04278
G1 X112.377 Y82 E.03008
G1 X112.377 Y98 E.50167
G1 X111.985 Y99.307 E.04278
G1 X110.94 Y100.183 E.04278
G1 X110 Y100.377 E.03008
M73 P4 R10
G1 X70 Y100.377 E1.25417
G1 X68.693 Y99.985 E.04278
G1 X67.817 Y98.94 E.04278
G1 X67.623 Y98 E.03008
G1 X67.623 Y82 E.50167
G1 X68.015 Y80.693 E.04278
G1 X68.881 Y79.967 E.03546
M204 P1000
; printing object A00020-PART-39-REV-P1.STL id:0 copy 0
G1 E-2.24 F4200
;WIPE_START
G1 F7200
G1 X69.06 Y79.817 E-.12943
G1 X70 Y79.623 E-.53172
G1 X70.453 Y79.623 E-.25085
;WIPE_END
G1 E-.048 F4200
G1 Z.4 F720
G1 X94.719 Y90.562 F9000
G1 X107.666 Y97.206
G1 Z.2 F720
G1 E3.2 F2400
M204 P800
;TYPE:Perimeter
;WIDTH:0.432906
G1 F1200
G1 X107.087 Y97.213 E.01876
;WIDTH:0.419999
G1 X72.235 Y97.215 E1.09276
G1 X72.61 Y97.122 E.0121
G1 X73.103 Y96.836 E.01789
G1 X73.477 Y96.405 E.01788
G1 X73.691 Y95.877 E.01788
G1 X73.737 Y95.509 E.01161
G1 X73.737 Y84.491 E.34547
G1 X73.606 Y83.85 E.0205
G1 X73.308 Y83.364 E.01788
G1 X72.868 Y83.001 E.01789
;WIDTH:0.438826
G1 X72.382 Y82.796 E.01736
G1 X72.913 Y82.787 E.01748
;WIDTH:0.419999
G1 X88.799 Y82.776 E.49809
G1 X88.512 Y83.123 E.01413
M73 P5 R10
G1 X88.298 Y83.682 E.01877
G1 X88.289 Y84.27 E.01844
G1 X88.477 Y84.825 E.01838
G1 X88.577 Y84.988 E.006
G1 X88.932 Y85.37 E.01636
G1 X89.391 Y85.627 E.01648
G1 X89.904 Y85.73 E.01642
G1 X90.096 Y85.73 E.00599
G1 X90.631 Y85.617 E.01714
G1 X91.068 Y85.37 E.01575
G1 X91.423 Y84.988 E.01636
G1 X91.523 Y84.825 E.006
G1 X91.711 Y84.27 E.01838
G1 X91.702 Y83.682 E.01844
G1 X91.488 Y83.123 E.01877
G1 X91.201 Y82.776 E.01413
G1 X107.807 Y82.781 E.52065
G1 X107.39 Y82.878 E.0134
G1 X106.897 Y83.164 E.01789
G1 X106.523 Y83.595 E.01788
G1 X106.309 Y84.123 E.01788
G1 X106.263 Y84.491 E.01161
G1 X106.263 Y95.509 E.34547
G1 X106.394 Y96.15 E.0205
G1 X106.692 Y96.636 E.01788
G1 X107.132 Y96.999 E.01789
;WIDTH:0.432906
G1 X107.61 Y97.185 E.01662
M204 P1000
G1 E-2.24 F4200
;WIPE_START
G1 F7200
G1 X107.087 Y97.213 E-.29008
G1 X105.965 Y97.213 E-.62192
;WIPE_END
G1 E-.048 F4200
G1 Z.4 F720
G1 X105.965 Y97.434 F9000
G1 X109.434 Y97.219
G1 X109.553 Y83.776
G1 X109.449 Y83.303
G1 X109.242 Y83.348
G1 Z.2 F720
G1 E3.2 F2400
M204 P800
;WIDTH:0.38686
G1 F1200
G1 X108.865 Y83.023 E.01423
;WIDTH:0.434384
G1 X108.337 Y82.794 E.01874
G1 X108.534 Y82.782 E.00644
;WIDTH:0.410739
G1 X109.235 Y82.771 E.02146
;WIDTH:0.38686
G1 X109.241 Y83.288 E.01481
M204 P1000
G1 E-3.2 F4200
G1 Z.4 F720
G1 X109.238 Y96.672 F9000
G1 Z.2 F720
G1 E3.2 F2400
M204 P800
;WIDTH:0.394161
G1 F1200
G1 X109.232 Y97.226 E.01619
G1 X108.846 Y97.226 E.01127
;WIDTH:0.407932
G1 X108.194 Y97.219 E.01981
G1 X108.237 Y97.209 E.00136
;WIDTH:0.406374
G1 X108.784 Y97.026 E.01742
;WIDTH:0.394161
G1 X109.19 Y96.709 E.01506
M204 P1000
G1 E-2.24 F4200
;WIPE_START
G1 F7200
G1 X109.232 Y97.226 E-.28755
G1 X108.846 Y97.226 E-.21381
G1 X108.194 Y97.219 E-.36163
G1 X108.237 Y97.209 E-.0248
G1 X108.279 Y97.195 E-.02421
;WIPE_END
G1 E-.048 F4200
G1 Z.4 F720
G1 X94.37 Y89.878 F9000
G1 Z.2 F720
G1 E3.2 F2400
M204 P800
;WIDTH:0.419999
G1 F1200
G1 X94.444 Y89.874 E.00235
G1 X94.778 Y89.95 E.01074
G1 X95.298 Y90.22 E.01836
G1 X95.698 Y90.648 E.01836
G1 X95.932 Y91.185 E.01836
G1 X95.985 Y91.691 E.01596
G1 X95.865 Y92.243 E.01771
G1 X95.612 Y92.671 E.01559
G1 X95.177 Y93.063 E.01835
G1 X94.637 Y93.289 E.01837
G1 X94.052 Y93.321 E.01836
G1 X93.49 Y93.157 E.01836
G1 X93.034 Y92.833 E.01753
G1 X92.685 Y92.34 E.01893
G1 X92.609 Y92.156 E.00624
G1 X92.515 Y91.6 E.01767
G1 X92.59 Y91.086 E.01629
G1 X92.818 Y90.62 E.01627
G1 X93.202 Y90.22 E.01739
G1 X93.381 Y90.104 E.00669
G1 X93.906 Y89.902 E.01763
G1 X94.31 Y89.881 E.01268
M204 P1000
G1 X94.38 Y90.246 F9000
M204 P800
;TYPE:External perimeter
G1 F1200
G1 X94.623 Y90.294 E.00775
G1 X95.037 Y90.493 E.0144
G1 X95.361 Y90.818 E.0144
G1 X95.558 Y91.233 E.0144
G1 X95.609 Y91.664 E.0136
G1 X95.498 Y92.136 E.01522
G1 X95.248 Y92.521 E.0144
G1 X94.885 Y92.801 E.01439
G1 X94.448 Y92.944 E.0144
G1 X93.989 Y92.933 E.0144
G1 X93.561 Y92.771 E.01437
G1 X93.228 Y92.492 E.01361
G1 X92.978 Y92.077 E.0152
G1 X92.892 Y91.626 E.0144
G1 X92.961 Y91.172 E.0144
G1 X93.181 Y90.763 E.01456
G1 X93.536 Y90.448 E.01489
G1 X93.939 Y90.278 E.01369
G1 X94.321 Y90.25 E.01201
M204 P1000
G1 X94.515 Y90.039 F9000
G1 E-3.2 F4200
G1 Z.4 F720
G1 X86.204 Y89.935 F9000
G1 Z.2 F720
G1 E3.2 F2400
M204 P800
;TYPE:Perimeter
G1 F1200
G1 X86.278 Y89.95 E.00239
G1 X86.732 Y90.166 E.01575
G1 X87.127 Y90.541 E.0171
G1 X87.376 Y91.002 E.01642
G1 X87.482 Y91.578 E.01836
G1 X87.474 Y91.769 E.00599
G1 X87.319 Y92.334 E.01836
G1 X86.985 Y92.815 E.01836
G1 X86.51 Y93.157 E.01835
G1 X85.948 Y93.321 E.01837
G1 X85.363 Y93.289 E.01836
G1 X84.825 Y93.065 E.01827
G1 X84.41 Y92.694 E.01747
G1 X84.137 Y92.246 E.01645
G1 X84.015 Y91.691 E.01782
G1 X84.068 Y91.185 E.01596
G1 X84.302 Y90.648 E.01836
G1 X84.702 Y90.22 E.01836
G1 X85.311 Y89.919 E.02131
G1 X85.861 Y89.866 E.01734
G1 X86.145 Y89.923 E.00906
M204 P1000
G1 X86.123 Y90.294 F9000
M204 P800
;TYPE:External perimeter
G1 F1200
G1 X86.537 Y90.493 E.0144
G1 X86.861 Y90.818 E.0144
G1 X87.058 Y91.233 E.0144
G1 X87.106 Y91.689 E.0144
G1 X86.975 Y92.174 E.01574
M73 P6 R10
G1 X86.748 Y92.521 E.01299
G1 X86.385 Y92.801 E.01439
G1 X85.948 Y92.944 E.0144
G1 X85.489 Y92.933 E.0144
G1 X85.061 Y92.771 E.01437
G1 X84.728 Y92.492 E.01361
G1 X84.478 Y92.077 E.0152
G1 X84.392 Y91.626 E.0144
G1 X84.461 Y91.172 E.0144
G1 X84.677 Y90.767 E.0144
G1 X85.016 Y90.457 E.0144
G1 X85.407 Y90.283 E.01341
G1 X85.88 Y90.246 E.0149
G1 X86.064 Y90.282 E.00587
M204 P1000
G1 X86.417 Y90.023 F9000
G1 E-3.2 F4200
G1 Z.4 F720
G1 X89.052 Y83.047 F9000
G1 Z.2 F720
G1 E3.2 F2400
M204 P800
;WIDTH:0.438869
G1 F1200
G1 X89.489 Y82.771 E.01703
G1 X89.98 Y82.72 E.01623
;WIDTH:0.436264
G1 X90.487 Y82.768 E.01668
G1 X90.948 Y83.047 E.01762
;WIDTH:0.419999
G1 X91.235 Y83.451 E.01553
G1 X91.351 Y83.859 E.01329
G1 X91.321 Y84.317 E.0144
G1 X91.14 Y84.739 E.0144
G1 X90.809 Y85.088 E.01507
G1 X90.417 Y85.292 E.01386
G1 X89.968 Y85.358 E.01422
G1 X89.518 Y85.27 E.0144
G1 X89.122 Y85.037 E.0144
G1 X88.827 Y84.685 E.0144
G1 X88.666 Y84.255 E.0144
G1 X88.658 Y83.795 E.01442
G1 X88.808 Y83.357 E.01452
G1 X89.015 Y83.094 E.01047
M204 P1000
G1 X88.967 Y82.656 F9000
G1 E-3.2 F4200
G1 Z.4 F720
G1 X71.613 Y82.798 F9000
G1 Z.2 F720
G1 E3.2 F2400
M204 P800
;TYPE:Perimeter
;WIDTH:0.440944
G1 F1200
G1 X71.374 Y82.91 E.00874
;WIDTH:0.413902
G1 X71.135 Y83.023 E.00815
;WIDTH:0.386859
G1 X70.758 Y83.348 E.01423
G1 X70.765 Y82.771 E.01652
G1 X71.081 Y82.771 E.00905
;WIDTH:0.413902
G1 X71.347 Y82.784 E.00822
;WIDTH:0.440944
G1 X71.553 Y82.794 E.00683
M204 P1000
G1 E-2.24 F4200
;WIPE_START
G1 F7200
G1 X71.374 Y82.91 E-.11813
G1 X71.135 Y83.023 E-.14638
G1 X70.758 Y83.348 E-.27573
G1 X70.765 Y82.771 E-.32018
G1 X70.858 Y82.771 E-.05158
;WIPE_END
G1 E-.048 F4200
G1 Z.4 F720
G1 X70.758 Y96.652 F9000
G1 Z.2 F720
G1 E3.2 F2400
M204 P800
;WIDTH:0.386857
G1 F1200
G1 X71.135 Y96.977 E.01423
;WIDTH:0.434372
G1 X71.663 Y97.206 E.01874
G1 X71.466 Y97.218 E.00644
;WIDTH:0.410732
G1 X70.765 Y97.229 E.02146
;WIDTH:0.386857
G1 X70.759 Y96.712 E.01481
M204 P1000
G1 X70.745 Y95.881 F9000
M204 P800
;TYPE:External perimeter
;WIDTH:0.425464
G1 F1200
G1 X70.714 Y95.488 E.01252
;WIDTH:0.423855
G1 X70.719 Y84.512 E.34766
;WIDTH:0.424409
G1 X70.762 Y84.059 E.01443
G1 X70.957 Y83.659 E.01413
;WIDTH:0.419999
G1 X71.284 Y83.352 E.01406
G1 X71.696 Y83.177 E.01405
G1 X72.128 Y83.146 E.01356
G1 X72.363 Y83.191 E.00753
G1 X72.769 Y83.38 E.01402
G1 X73.091 Y83.69 E.01402
G1 X73.295 Y84.088 E.01401
G1 X73.36 Y84.491 E.0128
G1 X73.36 Y92.067 E.23755
G1 X73.36 Y95.509 E.10792
G1 X73.335 Y95.754 E.00772
G1 X73.18 Y96.174 E.01402
G1 X72.897 Y96.52 E.01402
G1 X72.517 Y96.756 E.01402
G1 X72.081 Y96.856 E.01404
G1 X71.635 Y96.807 E.01406
G1 X71.229 Y96.61 E.01414
G1 X70.918 Y96.284 E.01413
;WIDTH:0.425464
G1 X70.769 Y95.936 E.01204
M204 P1000
G1 E-3.2 F4200
G1 Z.4 F720
G1 X72.193 Y97.219 F9000
G1 Z.2 F720
G1 E3.2 F2400
M204 P800
;TYPE:Perimeter
;WIDTH:0.434372
G1 F1200
G1 X71.663 Y97.206 E.01726
M204 P1000
G1 E-2.24 F4200
;WIPE_START
G1 F7200
G1 X72.193 Y97.219 E-.29384
;WIPE_END
G1 E-.66616 F4200
G1 Z.4 F720
G1 X72.158 Y97.007 F9000
G1 X72.125 Y97.012
G1 X71.875 Y97.012
G1 X71.627 Y96.971
G1 X71.39 Y96.89
G1 X71.17 Y96.771
G1 X70.992 Y96.595
G1 X70.867 Y96.382
G1 X70.775 Y96.163
G1 X70.713 Y95.942
G1 X70.677 Y95.721
G1 X70.666 Y95.516
G1 X70.666 Y84.484
G1 X70.677 Y84.279
G1 X70.713 Y84.058
G1 X70.775 Y83.837
G1 X70.867 Y83.618
G1 X70.992 Y83.405
G1 X71.17 Y83.229
G1 X71.39 Y83.11
G1 X71.627 Y83.029
G1 X71.651 Y83.025
G1 X71.613 Y82.798
G1 Z.2 F720
G1 E3.2 F2400
M204 P800
;WIDTH:0.440944
G1 F1200
G1 X72.189 Y82.78 E.01906
;WIDTH:0.438826
G1 X72.382 Y82.796 E.0064
M204 P1000
G1 E-2.24 F4200
;WIPE_START
G1 F7200
G1 X72.189 Y82.78 E-.10766
G1 X71.613 Y82.798 E-.31916
;WIPE_END
G1 E-.53318 F4200
G1 Z.4 F720
G1 X71.613 Y82.566 F9000
G1 X70.447 Y83.776
G1 X70.566 Y97.219
G1 X109.434 Y97.219
G1 X109.443 Y96.721
G1 X109.553 Y96.224
G1 X109.563 Y96.129
G1 X109.205 Y96.089
G1 Z.2 F720
G1 E3.2 F2400
M204 P800
;TYPE:External perimeter
;WIDTH:0.452318
G1 F1200
G1 X108.893 Y96.508 E.01778
;WIDTH:0.419999
G1 X108.517 Y96.754 E.01408
G1 X108.081 Y96.856 E.01404
G1 X107.637 Y96.809 E.01403
G1 X107.231 Y96.62 E.01402
G1 X106.909 Y96.31 E.01402
G1 X106.705 Y95.912 E.01401
G1 X106.64 Y95.509 E.0128
G1 X106.64 Y84.491 E.34547
G1 X106.665 Y84.246 E.00772
G1 X106.82 Y83.826 E.01402
G1 X107.103 Y83.48 E.01402
G1 X107.483 Y83.244 E.01402
G1 X107.919 Y83.144 E.01404
G1 X108.304 Y83.177 E.01209
G1 X108.771 Y83.39 E.0161
G1 X109.082 Y83.716 E.01413
;WIDTH:0.425464
G1 X109.255 Y84.119 E.01395
M73 P7 R10
G1 X109.286 Y84.512 E.01252
;WIDTH:0.423855
G1 X109.281 Y95.488 E.34766
;WIDTH:0.452318
G1 X109.212 Y96.029 E.01858
M204 P1000
G1 E-2.24 F4200
;WIPE_START
G1 F7200
G1 X108.893 Y96.508 E-.31879
G1 X108.517 Y96.754 E-.24878
G1 X108.081 Y96.856 E-.24812
G1 X107.909 Y96.838 E-.09631
;WIPE_END
G1 E-.048 F4200
G1 Z.4 F720
G1 X107.909 Y97.012 F9000
G1 X107.875 Y97.012
G1 X107.627 Y96.971
G1 X107.39 Y96.89
G1 X107.17 Y96.771
G1 X106.972 Y96.617
G1 X106.802 Y96.432
G1 X106.665 Y96.222
G1 X106.565 Y95.993
G1 X106.503 Y95.75
G1 X106.484 Y95.523
G1 X106.484 Y84.477
G1 X106.503 Y84.25
G1 X106.565 Y84.007
G1 X106.665 Y83.778
G1 X106.802 Y83.568
G1 X106.972 Y83.383
G1 X107.17 Y83.229
G1 X107.39 Y83.11
G1 X107.627 Y83.029
G1 X107.842 Y82.993
G1 X107.807 Y82.781
G1 Z.2 F720
G1 E3.2 F2400
M204 P800
;TYPE:Perimeter
;WIDTH:0.434384
G1 F1200
G1 X108.337 Y82.794 E.01726
M204 P1000
G1 X109.592 Y82.41 F9000
M204 P800
;TYPE:External perimeter
;WIDTH:0.419999
G1 F1200
G1 X109.603 Y83.422 E.03174
;WIDTH:0.423734
G1 X109.664 Y84.512 E.03456
;WIDTH:0.423855
G1 X109.661 Y95.499 E.34802
;WIDTH:0.452438
G1 X109.608 Y96.149 E.0222
G1 X109.602 Y96.675 E.01791
;WIDTH:0.419999
G1 X109.592 Y97.59 E.02869
G1 X70.408 Y97.59 E1.2286
G1 X70.397 Y96.578 E.03174
;WIDTH:0.426734
G1 X70.336 Y95.488 E.03483
;WIDTH:0.423855
G1 X70.338 Y84.512 E.34766
;WIDTH:0.426054
G1 X70.396 Y83.503 E.03221
;WIDTH:0.419999
G1 X70.408 Y82.41 E.03426
G1 X88.931 Y82.397 E.58079
;WIDTH:0.436911
G1 X90.011 Y82.341 E.03542
;WIDTH:0.423481
G1 X90.997 Y82.396 E.03124
;WIDTH:0.419999
G1 X91.997 Y82.41 E.03138
G1 X109.532 Y82.41 E.5498
M204 P1000
G1 X109.395 Y82.758 F9000
M73 P8 R9
G1 E-2.24 F4200
;WIPE_START
G1 F7200
G1 X109.603 Y83.422 E-.56226
G1 X109.638 Y84.052 E-.34974
;WIPE_END
G1 E-.048 F4200
G1 Z.4 F720
G1 X109.323 Y84.279 F9000
G1 X109.334 Y84.484
G1 X109.334 Y95.516
G1 X109.323 Y95.721
G1 X109.287 Y95.942
G1 X109.225 Y96.163
G1 X109.133 Y96.382
G1 X109.008 Y96.595
G1 X108.83 Y96.771
G1 X108.61 Y96.89
G1 X108.373 Y96.971
G1 X108.158 Y97.007
G1 X108.194 Y97.219
G1 Z.2 F720
G1 E3.2 F2400
M204 P800
;TYPE:Perimeter
;WIDTH:0.432906
G1 F1200
G1 X107.666 Y97.206 E.01712
M204 P1000
G1 E-2.24 F4200
;WIPE_START
G1 F7200
G1 X108.194 Y97.219 E-.29265
;WIPE_END
G1 E-.66735 F4200
G1 Z.4 F720
G1 X108.194 Y97.434 F9000
G1 X109.553 Y96.224
G1 X109.434 Y82.781
G1 X109.434 Y82.566
G1 X106.305 Y82.566
G1 X106.305 Y82.9
G1 Z.2 F720
G1 E3.2 F2400
M204 P800
;TYPE:Solid infill
;WIDTH:0.423373
G1 F1200
G1 X106.53 Y83.125 E.01007
G1 X106.294 Y83.428 E.01213
G1 X105.936 Y83.07 E.01603
G1 X105.398 Y83.069 E.01703
G1 X106.123 Y83.794 E.03243
G1 X106.039 Y84.037 E.00812
G1 X106.003 Y84.212 E.00566
G1 X104.86 Y83.069 E.05114
G1 X104.321 Y83.069 E.01703
G1 X105.98 Y84.728 E.07421
G1 X105.98 Y85.266 E.01702
G1 X103.783 Y83.069 E.09829
G1 X103.245 Y83.069 E.01703
G1 X105.98 Y85.804 E.12237
G1 X105.98 Y86.342 E.01702
G1 X102.707 Y83.068 E.14645
G1 X102.168 Y83.068 E.01703
G1 X105.98 Y86.88 E.17053
G1 X105.98 Y87.418 E.01702
G1 X101.63 Y83.068 E.19461
G1 X101.092 Y83.068 E.01703
G1 X105.98 Y87.956 E.21869
G1 X105.98 Y88.494 E.01702
G1 X100.554 Y83.068 E.24277
G1 X100.016 Y83.067 E.01703
G1 X105.98 Y89.032 E.26685
G1 X105.98 Y89.57 E.01702
G1 X99.477 Y83.067 E.29093
G1 X98.939 Y83.067 E.01703
G1 X105.98 Y90.108 E.31501
G1 X105.98 Y90.646 E.01702
G1 X98.401 Y83.067 E.33909
G1 X97.863 Y83.067 E.01703
G1 X105.98 Y91.184 E.36317
G1 X105.98 Y91.722 E.01702
M73 P9 R9
G1 X97.324 Y83.066 E.38725
G1 X96.786 Y83.066 E.01703
G1 X105.98 Y92.26 E.41133
G1 X105.98 Y92.798 E.01702
G1 X96.248 Y83.066 E.43541
G1 X95.71 Y83.066 E.01703
G1 X105.98 Y93.336 E.45949
G1 X105.98 Y93.874 E.01702
G1 X95.171 Y83.066 E.48357
G1 X94.633 Y83.065 E.01703
G1 X105.98 Y94.412 E.50765
G1 X105.98 Y94.95 E.01702
G1 X94.095 Y83.065 E.53173
G1 X93.557 Y83.065 E.01703
G1 X105.98 Y95.488 E.55581
G1 X106.056 Y96.029 E.01726
G1 X106.094 Y96.141 E.00375
G1 X93.018 Y83.065 E.58499
G1 X92.48 Y83.065 E.01703
M73 P10 R9
G1 X106.346 Y96.93 E.62032
G1 X105.808 Y96.93 E.01702
G1 X91.942 Y83.064 E.62033
G1 X91.769 Y83.064 E.00548
G1 X91.851 Y83.21 E.0053
