; generated by PrusaSlicer 2.5.0+win64 on 2023-04-12 at 15:25:13 UTC


;
;

;
;
; 

; external perimeters extrusion width = 0.45mm
; perimeters extrusion width = 0.45mm
; infill extrusion width = 0.45mm
; solid infill extrusion width = 0.45mm
; top infill extrusion width = 0.40mm
; support material extrusion width = 0.35mm
; first layer extrusion width = 0.42mm

M73 P0 R49
M201 X2500 Y2500 Z400 E5000 ; sets maximum accelerations, mm/sec^2
M203 X180 Y180 Z12 E80 ; sets maximum feedrates, mm / sec
M204 P1250 R1250 T2500 ; sets acceleration (P, T) and retract acceleration (R), mm/sec^2
M205 X8.00 Y8.00 Z2.00 E10.00 ; sets the jerk limits, mm/sec
M205 S0 T0 ; sets the minimum extruding and travel feed rate, mm/sec
M107
;TYPE:Custom
M862.3 P "MINI" ; printer model check
G90 ; use absolute coordinates
M83 ; extruder relative mode
M104 S170 ; set extruder temp for bed leveling
M140 S60 ; set bed temp
M109 R170 ; wait for bed leveling temp
M190 S60 ; wait for bed temp
M204 T1250 ; set travel acceleration
G28 ; home all without mesh bed level
G29 ; mesh bed leveling 
M204 T2500 ; restore travel acceleration
M104 S215 ; set extruder temp
G92 E0
G1 Y-2 X179 F2400
G1 Z3 F720
M109 S215 ; wait for extruder temp

; intro line
G1 X170 F1000
G1 Z0.2 F720
G1 X110 E8 F900
G1 X40 E10 F700
G92 E0

M221 S95 ; set flow
G21 ; set units to millimeters
G90 ; use absolute coordinates
M83 ; use relative distances for extrusion
M900 K0.2 ; Filament gcode LA 1.5
; ; Filament gcode LA 1.0
M107
;LAYER_CHANGE
;Z:0.2
;HEIGHT:0.2
;BEFORE_LAYER_CHANGE
G92 E0.0
;0.2


G1 E-3.2 F4200
G1 Z.2 F720
;AFTER_LAYER_CHANGE
;0.2
G1 Z.4
G1 X64.066 Y61.947 F9000
G1 Z.2 F720
G1 E3.2 F2400
M204 P800
;TYPE:Skirt/Brim
;WIDTH:0.42
G1 F1200
G1 X66.58 Y59.727 E.10517
G1 X69.368 Y57.693 E.1082
G1 X73.011 Y55.569 E.13222
G1 X75.968 Y54.216 E.10196
G1 X76.735 Y53.959 E.02534
G1 X77.615 Y53.809 E.02801
G1 X102.385 Y53.809 E.77664
G1 X103.742 Y54.106 E.04356
G1 X105.807 Y54.989 E.07042
G1 X107.578 Y55.877 E.06212
G1 X110.632 Y57.693 E.11139
G1 X113.42 Y59.727 E.1082
G1 X115.934 Y61.947 E.10517
G1 X118.609 Y64.807 E.12279
G1 X119.29 Y65.797 E.03768
G1 X119.622 Y66.539 E.02547
G1 X127.16 Y89.805 E.76682
G1 X127.289 Y90.689 E.02801
G1 X127.284 Y91.469 E.02445
G1 X126.91 Y94.723 E.1027
G1 X126.014 Y98.848 E.13237
G1 X124.941 Y102.128 E.1082
G1 X123.606 Y105.205 E.10517
G1 X121.713 Y108.634 E.12279
G1 X120.982 Y109.587 E.03768
G1 X120.379 Y110.132 E.02547
G1 X100.581 Y124.491 E.76682
G1 X99.78 Y124.887 E.02801
G1 X99.037 Y125.123 E.02445
G1 X95.817 Y125.774 E.10301
G1 X91.726 Y126.193 E.12893
G1 X88.175 Y126.189 E.11135
G1 X84.903 Y125.878 E.10307
G1 X80.692 Y125.048 E.13457
G1 X79.858 Y124.728 E.02801
G1 X79.153 Y124.323 E.02547
G1 X59.621 Y110.132 E.757
G1 X58.756 Y109.292 E.03781
G1 X58.054 Y108.232 E.03986
G1 X56.394 Y105.205 E.10824
G1 X55.059 Y102.128 E.10517
G1 X53.957 Y98.752 E.11135
G1 X53.133 Y95.01 E.12014
G1 X52.719 Y91.497 E.11092
G1 X52.75 Y90.296 E.03768
G1 X52.917 Y89.501 E.02547
G1 X60.378 Y66.539 E.757
G1 X60.71 Y65.797 E.02547
G1 X61.372 Y64.828 E.0368
G1 X64.025 Y61.991 E.1218
M204 P1000
; printing object A00020-PART-21-REV-P1.STL id:0 copy 0
G1 E-2.24 F4200
;WIPE_START
G1 F7200
G1 X65.257 Y60.899 E-.912
;WIPE_END
G1 E-.048 F4200
G1 Z.4 F720
G1 X91.628 Y76.273 F9000
G1 X91.664 Y76.281
G1 X91.524 Y76.935
G1 Z.2 F720
G1 E3.2 F2400
M204 P800
;TYPE:Support material
G1 F1200
G1 X93.522 Y77.365 E.0641
G1 X95.41 Y78.124 E.06381
G1 X97.146 Y79.193 E.0639
G1 X97.558 Y79.555 E.01719
G1 X97.558 Y80.135 E.0182
G1 X98.217 Y80.135 E.02067
G1 X98.678 Y80.541 E.01927
G1 X99.865 Y82.011 E.05921
G1 X99.865 Y82.442 E.01354
G1 X100.134 Y82.442 E.00844
G1 X100.953 Y83.909 E.05269
G1 X101.631 Y85.829 E.06382
G1 X101.977 Y87.842 E.06405
G1 X102.02 Y88.851 E.03168
G1 X101.977 Y89.871 E.032
G1 X101.632 Y91.884 E.06403
G1 X100.952 Y93.807 E.06394
G1 X99.957 Y95.588 E.06399
G1 X98.68 Y97.17 E.06374
M73 P1 R49
G1 X97.144 Y98.522 E.06415
G1 X95.411 Y99.589 E.06381
G1 X93.522 Y100.348 E.06384
G1 X91.524 Y100.778 E.06406
G1 X89.491 Y100.865 E.06382
G1 X87.468 Y100.606 E.06393
G1 X85.517 Y100.008 E.06397
G1 X83.702 Y99.093 E.06376
G1 X82.057 Y97.877 E.06414
G1 X80.649 Y96.407 E.06382
G1 X80.135 Y95.648 E.02874
G1 X80.135 Y95.251 E.01245
G1 X79.867 Y95.251 E.00842
G1 X79.508 Y94.72 E.02009
G1 X78.667 Y92.859 E.06404
G1 X78.154 Y90.889 E.06382
G1 X77.981 Y88.857 E.06395
G1 X78.154 Y86.824 E.06395
G1 X78.667 Y84.856 E.06378
M73 P1 R48
G1 X79.509 Y82.992 E.06412
G1 X80.649 Y81.306 E.06382
G1 X82.058 Y79.835 E.06387
G1 X83.7 Y78.621 E.06403
G1 X85.517 Y77.705 E.06382
G1 X87.468 Y77.107 E.06397
G1 X89.491 Y76.848 E.06393
G1 X91.467 Y76.932 E.06203
M204 P1000
G1 X101.312 Y92.278 F9000
M204 P800
G1 F1200
G1 X101.312 Y85.976 E.19759
G1 X100.893 Y84.759 E.04037
G1 X100.893 Y92.955 E.25698
G1 X100.642 Y93.666 E.02367
G1 X100.474 Y93.966 E.01077
G1 X100.474 Y83.748 E.32038
G1 X100.055 Y82.998 E.02694
G1 X100.055 Y94.716 E.36741
G1 X99.636 Y95.445 E.02636
G1 X99.636 Y82.782 E.39705
G1 X99.525 Y82.782 E.00349
G1 X99.525 Y82.13 E.02042
G1 X99.217 Y81.749 E.01536
G1 X99.217 Y95.964 E.44569
G1 X98.799 Y96.483 E.02091
G1 X98.799 Y81.23 E.47823
G1 X98.38 Y80.73 E.02045
G1 X98.38 Y96.982 E.50956
G1 X97.961 Y97.351 E.0175
G1 X97.961 Y80.475 E.52914
G1 X97.542 Y80.475 E.01314
G1 X97.542 Y97.72 E.5407
G1 X97.123 Y98.088 E.0175
G1 X97.123 Y79.624 E.57893
G1 X96.943 Y79.467 E.00748
G1 X96.704 Y79.319 E.00883
G1 X96.704 Y98.394 E.5981
G1 X96.285 Y98.652 E.01543
G1 X96.285 Y79.061 E.61427
G1 X95.866 Y78.803 E.01543
G1 X95.866 Y98.91 E.63045
G1 X95.447 Y99.168 E.01543
G1 X95.447 Y78.545 E.64663
G1 X95.257 Y78.428 E.00698
G1 X95.028 Y78.336 E.00775
G1 X95.028 Y99.377 E.65972
G1 X94.609 Y99.545 E.01416
G1 X94.609 Y78.168 E.67028
G1 X94.19 Y77.999 E.01416
G1 X94.19 Y99.714 E.68084
G1 X93.771 Y99.882 E.01416
G1 X93.771 Y77.831 E.6914
G1 X93.422 Y77.691 E.01177
G1 X93.352 Y77.676 E.00226
G1 X93.352 Y100.037 E.70113
G1 X92.933 Y100.128 E.01344
G1 X92.933 Y77.586 E.7068
G1 X92.514 Y77.495 E.01344
G1 X92.514 Y100.218 E.71246
G1 X92.095 Y100.308 E.01344
G1 X92.095 Y77.405 E.71812
G1 X91.676 Y77.315 E.01344
G1 X91.676 Y100.399 E.72378
G1 X91.481 Y100.441 E.00625
G1 X91.257 Y100.45 E.00703
G1 X91.257 Y77.263 E.72702
G1 X90.838 Y77.245 E.01315
G1 X90.838 Y100.468 E.72813
G1 X90.419 Y100.486 E.01315
G1 X90.419 Y77.227 E.72925
G1 X90 Y77.21 E.01315
G1 X90 Y100.504 E.73037
G1 X89.581 Y100.521 E.01315
M73 P2 R48
G1 X89.581 Y77.192 E.73148
G1 X89.162 Y77.233 E.0132
G1 X89.162 Y100.481 E.72893
G1 X88.743 Y100.427 E.01324
G1 X88.743 Y77.286 E.72556
G1 X88.324 Y77.34 E.01324
G1 X88.324 Y100.373 E.7222
G1 X87.905 Y100.32 E.01324
G1 X87.905 Y77.393 E.71884
G1 X87.486 Y77.457 E.01329
G1 X87.486 Y100.256 E.71487
G1 X87.067 Y100.128 E.01374
G1 X87.067 Y77.585 E.70682
G1 X86.648 Y77.713 E.01374
G1 X86.648 Y100 E.69878
G1 X86.229 Y99.872 E.01374
G1 X86.229 Y77.842 E.69073
G1 X85.81 Y77.97 E.01374
G1 X85.81 Y99.743 E.68268
G1 X85.644 Y99.692 E.00544
G1 X85.391 Y99.565 E.00889
G1 X85.391 Y78.148 E.6715
G1 X84.972 Y78.36 E.01471
G1 X84.972 Y99.354 E.65825
G1 X84.553 Y99.142 E.01471
G1 X84.553 Y78.571 E.645
G1 X84.134 Y78.782 E.01471
G1 X84.134 Y98.931 E.63176
G1 X83.88 Y98.803 E.00892
G1 X83.715 Y98.681 E.00643
G1 X83.715 Y79.032 E.61609
G1 X83.296 Y79.342 E.01634
G1 X83.296 Y98.371 E.59665
G1 X82.877 Y98.061 E.01634
G1 X82.877 Y79.652 E.57722
G1 X82.458 Y79.961 E.01634
G1 X82.458 Y97.751 E.55779
G1 X82.282 Y97.621 E.00688
G1 X82.039 Y97.368 E.01099
G1 X82.039 Y80.345 E.53373
G1 X81.62 Y80.783 E.01899
G1 X81.62 Y96.931 E.50631
G1 X81.201 Y96.493 E.01899
G1 X81.201 Y81.22 E.4789
G1 X80.914 Y81.52 E.01304
G1 X80.783 Y81.714 E.00734
G1 X80.783 Y95.999 E.4479
G1 X80.475 Y95.544 E.01724
G1 X80.475 Y94.911 E.01983
G1 X80.364 Y94.911 E.00349
G1 X80.364 Y82.334 E.39435
G1 X79.945 Y82.954 E.02346
G1 X79.945 Y94.759 E.37015
G1 X79.806 Y94.554 E.00778
G1 X79.526 Y93.934 E.02131
G1 X79.526 Y83.779 E.3184
G1 X79.107 Y84.706 E.03189
G1 X79.107 Y93.007 E.26028
G1 X78.988 Y92.745 E.00903
G1 X78.688 Y91.591 E.03738
G1 X78.688 Y85.448 E.19261
M204 P1000
G1 E-2.24 F4200
;WIPE_START
G1 F7200
G1 X78.688 Y87.094 E-.912
;WIPE_END
G1 E-.048 F4200
G1 Z.4 F720
G1 X77.325 Y85.857 F9000
G1 X68.564 Y78.028
G1 X68.77 Y78.092
G1 Z.2 F720
G1 E3.2 F2400
M204 P800
;TYPE:Perimeter
;WIDTH:0.419999
G1 F1200
G1 X68.963 Y77.024 E.03402
G1 X68.989 Y76.264 E.02387
G1 X68.881 Y75.371 E.0282
G1 X68.636 Y74.505 E.0282
G1 X68.259 Y73.688 E.0282
G1 X67.815 Y73.009 E.02545
G1 X67.153 Y72.277 E.03095
G1 X66.493 Y71.746 E.02656
G1 X65.005 Y70.723 E.0566
;WIDTH:0.468702
G1 X64.543 Y70.376 E.02047
G1 X65.109 Y70.451 E.02022
;WIDTH:0.419999
G1 X65.688 Y70.359 E.01836
G1 X66.23 Y70.055 E.01949
G1 X66.597 Y69.643 E.01731
G1 X66.82 Y69.105 E.01825
G1 X66.852 Y68.916 E.00599
G1 X66.839 Y68.398 E.01625
G1 X66.666 Y67.905 E.01638
G1 X66.327 Y67.461 E.01752
G1 X65.865 Y67.149 E.01748
G1 X65.263 Y66.993 E.01949
G1 X64.713 Y67.037 E.01731
;WIDTH:0.453086
G1 X64.11 Y67.292 E.02233
;WIDTH:0.467201
G1 X63.893 Y67.489 E.01031
G1 X63.774 Y67.661 E.00739
;WIDTH:0.433012
G1 X63.654 Y67.833 E.0068
;WIDTH:0.441136
G1 X63.591 Y67.94 E.00411
;WIDTH:0.483449
G1 X63.528 Y68.047 E.00454
;WIDTH:0.525762
G1 X63.465 Y68.153 E.00498
;WIDTH:0.568075
G1 X63.402 Y68.26 E.00542
;WIDTH:0.610388
G1 X63.338 Y68.367 E.00585
G1 X63.322 Y68.277 E.00431
;WIDTH:0.565343
G1 X63.306 Y68.187 E.00396
;WIDTH:0.520297
G1 X63.29 Y68.098 E.00362
;WIDTH:0.475251
G1 X63.273 Y68.008 E.00328
;WIDTH:0.430205
G1 X63.257 Y67.918 E.00294
;WIDTH:0.430494
G1 X63.433 Y67.449 E.01614
;WIDTH:0.453086
G1 X63.78 Y66.908 E.02193
G1 X64.108 Y66.528 E.0171
;WIDTH:0.419999
G1 X66.032 Y64.444 E.08894
G1 X68.555 Y62.2 E.10587
G1 X69.439 Y61.556 E.03431
;WIDTH:0.454101
G1 X70.56 Y60.752 E.04715
;WIDTH:0.439301
G1 X71.045 Y60.386 E.02002
;WIDTH:0.419999
G1 X71.589 Y60.03 E.0204
G1 X74.188 Y58.518 E.09426
G1 X76.734 Y57.347 E.08788
;WIDTH:0.462035
G1 X77.262 Y57.129 E.01989
G1 X77.817 Y56.981 E.02003
;WIDTH:0.43423
G1 X78.314 Y56.948 E.01621
;WIDTH:0.429201
G1 X78.385 Y56.985 E.00254
;WIDTH:0.47338
G1 X78.455 Y57.021 E.00284
;WIDTH:0.51756
G1 X78.526 Y57.057 E.00313
;WIDTH:0.561739
G1 X78.596 Y57.093 E.00342
;WIDTH:0.605918
G1 X78.667 Y57.129 E.00371
G1 X78.601 Y57.16 E.0034
;WIDTH:0.562919
G1 X78.536 Y57.191 E.00314
;WIDTH:0.519919
G1 X78.47 Y57.223 E.00288
;WIDTH:0.47692
G1 X78.404 Y57.254 E.00262
;WIDTH:0.43392
G1 X78.339 Y57.285 E.00236
;WIDTH:0.417397
G1 X78.029 Y57.32 E.0097
;WIDTH:0.450817
G1 X77.798 Y57.413 E.00846
;WIDTH:0.484237
G1 X77.566 Y57.506 E.00916
G1 X77.42 Y57.642 E.00732
;WIDTH:0.439006
G1 X77.046 Y58.093 E.0193
;WIDTH:0.419999
G1 X76.834 Y58.639 E.01836
G1 X76.817 Y59.226 E.01842
G1 X76.991 Y59.776 E.0181
G1 X77.285 Y60.192 E.01597
G1 X77.717 Y60.516 E.01692
G1 X78.218 Y60.686 E.01657
G1 X78.407 Y60.71 E.00599
G1 X78.99 Y60.653 E.01836
G1 X79.521 Y60.405 E.01837
G1 X79.938 Y59.994 E.01835
G1 X80.195 Y59.468 E.01836
;WIDTH:0.462832
G1 X80.288 Y58.915 E.01958
G1 X80.469 Y59.452 E.01979
;WIDTH:0.419999
G1 X81.005 Y61.254 E.05895
G1 X81.292 Y62.004 E.02518
G1 X81.798 Y62.878 E.03166
G1 X82.352 Y63.557 E.02748
G1 X83.022 Y64.157 E.0282
G1 X83.777 Y64.646 E.0282
G1 X84.516 Y64.982 E.02545
G1 X85.467 Y65.247 E.03095
G1 X86.37 Y65.344 E.02847
G1 X90 Y65.145 E.11399
G1 X93.726 Y65.341 E.117
M73 P3 R48
G1 X94.616 Y65.231 E.02811
G1 X95.401 Y65.013 E.02556
G1 X96.3 Y64.604 E.03095
G1 X97.047 Y64.103 E.0282
G1 X97.802 Y63.376 E.03286
G1 X98.266 Y62.787 E.02351
G1 X98.708 Y62.004 E.0282
G1 X99.009 Y61.212 E.02656
G1 X99.574 Y59.305 E.06236
;WIDTH:0.438294
G1 X99.729 Y58.816 E.01686
G1 X99.77 Y59.325 E.01678
;WIDTH:0.419999
G1 X100.003 Y59.902 E.01949
G1 X100.365 Y60.319 E.01731
G1 X100.87 Y60.608 E.01825
G1 X101.446 Y60.714 E.01836
G1 X102.024 Y60.623 E.01836
G1 X102.209 Y60.546 E.00629
G1 X102.704 Y60.194 E.01904
G1 X103.024 Y59.742 E.01738
G1 X103.189 Y59.18 E.01836
G1 X103.156 Y58.595 E.01836
G1 X102.931 Y58.055 E.01836
;WIDTH:0.465861
G1 X102.755 Y57.823 E.01024
;WIDTH:0.511723
G1 X102.579 Y57.591 E.01135
G1 X102.237 Y57.409 E.01509
;WIDTH:0.463605
G1 X101.987 Y57.332 E.00917
;WIDTH:0.468226
G1 X101.869 Y57.293 E.00438
;WIDTH:0.513467
G1 X101.752 Y57.255 E.00485
;WIDTH:0.558708
G1 X101.634 Y57.216 E.00531
;WIDTH:0.603949
G1 X101.516 Y57.177 E.00578
;WIDTH:0.64919
G1 X101.399 Y57.138 E.00624
G1 X101.469 Y57.102 E.00397
;WIDTH:0.606034
G1 X101.539 Y57.065 E.00369
;WIDTH:0.562878
G1 X101.609 Y57.029 E.00341
;WIDTH:0.519721
G1 X101.813 Y56.993 E.00822
;WIDTH:0.471353
G1 X102.017 Y56.956 E.00739
;WIDTH:0.4575
G1 X102.347 Y57.015 E.01156
;WIDTH:0.484612
G1 X102.574 Y57.098 E.00888
;WIDTH:0.511723
G1 X103.114 Y57.292 E.02237
;WIDTH:0.465861
G1 X103.428 Y57.402 E.01169
;WIDTH:0.419999
G1 X104.427 Y57.836 E.03416
G1 X105.806 Y58.514 E.04817
G1 X108.725 Y60.224 E.10607
G1 X109.342 Y60.672 E.02392
;WIDTH:0.455566
G1 X109.892 Y61.093 E.02377
;WIDTH:0.46985
G1 X110.378 Y61.455 E.02151
G1 X110.911 Y61.812 E.02277
;WIDTH:0.419999
G1 X111.448 Y62.202 E.0208
G1 X113.643 Y64.144 E.09192
G1 X114.092 Y64.568 E.01936
G1 X115.587 Y66.194 E.06924
;WIDTH:0.456501
G1 X116.029 Y66.703 E.0232
;WIDTH:0.464936
G1 X116.435 Y67.22 E.02303
G1 X116.611 Y67.532 E.01258
;WIDTH:0.45418
G1 X116.65 Y67.718 E.00651
;WIDTH:0.486845
G1 X116.689 Y67.904 E.00703
;WIDTH:0.527267
G1 X116.678 Y67.982 E.00314
;WIDTH:0.567688
G1 X116.666 Y68.059 E.0034
;WIDTH:0.608109
G1 X116.655 Y68.136 E.00366
;WIDTH:0.64853
G1 X116.644 Y68.213 E.00392
G1 X116.601 Y68.158 E.00349
;WIDTH:0.608109
G1 X116.559 Y68.103 E.00326
;WIDTH:0.567688
G1 X116.516 Y68.049 E.00303
;WIDTH:0.527267
G1 X116.474 Y67.994 E.00279
;WIDTH:0.486845
G1 X116.165 Y67.545 E.0201
;WIDTH:0.478397
G1 X116.025 Y67.404 E.00719
;WIDTH:0.504573
M73 P3 R47
G1 X115.885 Y67.264 E.00762
G1 X115.701 Y67.178 E.00779
;WIDTH:0.456501
G1 X115.175 Y67.01 E.01898
;WIDTH:0.419999
G1 X114.815 Y66.988 E.01132
G1 X114.271 Y67.092 E.01735
G1 X113.77 Y67.379 E.01812
G1 X113.409 Y67.778 E.01686
G1 X113.194 Y68.256 E.01644
G1 X113.137 Y68.77 E.01621
G1 X113.153 Y68.96 E.00599
G1 X113.319 Y69.499 E.01767
G1 X113.607 Y69.913 E.01581
G1 X114.005 Y70.22 E.01574
G1 X114.554 Y70.422 E.01836
G1 X115.14 Y70.429 E.01836
;WIDTH:0.420858
G1 X115.694 Y70.242 E.0184
G1 X115.368 Y70.467 E.01245
;WIDTH:0.419999
G1 X113.657 Y71.642 E.06509
G1 X112.783 Y72.337 E.03501
G1 X112.185 Y73.009 E.0282
G1 X111.698 Y73.765 E.0282
G1 X111.334 Y74.588 E.0282
G1 X111.102 Y75.457 E.0282
G1 X111.008 Y76.351 E.0282
G1 X111.053 Y77.25 E.0282
G1 X111.24 Y78.138 E.02847
G1 X112.551 Y81.529 E.11399
G1 X113.484 Y85.043 E.11399
G1 X113.898 Y85.949 E.03122
G1 X114.4 Y86.695 E.0282
G1 X114.948 Y87.293 E.02545
G1 X115.72 Y87.91 E.03095
G1 X116.504 Y88.349 E.0282
G1 X117.348 Y88.662 E.0282
G1 X118.229 Y88.841 E.0282
G1 X119.075 Y88.883 E.02656
G1 X120.941 Y88.834 E.05854
;WIDTH:0.457308
G1 X121.497 Y88.838 E.01914
G1 X121.004 Y89.084 E.01897
;WIDTH:0.420067
G1 X120.556 Y89.515 E.0195
G1 X120.305 Y90.006 E.01732
G1 X120.225 Y90.583 E.01825
G1 X120.341 Y91.157 E.01836
G1 X120.425 Y91.339 E.00629
G1 X120.759 Y91.787 E.01754
G1 X121.18 Y92.086 E.01618
G1 X121.696 Y92.249 E.01697
G1 X122.227 Y92.242 E.01667
G1 X122.813 Y92.034 E.0195
G1 X123.245 Y91.69 E.01731
G1 X123.555 Y91.198 E.01825
G1 X123.658 Y90.787 E.01327
G1 X123.685 Y90.436 E.01105
;WIDTH:0.463318
G1 X123.688 Y90.331 E.00365
;WIDTH:0.508924
G1 X123.691 Y90.227 E.00405
;WIDTH:0.554529
G1 X123.694 Y90.123 E.00445
;WIDTH:0.600135
G1 X123.698 Y90.018 E.00484
;WIDTH:0.64574
G1 X123.701 Y89.914 E.00524
G1 X123.749 Y89.961 E.00341
;WIDTH:0.60803
G1 X123.798 Y90.009 E.0032
;WIDTH:0.570319
G1 X123.847 Y90.057 E.00298
;WIDTH:0.532609
G1 X123.895 Y90.104 E.00277
;WIDTH:0.494898
G1 X123.96 Y90.225 E.00516
;WIDTH:0.456305
G1 X124.026 Y90.346 E.00472
;WIDTH:0.420067
G1 X124.126 Y90.823 E.01531
;WIDTH:0.419999
G1 X124.132 Y91.186 E.01137
G1 X123.741 Y94.517 E.10516
G1 X123.072 Y97.551 E.09743
G1 X122.86 Y98.315 E.02483
;WIDTH:0.451041
G1 X122.739 Y98.633 E.01154
;WIDTH:0.482082
G1 X122.619 Y98.951 E.01242
G1 X122.477 Y99.442 E.01865
