; generated by PrusaSlicer 2.5.2+win64 on 2023-04-23 at 23:05:55 UTC


;
;

;
;
; 

; external perimeters extrusion width = 0.45mm
; perimeters extrusion width = 0.45mm
; infill extrusion width = 0.45mm
; solid infill extrusion width = 0.45mm
; top infill extrusion width = 0.40mm
; first layer extrusion width = 0.42mm

M73 P0 R35
M201 X2500 Y2500 Z400 E5000 ; sets maximum accelerations, mm/sec^2
M203 X180 Y180 Z12 E80 ; sets maximum feedrates, mm / sec
M204 P1250 R1250 T2500 ; sets acceleration (P, T) and retract acceleration (R), mm/sec^2
M205 X8.00 Y8.00 Z2.00 E10.00 ; sets the jerk limits, mm/sec
M205 S0 T0 ; sets the minimum extruding and travel feed rate, mm/sec
M107
;TYPE:Custom
M862.3 P "MINI" ; printer model check
G90 ; use absolute coordinates
M83 ; extruder relative mode
M104 S170 ; set extruder temp for bed leveling
M140 S60 ; set bed temp
M109 R170 ; wait for bed leveling temp
M190 S60 ; wait for bed temp
M204 T1250 ; set travel acceleration
G28 ; home all without mesh bed level
G29 ; mesh bed leveling 
M204 T2500 ; restore travel acceleration
M104 S215 ; set extruder temp
G92 E0
G1 Y-2 X179 F2400
G1 Z3 F720
M109 S215 ; wait for extruder temp

; intro line
G1 X170 F1000
G1 Z0.2 F720
G1 X110 E8 F900
G1 X40 E10 F700
G92 E0

M221 S95 ; set flow
G21 ; set units to millimeters
G90 ; use absolute coordinates
M83 ; use relative distances for extrusion
M900 K0.2 ; Filament gcode LA 1.5
; ; Filament gcode LA 1.0
M107
;LAYER_CHANGE
;Z:0.2
;HEIGHT:0.2
;BEFORE_LAYER_CHANGE
G92 E0.0
;0.2


G1 E-3.2 F4200
G1 Z.2 F720
;AFTER_LAYER_CHANGE
;0.2
G1 Z.4
G1 X47.977 Y88.928 F9000
G1 Z.2 F720
G1 E3.2 F2400
M204 P800
;TYPE:Skirt/Brim
;WIDTH:0.42
G1 F1200
G1 X49.354 Y88.315 E.04727
G1 X97.41 Y74.514 E1.56766
G1 X99.088 Y74.653 E.05279
G1 X131.655 Y90.16 E1.13096
G1 X135.565 Y92.721 E.14656
G1 X136.437 Y93.77 E.04278
G1 X136.627 Y94.701 E.02979
G1 X136.627 Y97.701 E.09406
G1 X135.951 Y99.362 E.05622
M73 P1 R35
G1 X133.068 Y102.28 E.12862
G1 X132.047 Y103.019 E.03951
G1 X130.532 Y103.71 E.0522
G1 X129.705 Y103.927 E.0268
G1 X128.453 Y104.07 E.03951
G1 X52.275 Y105.578 E2.389
G1 X50.887 Y105.466 E.04365
G1 X49.389 Y105.098 E.04838
G1 X47.62 Y104.267 E.06128
G1 X46.695 Y103.617 E.03545
G1 X45.581 Y102.55 E.04838
G1 X44.462 Y100.947 E.06127
G1 X43.844 Y99.534 E.04838
G1 X43.552 Y98.441 E.03545
G1 X43.382 Y96.908 E.04837
G1 X43.48 Y95.368 E.04838
G1 X43.844 Y93.869 E.04838
G1 X44.668 Y92.097 E.06127
G1 X45.581 Y90.853 E.04837
G1 X46.695 Y89.786 E.04837
G1 X47.927 Y88.961 E.04649
M204 P1000
; printing object A00020-PART-33-REV-P1.STL id:0 copy 0
G1 E-2.24 F4200
;WIPE_START
G1 F7200
G1 X49.354 Y88.315 E-.86825
G1 X49.43 Y88.293 E-.04375
;WIPE_END
G1 E-.048 F4200
G1 Z.4 F720
G1 X56.113 Y92.426 F9000
G1 Z.2 F720
G1 E3.2 F2400
M204 P800
;TYPE:Perimeter
;WIDTH:0.419999
G1 F1200
G1 X56.334 Y92.488 E.00719
G1 X97.022 Y92.481 E1.27575
G1 X97.26 Y92.384 E.00805
G1 X97.445 Y92.162 E.00908
G1 X97.499 Y91.923 E.00768
G1 X97.499 Y78.577 E.41844
G1 X98.112 Y77.911 E.0284
G1 X113.78 Y92.339 E.66783
G1 X113.912 Y92.43 E.00502
M73 P1 R34
G1 X114.164 Y92.488 E.00809
G1 X128.217 Y92.488 E.44065
G1 X128.944 Y92.549 E.02286
G1 X129.619 Y92.72 E.02184
G1 X130.257 Y93 E.02184
G1 X130.839 Y93.382 E.02184
G1 X131.351 Y93.854 E.02184
G1 X131.778 Y94.404 E.02184
G1 X132.238 Y95.249 E.03014
G1 X132.436 Y95.423 E.00827
G1 X132.7 Y95.488 E.00854
G1 X133.463 Y95.488 E.02391
G1 X133.463 Y96.914 E.04471
G1 X132.876 Y96.925 E.01841
G1 X132.616 Y97.05 E.00904
G1 X132.506 Y97.177 E.00527
G1 X132.441 Y97.32 E.00493
G1 X132.171 Y98.234 E.02988
G1 X131.853 Y98.879 E.02257
G1 X131.429 Y99.461 E.02257
G1 X130.913 Y99.962 E.02257
G1 X130.318 Y100.368 E.02257
G1 X129.663 Y100.667 E.02257
G1 X128.967 Y100.85 E.02257
G1 X128.216 Y100.914 E.02363
G1 X56.259 Y100.919 E2.25615
G1 X56.012 Y101.015 E.00832
G1 X55.082 Y101.659 E.03546
G1 X54.18 Y102.075 E.03114
G1 X53.22 Y102.328 E.03114
G1 X52.23 Y102.411 E.03114
G1 X51.241 Y102.321 E.03114
G1 X50.283 Y102.062 E.03114
G1 X49.384 Y101.64 E.03114
G1 X48.58 Y101.074 E.03082
G1 X47.87 Y100.364 E.03147
G1 X47.302 Y99.551 E.03112
G1 X46.883 Y98.65 E.03114
G1 X46.626 Y97.691 E.03114
G1 X46.54 Y96.701 E.03114
G1 X46.626 Y95.712 E.03114
G1 X46.88 Y94.762 E.03082
G1 X47.302 Y93.852 E.03147
G1 X47.87 Y93.038 E.03112
G1 X48.571 Y92.334 E.03114
G1 X49.384 Y91.763 E.03114
G1 X50.283 Y91.341 E.03114
G1 X51.241 Y91.081 E.03114
G1 X52.23 Y90.991 E.03114
G1 X53.22 Y91.074 E.03114
G1 X54.18 Y91.328 E.03114
G1 X55.082 Y91.743 E.03114
G1 X56.056 Y92.41 E.03699
M204 P1000
G1 X56.227 Y92.078 F9000
M204 P800
;TYPE:External perimeter
G1 F1200
G1 X56.334 Y92.111 E.00353
G1 X96.933 Y92.111 E1.27295
G1 X97.063 Y92.06 E.00437
G1 X97.121 Y91.923 E.00468
G1 X97.121 Y78.43 E.42306
G1 X98.09 Y77.378 E.04484
G1 X114.036 Y92.061 E.67965
G1 X114.164 Y92.111 E.0043
G1 X128.233 Y92.111 E.44114
G1 X129.006 Y92.175 E.02433
G1 X129.742 Y92.362 E.0238
G1 X130.437 Y92.667 E.0238
G1 X131.072 Y93.083 E.0238
G1 X131.63 Y93.598 E.0238
G1 X132.095 Y94.198 E.0238
G1 X132.546 Y95.031 E.02972
G1 X132.7 Y95.111 E.00544
G1 X133.84 Y95.111 E.03573
G1 X133.84 Y97.291 E.06835
M73 P2 R34
G1 X132.983 Y97.291 E.02686
G1 X132.861 Y97.336 E.00409
G1 X132.803 Y97.426 E.00336
G1 X132.524 Y98.371 E.03089
G1 X132.177 Y99.075 E.0246
G1 X131.715 Y99.709 E.0246
G1 X131.152 Y100.256 E.0246
G1 X130.504 Y100.698 E.0246
G1 X129.79 Y101.024 E.0246
G1 X129.032 Y101.223 E.0246
G1 X128.232 Y101.291 E.02515
G1 X56.415 Y101.291 E2.25178
G1 X56.227 Y101.325 E.006
G1 X55.27 Y101.988 E.0365
G1 X54.308 Y102.431 E.0332
G1 X53.284 Y102.701 E.0332
G1 X52.229 Y102.79 E.0332
G1 X51.174 Y102.694 E.0332
G1 X50.152 Y102.417 E.0332
G1 X49.194 Y101.967 E.0332
G1 X48.336 Y101.364 E.03287
G1 X47.58 Y100.608 E.03354
G1 X46.974 Y99.739 E.0332
G1 X46.527 Y98.779 E.0332
G1 X46.254 Y97.756 E.0332
G1 X46.162 Y96.701 E.0332
G1 X46.254 Y95.646 E.0332
G1 X46.524 Y94.634 E.03287
G1 X46.974 Y93.663 E.03354
G1 X47.58 Y92.795 E.0332
G1 X48.328 Y92.045 E.0332
G1 X49.194 Y91.436 E.0332
G1 X50.152 Y90.986 E.0332
G1 X51.174 Y90.709 E.0332
G1 X52.229 Y90.613 E.0332
G1 X53.284 Y90.701 E.0332
G1 X54.308 Y90.971 E.0332
G1 X55.27 Y91.415 E.0332
G1 X56.177 Y92.044 E.03462
M204 P1000
G1 X56.243 Y92.189 F9000
G1 E-3.2 F4200
G1 Z.4 F720
G1 X55.255 Y95.386 F9000
G1 Z.2 F720
G1 E3.2 F2400
M204 P800
;TYPE:Perimeter
G1 F1200
G1 X55.418 Y95.827 E.01474
G1 X55.519 Y96.371 E.01734
G1 X55.527 Y96.936 E.01774
G1 X55.442 Y97.483 E.01734
G1 X55.264 Y98.011 E.01748
G1 X54.999 Y98.502 E.01748
G1 X54.655 Y98.94 E.01748
G1 X54.242 Y99.315 E.01748
G1 X53.772 Y99.614 E.01748
G1 X53.258 Y99.829 E.01748
G1 X52.758 Y99.945 E.01609
G1 X52.183 Y99.985 E.01807
G1 X51.61 Y99.924 E.01808
G1 X51.069 Y99.768 E.01764
G1 X50.568 Y99.524 E.01748
G1 X50.137 Y99.216 E.01661
G1 X49.727 Y98.807 E.01816
G1 X49.405 Y98.346 E.01765
G1 X49.168 Y97.841 E.01748
G1 X49.02 Y97.304 E.01748
G1 X48.964 Y96.749 E.01748
G1 X49.003 Y96.193 E.01748
G1 X49.136 Y95.652 E.01748
G1 X49.358 Y95.141 E.01748
G1 X49.663 Y94.674 E.01748
G1 X50.043 Y94.266 E.01748
G1 X50.497 Y93.921 E.0179
G1 X50.98 Y93.67 E.01706
G1 X51.511 Y93.499 E.01748
G1 X52.035 Y93.424 E.01661
G1 X52.614 Y93.436 E.01816
G1 X53.166 Y93.545 E.01765
G1 X53.686 Y93.746 E.01748
G1 X54.165 Y94.031 E.01748
G1 X54.581 Y94.386 E.01713
G1 X54.945 Y94.822 E.01782
G1 X55.234 Y95.33 E.01832
M204 P1000
G1 E-2.24 F4200
;WIPE_START
G1 F7200
G1 X55.418 Y95.827 E-.29375
G1 X55.519 Y96.371 E-.30654
G1 X55.527 Y96.933 E-.31171
;WIPE_END
G1 E-.048 F4200
G1 Z.4 F720
G1 X54.253 Y98.803 F9000
G1 Z.2 F720
G1 E3.2 F2400
M204 P800
;TYPE:External perimeter
G1 F1200
G1 X53.968 Y99.051 E.01186
G1 X53.546 Y99.307 E.01548
G1 X53.087 Y99.489 E.01548
G1 X52.604 Y99.59 E.01548
G1 X52.111 Y99.608 E.01548
G1 X51.621 Y99.543 E.01548
G1 X51.15 Y99.396 E.01548
G1 X50.711 Y99.171 E.01548
G1 X50.339 Y98.893 E.01455
G1 X49.977 Y98.52 E.0163
G1 X49.702 Y98.107 E.01557
G1 X49.501 Y97.656 E.01548
G1 X49.379 Y97.177 E.01548
G1 X49.34 Y96.685 E.01548
G1 X49.384 Y96.194 E.01548
G1 X49.511 Y95.717 E.01548
G1 X49.717 Y95.268 E.01548
G1 X49.996 Y94.861 E.01548
G1 X50.339 Y94.506 E.01548
G1 X50.714 Y94.229 E.01462
G1 X51.178 Y93.996 E.01629
G1 X51.658 Y93.852 E.01568
G1 X52.182 Y93.799 E.01654
G1 X52.679 Y93.826 E.01559
G1 X53.176 Y93.947 E.01606
G1 X53.645 Y94.154 E.01606
G1 X53.993 Y94.371 E.01287
G1 X54.362 Y94.699 E.01548
G1 X54.67 Y95.085 E.01548
G1 X54.908 Y95.517 E.01548
G1 X55.07 Y95.984 E.01548
G1 X55.15 Y96.466 E.01534
G1 X55.148 Y96.968 E.01574
G1 X55.062 Y97.45 E.01534
G1 X54.895 Y97.915 E.01548
G1 X54.652 Y98.344 E.01548
G1 X54.293 Y98.757 E.01717
M204 P1000
G1 X54.353 Y99.167 F9000
G1 E-3.2 F4200
G1 Z.4 F720
G1 X129.994 Y93.008 F9000
G1 Z.2 F720
G1 E3.2 F2400
M204 P800
;TYPE:Solid infill
;WIDTH:0.420101
G1 F1200
G1 X131.526 Y94.54 E.06793
G1 X132.006 Y95.411 E.03118
G1 X132.103 Y95.526 E.00472
G1 X132.307 Y95.677 E.00797
G1 X132.689 Y95.771 E.01234
G1 X132.757 Y95.771 E.00214
G1 X133.18 Y96.194 E.01877
G1 X133.18 Y96.635 E.01383
G1 X133.091 Y96.639 E.00279
G1 X129.411 Y92.959 E.16321
G1 X128.897 Y92.829 E.01663
G1 X128.734 Y92.815 E.00514
G1 X132.645 Y96.726 E.17344
G1 X132.435 Y96.83 E.00735
G1 X132.333 Y96.948 E.00487
G1 X128.157 Y92.771 E.18524
G1 X127.623 Y92.771 E.01673
G1 X132.152 Y97.3 E.20086
G1 X132.03 Y97.712 E.01347
G1 X127.09 Y92.771 E.21913
G1 X126.557 Y92.771 E.01673
G1 X131.909 Y98.124 E.2374
G1 X131.734 Y98.482 E.01251
G1 X126.023 Y92.771 E.25328
G1 X125.49 Y92.771 E.01673
G1 X131.543 Y98.824 E.26848
G1 X131.318 Y99.133 E.01198
G1 X124.956 Y92.771 E.28218
G1 X124.423 Y92.771 E.01673
G1 X131.069 Y99.417 E.29476
G1 X130.798 Y99.68 E.01183
G1 X123.889 Y92.771 E.30642
G1 X123.356 Y92.771 E.01673
G1 X130.492 Y99.907 E.31651
G1 X130.174 Y100.123 E.01204
G1 X122.823 Y92.771 E.32608
G1 X122.289 Y92.771 E.01673
G1 X129.808 Y100.29 E.33349
G1 X129.568 Y100.4 E.00828
G1 X129.422 Y100.438 E.00472
G1 X121.756 Y92.771 E.34005
G1 X121.222 Y92.771 E.01673
G1 X129 Y100.549 E.34497
G1 X128.522 Y100.604 E.01509
G1 X120.689 Y92.771 E.34742
G1 X120.156 Y92.771 E.01673
G1 X128.016 Y100.631 E.34863
G1 X127.482 Y100.631 E.01673
G1 X119.622 Y92.771 E.34863
G1 X119.089 Y92.771 E.01673
G1 X126.949 Y100.631 E.34863
G1 X126.416 Y100.631 E.01673
G1 X118.555 Y92.771 E.34863
G1 X118.022 Y92.771 E.01673
G1 X125.882 Y100.631 E.34863
G1 X125.349 Y100.631 E.01673
G1 X117.488 Y92.771 E.34863
G1 X116.955 Y92.771 E.01673
G1 X124.815 Y100.631 E.34863
G1 X124.282 Y100.631 E.01673
M73 P3 R34
G1 X116.422 Y92.771 E.34863
G1 X115.888 Y92.771 E.01673
G1 X123.748 Y100.631 E.34863
G1 X123.215 Y100.631 E.01673
G1 X115.355 Y92.771 E.34863
G1 X114.821 Y92.771 E.01673
G1 X122.682 Y100.631 E.34863
G1 X122.148 Y100.631 E.01673
G1 X114.288 Y92.771 E.34863
G1 X114.014 Y92.759 E.00859
G1 X113.786 Y92.684 E.00752
G1 X113.594 Y92.551 E.00733
G1 X112.849 Y91.865 E.03176
G1 X121.615 Y100.631 E.3888
G1 X121.081 Y100.631 E.01673
G1 X106.111 Y85.661 E.66401
G1 X99.373 Y79.456 E.28727
G1 X120.548 Y100.631 E.93921
G1 X120.015 Y100.631 E.01673
G1 X97.92 Y78.537 E.97997
G1 X97.781 Y78.688 E.00642
G1 X97.781 Y78.932 E.00766
G1 X119.481 Y100.631 E.96246
G1 X118.948 Y100.631 E.01673
G1 X97.781 Y79.465 E.93881
G1 X97.781 Y79.998 E.01673
G1 X118.414 Y100.631 E.91515
G1 X117.881 Y100.631 E.01673
G1 X97.781 Y80.532 E.89149
G1 X97.781 Y81.065 E.01673
G1 X117.348 Y100.631 E.86783
G1 X116.814 Y100.631 E.01673
G1 X97.781 Y81.599 E.84417
G1 X97.781 Y82.132 E.01673
G1 X116.281 Y100.631 E.82051
G1 X115.747 Y100.631 E.01673
G1 X97.781 Y82.666 E.79685
G1 X97.781 Y83.199 E.01673
G1 X115.214 Y100.631 E.77319
G1 X114.68 Y100.631 E.01673
G1 X97.781 Y83.732 E.74953
G1 X97.781 Y84.266 E.01673
M73 P4 R34
G1 X114.147 Y100.631 E.72588
G1 X113.614 Y100.631 E.01673
G1 X97.781 Y84.799 E.70222
G1 X97.781 Y85.333 E.01673
G1 X113.08 Y100.631 E.67856
G1 X112.547 Y100.631 E.01673
G1 X97.781 Y85.866 E.6549
G1 X97.781 Y86.399 E.01673
M73 P4 R33
G1 X112.013 Y100.631 E.63124
G1 X111.48 Y100.631 E.01673
G1 X97.781 Y86.933 E.60758
G1 X97.781 Y87.466 E.01673
G1 X110.947 Y100.631 E.58392
G1 X110.413 Y100.631 E.01673
G1 X97.781 Y88 E.56026
G1 X97.781 Y88.533 E.01673
G1 X109.88 Y100.631 E.5366
G1 X109.346 Y100.631 E.01673
G1 X97.781 Y89.067 E.51295
G1 X97.781 Y89.6 E.01673
G1 X108.813 Y100.631 E.48929
G1 X108.279 Y100.631 E.01673
G1 X97.781 Y90.133 E.46563
G1 X97.781 Y90.667 E.01673
G1 X107.746 Y100.631 E.44197
G1 X107.213 Y100.631 E.01673
G1 X97.781 Y91.2 E.41831
G1 X97.781 Y91.734 E.01673
G1 X106.679 Y100.631 E.39465
G1 X106.146 Y100.631 E.01673
G1 X97.728 Y92.214 E.37336
G1 X97.595 Y92.455 E.00865
G1 X97.513 Y92.532 E.00352
G1 X105.612 Y100.631 E.35923
G1 X105.079 Y100.631 E.01673
G1 X97.181 Y92.733 E.35033
G1 X96.94 Y92.771 E.00762
G1 X96.685 Y92.771 E.008
G1 X104.546 Y100.631 E.34863
G1 X104.012 Y100.631 E.01673
G1 X96.152 Y92.771 E.34863
G1 X95.618 Y92.771 E.01673
G1 X103.479 Y100.631 E.34863
G1 X102.945 Y100.631 E.01673
G1 X95.085 Y92.771 E.34863
G1 X94.552 Y92.771 E.01673
G1 X102.412 Y100.631 E.34863
G1 X101.878 Y100.631 E.01673
G1 X94.018 Y92.771 E.34863
G1 X93.485 Y92.771 E.01673
G1 X101.345 Y100.631 E.34863
G1 X100.812 Y100.631 E.01673
G1 X92.951 Y92.771 E.34863
G1 X92.418 Y92.771 E.01673
M73 P5 R33
G1 X100.278 Y100.631 E.34863
G1 X99.745 Y100.631 E.01673
G1 X91.885 Y92.771 E.34863
G1 X91.351 Y92.771 E.01673
G1 X99.211 Y100.631 E.34863
G1 X98.678 Y100.631 E.01673
G1 X90.818 Y92.771 E.34863
G1 X90.284 Y92.771 E.01673
G1 X98.145 Y100.631 E.34863
G1 X97.611 Y100.631 E.01673
G1 X89.751 Y92.771 E.34863
G1 X89.218 Y92.771 E.01673
G1 X97.078 Y100.631 E.34863
G1 X96.544 Y100.631 E.01673
G1 X88.684 Y92.771 E.34863
G1 X88.151 Y92.771 E.01673
G1 X96.011 Y100.631 E.34863
G1 X95.478 Y100.631 E.01673
G1 X87.617 Y92.771 E.34863
G1 X87.084 Y92.771 E.01673
G1 X94.944 Y100.631 E.34863
G1 X94.411 Y100.631 E.01673
G1 X86.55 Y92.771 E.34863
G1 X86.017 Y92.771 E.01673
G1 X93.877 Y100.631 E.34863
G1 X93.344 Y100.631 E.01673
G1 X85.484 Y92.771 E.34863
G1 X84.95 Y92.771 E.01673
G1 X92.81 Y100.631 E.34863
G1 X92.277 Y100.631 E.01673
G1 X84.417 Y92.771 E.34863
G1 X83.883 Y92.771 E.01673
G1 X91.744 Y100.631 E.34863
G1 X91.21 Y100.631 E.01673
G1 X83.35 Y92.771 E.34863
G1 X82.817 Y92.771 E.01673
G1 X90.677 Y100.631 E.34863
G1 X90.143 Y100.631 E.01673
G1 X82.283 Y92.771 E.34863
G1 X81.75 Y92.771 E.01673
G1 X89.61 Y100.631 E.34863
G1 X89.077 Y100.631 E.01673
G1 X81.216 Y92.771 E.34863
G1 X80.683 Y92.771 E.01673
G1 X88.543 Y100.631 E.34863
G1 X88.01 Y100.631 E.01673
G1 X80.149 Y92.771 E.34863
G1 X79.616 Y92.771 E.01673
G1 X87.476 Y100.631 E.34863
G1 X86.943 Y100.631 E.01673
G1 X79.083 Y92.771 E.34863
G1 X78.549 Y92.771 E.01673
G1 X86.409 Y100.631 E.34863
G1 X85.876 Y100.631 E.01673
G1 X78.016 Y92.771 E.34863
G1 X77.482 Y92.771 E.01673
G1 X85.343 Y100.631 E.34863
G1 X84.809 Y100.631 E.01673
G1 X76.949 Y92.771 E.34863
G1 X76.416 Y92.771 E.01673
G1 X84.276 Y100.631 E.34863
G1 X83.742 Y100.631 E.01673
G1 X75.882 Y92.771 E.34863
G1 X75.349 Y92.771 E.01673
G1 X83.209 Y100.631 E.34863
G1 X82.676 Y100.631 E.01673
G1 X74.815 Y92.771 E.34863
G1 X74.282 Y92.771 E.01673
G1 X82.142 Y100.631 E.34863
G1 X81.609 Y100.631 E.01673
M73 P6 R33
G1 X73.748 Y92.771 E.34863
G1 X73.215 Y92.771 E.01673
G1 X81.075 Y100.631 E.34863
G1 X80.542 Y100.631 E.01673
G1 X72.682 Y92.771 E.34863
G1 X72.148 Y92.771 E.01673
G1 X80.008 Y100.631 E.34863
G1 X79.475 Y100.631 E.01673
G1 X71.615 Y92.771 E.34863
G1 X71.081 Y92.771 E.01673
G1 X78.942 Y100.631 E.34863
G1 X78.408 Y100.631 E.01673
G1 X70.548 Y92.771 E.34863
G1 X70.015 Y92.771 E.01673
G1 X77.875 Y100.631 E.34863
G1 X77.341 Y100.631 E.01673
G1 X69.481 Y92.771 E.34863
G1 X68.948 Y92.771 E.01673
G1 X76.808 Y100.631 E.34863
G1 X76.275 Y100.631 E.01673
G1 X68.414 Y92.771 E.34863
G1 X67.881 Y92.771 E.01673
G1 X75.741 Y100.631 E.34863
G1 X75.208 Y100.631 E.01673
G1 X67.348 Y92.771 E.34863
G1 X66.814 Y92.771 E.01673
G1 X74.674 Y100.631 E.34863
G1 X74.141 Y100.631 E.01673
G1 X66.281 Y92.771 E.34863
G1 X65.747 Y92.771 E.01673
G1 X73.608 Y100.631 E.34863
G1 X73.074 Y100.631 E.01673
G1 X65.214 Y92.771 E.34863
G1 X64.68 Y92.771 E.01673
