; generated by PrusaSlicer 2.5.0+win64 on 2023-04-12 at 17:10:22 UTC


;
;

;
;
; 

; external perimeters extrusion width = 0.45mm
; perimeters extrusion width = 0.45mm
; infill extrusion width = 0.45mm
; solid infill extrusion width = 0.45mm
; top infill extrusion width = 0.40mm
; first layer extrusion width = 0.42mm

M73 P0 R3
M201 X2500 Y2500 Z400 E5000 ; sets maximum accelerations, mm/sec^2
M203 X180 Y180 Z12 E80 ; sets maximum feedrates, mm / sec
M204 P1250 R1250 T2500 ; sets acceleration (P, T) and retract acceleration (R), mm/sec^2
M205 X8.00 Y8.00 Z2.00 E10.00 ; sets the jerk limits, mm/sec
M205 S0 T0 ; sets the minimum extruding and travel feed rate, mm/sec
M107
;TYPE:Custom
M862.3 P "MINI" ; printer model check
G90 ; use absolute coordinates
M83 ; extruder relative mode
M104 S170 ; set extruder temp for bed leveling
M140 S60 ; set bed temp
M109 R170 ; wait for bed leveling temp
M190 S60 ; wait for bed temp
M204 T1250 ; set travel acceleration
G28 ; home all without mesh bed level
G29 ; mesh bed leveling 
M204 T2500 ; restore travel acceleration
M104 S215 ; set extruder temp
G92 E0
G1 Y-2 X179 F2400
G1 Z3 F720
M109 S215 ; wait for extruder temp

; intro line
M73 P2 R3
G1 X170 F1000
G1 Z0.2 F720
G1 X110 E8 F900
G1 X40 E10 F700
G92 E0

M221 S95 ; set flow
G21 ; set units to millimeters
G90 ; use absolute coordinates
M83 ; use relative distances for extrusion
M900 K0.2 ; Filament gcode LA 1.5
; ; Filament gcode LA 1.0
M107
;LAYER_CHANGE
;Z:0.2
;HEIGHT:0.2
;BEFORE_LAYER_CHANGE
G92 E0.0
;0.2


M73 P4 R3
G1 E-3.2 F4200
M73 P7 R3
G1 Z.2 F720
;AFTER_LAYER_CHANGE
;0.2
G1 Z.4
G1 X81.951 Y81.466 F9000
G1 Z.2 F720
M73 P8 R3
G1 E3.2 F2400
M204 P800
;TYPE:Skirt/Brim
;WIDTH:0.42
G1 F1200
G1 X82.432 Y81.126 E.01846
G1 X83.37 Y80.729 E.03194
G1 X83.949 Y80.62 E.01849
G1 X95.866 Y80.604 E.37364
G1 X96.582 Y80.716 E.02272
G1 X97.151 Y80.911 E.01885
G1 X98.146 Y81.549 E.03705
G1 X98.553 Y81.974 E.01846
G1 X99.086 Y82.842 E.03194
G1 X99.383 Y83.977 E.0368
G1 X99.396 Y95.866 E.37276
G1 X99.146 Y97.013 E.03681
G1 X98.553 Y98.026 E.0368
G1 X98.026 Y98.553 E.02336
G1 X97.158 Y99.086 E.03194
G1 X96.449 Y99.316 E.02336
G1 X95.65 Y99.404 E.02522
G1 X84.134 Y99.396 E.36108
G1 X82.987 Y99.146 E.03681
M73 P9 R3
G1 X81.997 Y98.571 E.03589
G1 X81.46 Y98.042 E.02363
G1 X80.914 Y97.158 E.03257
G1 X80.686 Y96.457 E.02311
G1 X80.596 Y95.65 E.02546
G1 X80.604 Y84.134 E.36108
G1 X80.845 Y83.014 E.03593
G1 X81.447 Y81.974 E.03768
G1 X81.909 Y81.508 E.02056
M204 P1000
G1 X82.176 Y81.774 F9000
M204 P800
G1 F1200
G1 X82.631 Y81.446 E.0176
G1 X83.461 Y81.095 E.02824
G1 X83.982 Y80.996 E.01663
G1 X95.837 Y80.98 E.3717
G1 X96.497 Y81.083 E.02095
M73 P10 R3
G1 X97.006 Y81.26 E.01691
G1 X97.901 Y81.835 E.03335
G1 X98.568 Y82.654 E.03311
G1 X98.797 Y83.131 E.0166
G1 X99.007 Y84.007 E.02824
G1 X99.02 Y95.837 E.3709
G1 X98.797 Y96.869 E.03311
G1 X98.267 Y97.782 E.03311
G1 X97.782 Y98.267 E.02151
G1 X97.014 Y98.737 E.02824
G1 X96.361 Y98.949 E.02151
G1 X95.65 Y99.027 E.02244
G1 X84.164 Y99.02 E.36015
G1 X83.131 Y98.797 E.03311
G1 X82.239 Y98.283 E.03229
G1 X81.745 Y97.795 E.02177
G1 X81.263 Y97.014 E.02879
M73 P11 R3
G1 X81.053 Y96.369 E.02126
G1 X80.973 Y95.65 E.02268
G1 X80.98 Y84.163 E.36015
G1 X81.194 Y83.155 E.03231
G1 X81.733 Y82.218 E.03389
G1 X82.133 Y81.816 E.01779
M204 P1000
; printing object A00020-PART-26-REV-P1.STL id:0 copy 0
G1 E-2.24 F4200
;WIPE_START
G1 F7200
G1 X82.631 Y81.446 E-.34387
G1 X83.461 Y81.095 E-.49906
G1 X83.583 Y81.072 E-.06907
;WIPE_END
G1 E-.048 F4200
G1 Z.4 F720
G1 X84.192 Y84.223 F9000
G1 Z.2 F720
G1 E3.2 F2400
M204 P800
;TYPE:Perimeter
;WIDTH:0.419999
G1 F1200
G1 X84.403 Y84.137 E.00716
G1 X95.61 Y84.147 E.35138
G1 X95.803 Y84.216 E.00642
G1 X95.863 Y84.425 E.0068
G1 X95.863 Y95.537 E.34841
M73 P11 R2
G1 X95.808 Y95.777 E.00771
M73 P12 R2
G1 X95.597 Y95.863 E.00717
G1 X84.463 Y95.863 E.34909
G1 X84.351 Y95.846 E.00355
G1 X84.191 Y95.765 E.00561
G1 X84.137 Y95.597 E.00556
G1 X84.137 Y84.463 E.34909
G1 X84.178 Y84.282 E.00582
M204 P1000
G1 X83.931 Y83.941 F9000
M204 P800
;TYPE:External perimeter
G1 F1200
G1 X84.175 Y83.791 E.009
G1 X84.374 Y83.76 E.00631
G1 X95.61 Y83.77 E.3523
G1 X95.85 Y83.818 E.00766
M73 P13 R2
G1 X96.069 Y83.95 E.00803
G1 X96.208 Y84.168 E.00811
G1 X96.24 Y84.425 E.0081
G1 X96.24 Y95.537 E.34841
G1 X96.188 Y95.839 E.00962
G1 X96.069 Y96.059 E.00782
G1 X95.825 Y96.209 E.009
G1 X95.626 Y96.24 E.00631
G1 X84.463 Y96.24 E.35
G1 X84.085 Y96.17 E.01204
G1 X83.976 Y96.077 E.00451
G1 X83.828 Y95.901 E.0072
G1 X83.76 Y95.626 E.0089
G1 X83.76 Y84.463 E.35
G1 X83.812 Y84.161 E.00962
G1 X83.902 Y83.994 E.00594
M204 P1000
G1 X84.208 Y84.016 F9000
G1 E-3.2 F4200
G1 Z.4 F720
M73 P14 R2
G1 X87.648 Y89.061 F9000
G1 Z.2 F720
G1 E3.2 F2400
M204 P800
;TYPE:Perimeter
G1 F1200
G1 X87.866 Y88.63 E.01514
G1 X88.172 Y88.246 E.0154
G1 X88.444 Y87.997 E.01156
G1 X88.805 Y87.763 E.01349
G1 X89.2 Y87.593 E.01349
G1 X89.619 Y87.493 E.01349
G1 X90.008 Y87.466 E.01222
G1 X90.476 Y87.509 E.01473
G1 X90.89 Y87.625 E.01349
G1 X91.279 Y87.81 E.01349
G1 X91.63 Y88.057 E.01349
G1 X91.935 Y88.361 E.01349
G1 X92.184 Y88.711 E.01349
G1 X92.371 Y89.099 E.01349
G1 X92.479 Y89.474 E.01222
G1 X92.536 Y89.94 E.01473
G1 X92.509 Y90.37 E.01349
G1 X92.411 Y90.788 E.01349
G1 X92.243 Y91.184 E.01349
G1 X92.01 Y91.546 E.01349
G1 X91.72 Y91.864 E.01349
G1 X91.38 Y92.128 E.01349
G1 X91.001 Y92.33 E.01349
G1 X90.593 Y92.466 E.01349
G1 X90.167 Y92.531 E.01349
G1 X89.737 Y92.523 E.01349
G1 X89.315 Y92.442 E.01349
G1 X88.912 Y92.291 E.01349
G1 X88.54 Y92.074 E.01349
G1 X88.211 Y91.798 E.01349
G1 X87.933 Y91.469 E.01349
G1 X87.714 Y91.099 E.01349
G1 X87.561 Y90.697 E.01349
G1 X87.479 Y90.275 E.01349
G1 X87.468 Y89.844 E.01349
G1 X87.531 Y89.419 E.01349
G1 X87.63 Y89.118 E.00993
M204 P1000
G1 X88.002 Y89.18 F9000
M204 P800
;TYPE:External perimeter
G1 F1200
G1 X88.169 Y88.854 E.01149
G1 X88.433 Y88.518 E.01339
G1 X88.655 Y88.309 E.00956
G1 X88.96 Y88.106 E.01149
G1 X89.295 Y87.958 E.01149
G1 X89.651 Y87.868 E.01149
G1 X89.981 Y87.842 E.0104
G1 X90.381 Y87.874 E.01256
G1 X90.735 Y87.969 E.01149
G1 X91.067 Y88.122 E.01149
G1 X91.369 Y88.329 E.01149
G1 X91.632 Y88.585 E.01149
G1 X91.848 Y88.881 E.01149
G1 X92.01 Y89.209 E.01149
G1 X92.105 Y89.527 E.0104
G1 X92.159 Y89.924 E.01256
G1 X92.141 Y90.29 E.01149
G1 X92.061 Y90.648 E.01149
G1 X91.922 Y90.987 E.01149
G1 X91.727 Y91.297 E.01149
G1 X91.483 Y91.571 E.01149
G1 X91.196 Y91.799 E.01149
G1 X90.875 Y91.975 E.01149
G1 X90.529 Y92.094 E.01149
G1 X90.167 Y92.154 E.01149
G1 X89.801 Y92.151 E.01149
G1 X89.44 Y92.086 E.01149
G1 X89.096 Y91.962 E.01149
G1 X88.777 Y91.781 E.01149
G1 X88.494 Y91.548 E.01149
G1 X88.254 Y91.272 E.01149
G1 X88.064 Y90.958 E.01149
G1 X87.93 Y90.617 E.01149
G1 X87.855 Y90.259 E.01149
G1 X87.843 Y89.892 E.01149
G1 X87.892 Y89.529 E.01149
G1 X87.984 Y89.237 E.00961
M204 P1000
G1 X87.778 Y88.89 F9000
G1 E-3.2 F4200
G1 Z.4 F720
G1 X94.975 Y84.26 F9000
G1 Z.2 F720
G1 E3.2 F2400
M204 P800
;TYPE:Solid infill
;WIDTH:0.420903
M73 P15 R2
G1 F1200
G1 X95.571 Y84.856 E.02648
G1 X95.571 Y85.391 E.01682
G1 X94.61 Y84.429 E.04273
G1 X94.075 Y84.429 E.01682
G1 X95.571 Y85.926 E.06654
G1 X95.572 Y86.461 E.01682
G1 X93.539 Y84.428 E.09034
G1 X93.004 Y84.428 E.01682
G1 X95.572 Y86.996 E.11414
G1 X95.573 Y87.531 E.01682
G1 X92.469 Y84.427 E.13794
G1 X91.934 Y84.427 E.01682
G1 X95.573 Y88.066 E.16175
G1 X95.574 Y88.601 E.01682
G1 X91.399 Y84.426 E.18555
G1 X90.864 Y84.426 E.01682
G1 X95.574 Y89.136 E.20935
G1 X95.575 Y89.671 E.01682
M73 P16 R2
G1 X90.329 Y84.425 E.23316
G1 X89.794 Y84.425 E.01682
G1 X95.575 Y90.206 E.25696
G1 X95.576 Y90.741 E.01682
G1 X89.259 Y84.424 E.28076
G1 X88.724 Y84.424 E.01682
G1 X95.576 Y91.276 E.30456
G1 X95.577 Y91.811 E.01682
G1 X88.189 Y84.423 E.32837
G1 X87.654 Y84.423 E.01682
M73 P17 R2
G1 X90.454 Y87.223 E.12445
G1 X89.883 Y87.186 E.01798
G1 X87.119 Y84.422 E.12285
G1 X86.584 Y84.422 E.01682
G1 X89.41 Y87.248 E.12562
G1 X89.123 Y87.321 E.00932
G1 X89 Y87.373 E.00418
G1 X86.049 Y84.421 E.13119
G1 X85.514 Y84.421 E.01682
G1 X88.634 Y87.541 E.13866
G1 X88.315 Y87.756 E.0121
G1 X84.979 Y84.42 E.14827
G1 X84.444 Y84.42 E.01682
G1 X88.026 Y88.002 E.15921
G1 X87.841 Y88.188 E.00824
M73 P18 R2
G1 X87.773 Y88.284 E.00369
G1 X84.42 Y84.931 E.14903
G1 X84.421 Y85.466 E.01681
G1 X87.555 Y88.6 E.13931
G1 X87.384 Y88.964 E.01263
G1 X84.421 Y86.001 E.13171
G1 X84.422 Y86.536 E.01681
G1 X87.255 Y89.369 E.12593
G1 X87.187 Y89.836 E.01484
G1 X84.422 Y87.071 E.12292
G1 X84.422 Y87.606 E.01681
G1 X87.43 Y90.614 E.13369
M204 P1000
G1 E-2.24 F4200
;WIPE_START
G1 F7200
G1 X86.267 Y89.45 E-.912
;WIPE_END
G1 E-.048 F4200
G1 Z.4 F720
G1 X88.87 Y87.977 F9000
G1 X89.228 Y87.815
G1 X89.608 Y87.716
G1 X90 Y87.682
G1 X90.392 Y87.716
G1 X90.772 Y87.815
G1 X91.13 Y87.977
G1 X91.456 Y88.197
G1 X91.74 Y88.469
G1 X91.974 Y88.785
G1 X92.151 Y89.136
G1 X92.234 Y89.409
G1 X92.545 Y89.314
G1 Z.2 F720
G1 E3.2 F2400
M204 P800
G1 F1200
M73 P19 R2
G1 X95.577 Y92.346 E.13478
G1 X95.578 Y92.881 E.01682
G1 X92.808 Y90.112 E.1231
G1 X92.793 Y90.394 E.0089
G1 X92.747 Y90.585 E.00617
G1 X95.578 Y93.416 E.12582
G1 X95.579 Y93.951 E.01682
G1 X92.628 Y91 E.13117
G1 X92.462 Y91.369 E.0127
G1 X95.579 Y94.486 E.13857
G1 X95.58 Y95.021 E.01682
G1 X92.249 Y91.69 E.14806
G1 X92.005 Y91.981 E.01193
G1 X95.577 Y95.554 E.1588
G1 X95.571 Y95.58 E.00086
G1 X95.069 Y95.58 E.01577
G1 X91.717 Y92.227 E.14903
G1 X91.633 Y92.298 E.00344
M73 P20 R2
G1 X91.394 Y92.439 E.00873
G1 X94.535 Y95.58 E.13962
G1 X94 Y95.58 E.0168
G1 X91.029 Y92.609 E.13206
G1 X90.632 Y92.746 E.01322
G1 X93.466 Y95.58 E.12597
G1 X92.931 Y95.58 E.0168
G1 X90.165 Y92.814 E.12297
G1 X89.603 Y92.787 E.01767
G1 X92.397 Y95.58 E.12417
G1 X91.862 Y95.58 E.0168
G1 X88.853 Y92.571 E.13377
G1 X88.477 Y92.372 E.01337
G1 X88.098 Y92.08 E.01503
G1 X87.773 Y91.728 E.01506
G1 X87.431 Y91.149 E.02114
G1 X84.423 Y88.141 E.1337
G1 X84.423 Y88.676 E.01681
G1 X91.328 Y95.58 E.30688
G1 X90.793 Y95.58 E.0168
M73 P21 R2
G1 X84.424 Y89.211 E.2831
G1 X84.424 Y89.746 E.01681
G1 X90.259 Y95.58 E.25933
G1 X89.724 Y95.58 E.0168
G1 X84.425 Y90.281 E.23555
G1 X84.425 Y90.816 E.01681
G1 X89.189 Y95.58 E.21177
G1 X88.655 Y95.58 E.0168
M73 P22 R2
G1 X84.425 Y91.351 E.18799
G1 X84.426 Y91.886 E.01681
G1 X88.12 Y95.58 E.16421
G1 X87.586 Y95.58 E.0168
G1 X84.426 Y92.421 E.14043
G1 X84.427 Y92.956 E.01681
G1 X87.051 Y95.58 E.11665
G1 X86.517 Y95.58 E.0168
G1 X84.427 Y93.491 E.09288
G1 X84.428 Y94.026 E.01681
G1 X85.982 Y95.58 E.0691
G1 X85.448 Y95.58 E.0168
G1 X84.428 Y94.561 E.04532
G1 X84.428 Y95.096 E.01681
G1 X85.083 Y95.75 E.02908
M204 P1000
; stop printing object A00020-PART-26-REV-P1.STL id:0 copy 0
M106 S84.15
;LAYER_CHANGE
;Z:0.4
;HEIGHT:0.2
;BEFORE_LAYER_CHANGE
G92 E0.0
;0.4


G1 E-2.24 F4200
;WIPE_START
G1 F7200
G1 X84.428 Y95.096 E-.51276
G1 X84.428 Y94.561 E-.29647
G1 X84.559 Y94.692 E-.10277
;WIPE_END
G1 E-.048 F4200
G1 Z.4 F720
;AFTER_LAYER_CHANGE
;0.4
; printing object A00020-PART-26-REV-P1.STL id:0 copy 0
G1 X84.14 Y95.916 F9000
G1 E3.2 F2400
M204 P800
;TYPE:Perimeter
;WIDTH:0.449999
G1 F1906
M73 P23 R2
G1 X84.046 Y95.807 E.00489
G1 X83.982 Y95.6 E.00732
G1 X83.982 Y84.4 E.37912
G1 X84.048 Y84.19 E.00744
G1 X84.19 Y84.049 E.00678
G1 X84.399 Y83.982 E.00745
G1 X95.576 Y83.992 E.37832
G1 X95.817 Y84.032 E.00826
G1 X95.996 Y84.263 E.00989
G1 X96.018 Y84.435 E.00587
G1 X96.018 Y95.6 E.37795
G1 X95.952 Y95.81 E.00744
G1 X95.81 Y95.952 E.0068
G1 X95.6 Y96.018 E.00744
G1 X84.477 Y96.018 E.3765
G1 X84.18 Y95.962 E.01025
M204 P1000
G1 X83.81 Y96.2 F9000
M204 P800
;TYPE:External perimeter
G1 F1800
G1 X83.614 Y95.881 E.01266
G1 X83.575 Y95.632 E.00853
G1 X83.575 Y84.435 E.379
G1 X83.614 Y84.119 E.01078
G1 X83.806 Y83.807 E.01242
G1 X84.119 Y83.614 E.01243
G1 X84.368 Y83.575 E.00853
G1 X95.577 Y83.585 E.37941
M73 P24 R2
G1 X95.9 Y83.631 E.01105
G1 X96.189 Y83.799 E.01133
G1 X96.386 Y84.119 E.01269
G1 X96.425 Y84.435 E.01077
G1 X96.425 Y95.565 E.37674
G1 X96.386 Y95.881 E.01078
G1 X96.194 Y96.194 E.01244
G1 X95.881 Y96.386 E.01244
G1 X95.632 Y96.425 E.00851
G1 X84.477 Y96.425 E.37759
G1 X84.011 Y96.341 E.01603
G1 X83.859 Y96.234 E.00627
M204 P1000
G1 X83.908 Y95.839 F9000
G1 E-3.2 F4200
G1 Z.6 F720
G1 X88.092 Y91.417 F9000
G1 Z.4 F720
G1 E3.2 F2400
M204 P800
;TYPE:Perimeter
G1 F1500
G1 X87.852 Y91.025 E.01556
G1 X87.709 Y90.647 E.01367
G1 X87.633 Y90.251 E.01367
G1 X87.624 Y89.847 E.01367
G1 X87.684 Y89.448 E.01367
G1 X87.811 Y89.065 E.01367
G1 X88.001 Y88.708 E.01367
G1 X88.28 Y88.358 E.01516
G1 X88.545 Y88.116 E.01216
G1 X88.885 Y87.897 E.01367
G1 X89.303 Y87.729 E.01525
G1 X89.85 Y87.631 E.01884
G1 X90.453 Y87.663 E.02043
G1 X90.842 Y87.773 E.01367
G1 X91.206 Y87.948 E.01367
G1 X91.535 Y88.181 E.01367
G1 X91.821 Y88.466 E.01367
G1 X92.054 Y88.796 E.01367
G1 X92.228 Y89.161 E.01367
G1 X92.337 Y89.549 E.01367
G1 X92.38 Y89.951 E.01367
G1 X92.354 Y90.354 E.01367
G1 X92.26 Y90.746 E.01367
G1 X92.102 Y91.118 E.01367
G1 X91.883 Y91.457 E.01367
G1 X91.609 Y91.754 E.01367
M73 P25 R2
G1 X91.29 Y92.001 E.01367
G1 X90.933 Y92.19 E.01367
G1 X90.55 Y92.316 E.01367
G1 X90.15 Y92.376 E.01367
G1 X89.747 Y92.367 E.01367
G1 X89.35 Y92.29 E.01367
G1 X88.973 Y92.147 E.01367
G1 X88.624 Y91.943 E.01367
G1 X88.316 Y91.682 E.01367
G1 X88.131 Y91.463 E.00972
M204 P1000
G1 X88.229 Y90.873 F9000
M204 P800
;TYPE:External perimeter
G1 F1500
G1 X88.107 Y90.562 E.01134
G1 X88.039 Y90.234 E.01134
G1 X88.028 Y89.899 E.01134
G1 X88.074 Y89.567 E.01134
G1 X88.174 Y89.248 E.01134
G1 X88.328 Y88.95 E.01134
G1 X88.561 Y88.652 E.01282
G1 X89.022 Y88.285 E.01994
G1 X89.374 Y88.129 E.01303
G1 X89.92 Y88.032 E.01879
G1 X90.35 Y88.057 E.01458
G1 X90.674 Y88.144 E.01134
G1 X90.978 Y88.285 E.01134
G1 X91.254 Y88.475 E.01134
G1 X91.493 Y88.709 E.01134
G1 X91.69 Y88.98 E.01134
G1 X91.838 Y89.28 E.01134
G1 X91.934 Y89.601 E.01134
G1 X91.973 Y89.933 E.01134
G1 X91.956 Y90.268 E.01134
G1 X91.883 Y90.595 E.01134
G1 X91.755 Y90.904 E.01134
G1 X91.577 Y91.188 E.01134
G1 X91.354 Y91.437 E.01134
G1 X91.091 Y91.645 E.01134
G1 X90.798 Y91.806 E.01134
G1 X90.481 Y91.915 E.01134
G1 X90.15 Y91.969 E.01134
G1 X89.815 Y91.966 E.01134
G1 X89.486 Y91.906 E.01134
G1 X89.171 Y91.792 E.01134
G1 X88.88 Y91.626 E.01134
G1 X88.621 Y91.413 E.01134
G1 X88.402 Y91.16 E.01134
G1 X88.26 Y90.925 E.0093
M204 P1000
G1 X87.895 Y90.852 F9000
G1 E-2.24 F4200
;WIPE_START
G1 F7200
G1 X88.107 Y90.562 E-.21843
G1 X88.039 Y90.234 E-.18558
G1 X88.028 Y89.899 E-.18558
G1 X88.074 Y89.567 E-.18559
G1 X88.148 Y89.332 E-.13683
;WIPE_END
G1 E-.048 F4200
G1 Z.6 F720
G1 X87.777 Y89.218 F9000
G1 X87.69 Y89.502
G1 X87.639 Y89.9
G1 X87.656 Y90.3
G1 X87.741 Y90.692
G1 X87.89 Y91.064
G1 X88.1 Y91.405
G1 X88.365 Y91.706
G1 X88.677 Y91.958
G1 X89.027 Y92.153
G1 X89.405 Y92.287
G1 X89.8 Y92.354
G1 X90.2 Y92.354
G1 X90.595 Y92.287
G1 X90.973 Y92.153
G1 X91.323 Y91.958
G1 X91.555 Y91.771
G1 X96.039 Y94.878
G1 X95.896 Y94.878
G1 Z.4 F720
G1 E3.2 F2400
;TYPE:Solid infill
;WIDTH:0.454723
G1 F1906
G1 X95.061 Y95.713 E.04041
G1 X94.479 Y95.713 E.01994
G1 X95.713 Y94.479 E.05974
G1 X95.713 Y93.897 E.01994
G1 X93.897 Y95.713 E.08794
G1 X93.314 Y95.713 E.01994
G1 X95.713 Y93.314 E.11614
G1 X95.713 Y92.732 E.01994
G1 X92.732 Y95.713 E.14435
G1 X92.149 Y95.713 E.01994
G1 X95.713 Y92.149 E.17255
G1 X95.713 Y91.567 E.01994
M73 P26 R2
G1 X91.567 Y95.713 E.20075
G1 X90.985 Y95.713 E.01994
G1 X95.713 Y90.985 E.22895
G1 X95.713 Y90.402 E.01994
G1 X90.402 Y95.713 E.25715
G1 X89.82 Y95.713 E.01994
G1 X95.713 Y89.82 E.28535
G1 X95.713 Y89.238 E.01994
G1 X89.238 Y95.713 E.31355
G1 X88.655 Y95.713 E.01994
G1 X95.713 Y88.655 E.34176
G1 X95.713 Y88.073 E.01994
G1 X88.073 Y95.713 E.36996
G1 X87.49 Y95.713 E.01994
M73 P27 R2
G1 X90.583 Y92.62 E.14978
G1 X90.156 Y92.681 E.01478
G1 X89.945 Y92.676 E.00723
G1 X86.908 Y95.713 E.14707
G1 X86.326 Y95.713 E.01994
G1 X89.418 Y92.62 E.14974
G1 X88.975 Y92.481 E.0159
G1 X85.743 Y95.713 E.15649
G1 X85.161 Y95.713 E.01994
G1 X88.591 Y92.283 E.16609
G1 X88.256 Y92.035 E.01426
G1 X84.579 Y95.713 E.17808
G1 X84.456 Y95.713 E.00421
G1 X84.329 Y95.683 E.00445
