; generated by PrusaSlicer 2.5.0+win64 on 2023-04-12 at 02:51:39 UTC


;
;

;
;
; 

; external perimeters extrusion width = 0.45mm
; perimeters extrusion width = 0.45mm
; infill extrusion width = 0.45mm
; solid infill extrusion width = 0.45mm
; top infill extrusion width = 0.40mm
; first layer extrusion width = 0.42mm

M73 P0 R32
M201 X2500 Y2500 Z400 E5000 ; sets maximum accelerations, mm/sec^2
M203 X180 Y180 Z12 E80 ; sets maximum feedrates, mm / sec
M204 P1250 R1250 T2500 ; sets acceleration (P, T) and retract acceleration (R), mm/sec^2
M205 X8.00 Y8.00 Z2.00 E10.00 ; sets the jerk limits, mm/sec
M205 S0 T0 ; sets the minimum extruding and travel feed rate, mm/sec
M107
;TYPE:Custom
M862.3 P "MINI" ; printer model check
G90 ; use absolute coordinates
M83 ; extruder relative mode
M104 S170 ; set extruder temp for bed leveling
M140 S60 ; set bed temp
M109 R170 ; wait for bed leveling temp
M190 S60 ; wait for bed temp
M204 T1250 ; set travel acceleration
G28 ; home all without mesh bed level
G29 ; mesh bed leveling 
M204 T2500 ; restore travel acceleration
M104 S215 ; set extruder temp
G92 E0
G1 Y-2 X179 F2400
G1 Z3 F720
M109 S215 ; wait for extruder temp

; intro line
G1 X170 F1000
G1 Z0.2 F720
G1 X110 E8 F900
G1 X40 E10 F700
G92 E0

M221 S95 ; set flow
G21 ; set units to millimeters
G90 ; use absolute coordinates
M83 ; use relative distances for extrusion
M900 K0.2 ; Filament gcode LA 1.5
; ; Filament gcode LA 1.0
M107
;LAYER_CHANGE
;Z:0.2
;HEIGHT:0.2
;BEFORE_LAYER_CHANGE
G92 E0.0
;0.2


G1 E-3.2 F4200
G1 Z.2 F720
;AFTER_LAYER_CHANGE
;0.2
G1 Z.4
G1 X67.742 Y66.521 F9000
G1 Z.2 F720
G1 E3.2 F2400
M204 P800
;TYPE:Skirt/Brim
;WIDTH:0.42
G1 F1200
G1 X68.099 Y66.158 E.01596
G1 X70.667 Y64.033 E.10451
G1 X73.229 Y62.308 E.09685
G1 X76.165 Y60.731 E.10451
G1 X79.248 Y59.463 E.10451
G1 X82.607 Y58.479 E.10973
G1 X85.725 Y57.909 E.09938
G1 X89.044 Y57.64 E.10442
G1 X92.376 Y57.713 E.10451
G1 X95.966 Y58.18 E.1135
G1 X99.166 Y58.95 E.10318
G1 X102.31 Y60.057 E.10451
G1 X105.323 Y61.482 E.10451
G1 X108.174 Y63.208 E.10451
G1 X110.832 Y65.219 E.10451
G1 X113.27 Y67.492 E.10451
G1 X115.461 Y70.004 E.10451
G1 X117.355 Y72.682 E.10284
G1 X119.013 Y75.635 E.10619
G1 X120.336 Y78.695 E.10451
G1 X121.338 Y81.874 E.10451
M73 P1 R32
G1 X121.997 Y85.058 E.10197
G1 X122.337 Y88.394 E.10514
G1 X122.337 Y91.606 E.10068
G1 X122.007 Y94.861 E.1026
G1 X121.338 Y98.126 E.10451
G1 X120.336 Y101.305 E.10451
M73 P1 R31
G1 X119.013 Y104.365 E.10451
G1 X117.382 Y107.272 E.10451
G1 X115.328 Y110.166 E.11127
G1 X113.268 Y112.509 E.09783
G1 X110.832 Y114.781 E.10443
G1 X107.971 Y116.928 E.11217
G1 X105.158 Y118.609 E.10274
G1 X102.083 Y120.035 E.10629
G1 X98.931 Y121.118 E.10451
G1 X95.684 Y121.871 E.10451
G1 X92.376 Y122.287 E.10451
G1 X89.044 Y122.36 E.10451
G1 X85.722 Y122.09 E.10451
G1 X82.445 Y121.48 E.10451
G1 X79.252 Y120.538 E.10437
G1 X76.165 Y119.269 E.10465
G1 X73.229 Y117.692 E.10451
G1 X70.471 Y115.82 E.10451
G1 X67.942 Y113.699 E.1035
G1 X65.702 Y111.398 E.10068
G1 X63.685 Y108.858 E.10169
G1 X61.886 Y106.052 E.10451
G1 X60.384 Y103.076 E.10451
G1 X59.197 Y99.962 E.10451
G1 X58.336 Y96.742 E.10451
G1 X57.81 Y93.45 E.10451
G1 X57.626 Y90.122 E.10451
G1 X57.782 Y86.844 E.10292
G1 X58.286 Y83.496 E.10614
G1 X59.122 Y80.271 E.10446
G1 X60.513 Y76.664 E.12121
G1 X61.819 Y74.059 E.09136
G1 X63.685 Y71.142 E.10859
G1 X65.764 Y68.536 E.10451
G1 X67.7 Y66.564 E.08667
M204 P1000
; printing object A00020-PART-19-TRIAL.STL id:0 copy 0
G1 E-2.24 F4200
;WIPE_START
G1 F7200
G1 X68.099 Y66.158 E-.31529
G1 X68.928 Y65.471 E-.59671
;WIPE_END
G1 E-.048 F4200
G1 Z.4 F720
G1 X83.872 Y61.455 F9000
G1 X86.977 Y60.968
G1 X90 Y60.811
G1 X93.023 Y60.968
G1 X96.128 Y61.455
G1 X115.254 Y75.351
G1 X116.677 Y78.154
G1 X117.76 Y80.98
G1 X118.545 Y83.903
G1 X119.041 Y87.007
G1 X112.949 Y92.671
G1 X112.948 Y92.672
G1 X113.468 Y92.967
G1 Z.2 F720
G1 E3.2 F2400
M204 P800
;TYPE:Perimeter
;WIDTH:0.419999
G1 F1200
G1 X114.823 Y91.183 E.07024
G1 X116.405 Y89.597 E.07024
G1 X118.191 Y88.23 E.07052
G1 X119.127 Y87.556 E.03617
G1 X119.13 Y87.875 E.01001
G1 X119.175 Y88.522 E.02032
G1 X119.174 Y91.486 E.09295
G1 X118.864 Y94.496 E.09485
G1 X118.249 Y97.439 E.0943
G1 X117.334 Y100.305 E.0943
G1 X116.13 Y103.06 E.0943
G1 X114.648 Y105.678 E.0943
G1 X112.904 Y108.132 E.09441
G1 X112.424 Y108.686 E.02298
G1 X112.12 Y109.108 E.01629
G1 X111.975 Y108.585 E.01701
G1 X111.769 Y108.011 E.01912
G1 X111.125 Y105.847 E.0708
G1 X110.778 Y103.633 E.07024
G1 X110.73 Y101.394 E.07024
G1 X110.983 Y99.168 E.07024
G1 X111.176 Y98.402 E.02478
;WIDTH:0.45457
G1 X111.253 Y98.169 E.00839
;WIDTH:0.489141
G1 X111.329 Y97.936 E.00909
;WIDTH:0.523712
G1 X111.406 Y97.703 E.0098
G1 X111.525 Y97.147 E.02272
;WIDTH:0.49789
G1 X111.857 Y96.235 E.03672
;WIDTH:0.458945
G1 X111.973 Y95.893 E.0125
;WIDTH:0.419999
G1 X112.364 Y94.916 E.03299
G1 X113.439 Y93.02 E.06836
M204 P1000
G1 E-3.2 F4200
G1 Z.4 F720
G1 X114.337 Y95.971 F9000
G1 Z.2 F720
G1 E3.2 F2400
M204 P800
G1 F1200
G1 X114.408 Y95.987 E.00228
G1 X114.825 Y96.204 E.01473
G1 X115.272 Y96.641 E.01959
G1 X115.548 Y97.201 E.01958
G1 X115.621 Y97.63 E.01364
G1 X115.548 Y98.25 E.01958
G1 X115.484 Y98.43 E.00599
G1 X115.182 Y98.93 E.01833
G1 X114.662 Y99.346 E.02086
G1 X114.072 Y99.549 E.01958
G1 X113.447 Y99.543 E.01958
G1 X112.861 Y99.33 E.01958
G1 X112.378 Y98.933 E.01958
G1 X112.056 Y98.398 E.01958
;WIDTH:0.454847
G1 X111.997 Y98.195 E.00724
;WIDTH:0.489695
G1 X111.937 Y97.992 E.00786
;WIDTH:0.524543
G1 X111.878 Y97.789 E.00847
G1 X111.952 Y97.255 E.0216
;WIDTH:0.49789
G1 X112.159 Y96.756 E.02046
G1 X112.381 Y96.527 E.01204
;WIDTH:0.458945
G1 X112.603 Y96.299 E.01101
;WIDTH:0.419999
G1 X113.145 Y95.99 E.01958
G1 X113.328 Y95.934 E.006
G1 X113.932 Y95.883 E.01903
G1 X114.279 Y95.959 E.01111
M204 P1000
G1 X114.251 Y96.33 F9000
M204 P800
;TYPE:External perimeter
G1 F1200
G1 X114.576 Y96.488 E.01132
G1 X114.943 Y96.825 E.01563
G1 X115.176 Y97.265 E.01562
G1 X115.249 Y97.694 E.01364
G1 X115.17 Y98.212 E.01643
G1 X114.912 Y98.666 E.01638
G1 X114.522 Y98.997 E.01605
G1 X114.056 Y99.172 E.01561
G1 X113.558 Y99.183 E.01562
G1 X113.085 Y99.026 E.01562
G1 X112.691 Y98.722 E.01562
G1 X112.421 Y98.303 E.01562
G1 X112.306 Y97.819 E.01562
G1 X112.359 Y97.323 E.01562
G1 X112.574 Y96.874 E.01561
G1 X112.926 Y96.522 E.01562
G1 X113.376 Y96.308 E.01562
G1 X113.865 Y96.254 E.01545
G1 X114.192 Y96.318 E.01044
M204 P1000
G1 X114.518 Y96.087 F9000
G1 E-2.24 F4200
;WIPE_START
G1 F7200
G1 X114.576 Y96.488 E-.23234
G1 X114.943 Y96.825 E-.27622
G1 X115.176 Y97.265 E-.27599
G1 X115.215 Y97.491 E-.12746
;WIPE_END
G1 E-.048 F4200
G1 Z.4 F720
G1 X115.388 Y97.477 F9000
G1 X119.208 Y87.084
G1 X119.04 Y85.855
G1 X118.979 Y85.431
G1 X118.692 Y83.872
G1 X118.453 Y82.871
G1 X118.35 Y82.455
G1 X117.903 Y80.934
G1 X117.562 Y79.962
G1 X117.416 Y79.56
G1 X116.815 Y78.093
G1 X116.375 Y77.162
G1 X116.186 Y76.777
G1 X115.343 Y75.193
G1 X114.966 Y75.129
G1 X115.011 Y74.868
G1 Z.2 F720
G1 E3.2 F2400
M204 P800
;TYPE:Perimeter
G1 F1200
G1 X114.389 Y74.84 E.01952
G1 X113.856 Y74.862 E.01671
G1 X111.599 Y74.806 E.07081
G1 X109.404 Y74.456 E.06967
G1 X107.242 Y73.805 E.0708
G1 X105.203 Y72.877 E.07023
G1 X104.096 Y72.181 E.04101
;WIDTH:0.453483
G1 X103.802 Y71.977 E.01222
;WIDTH:0.486917
G1 X102.83 Y71.265 E.04448
;WIDTH:0.453458
G1 X102.563 Y71.064 E.01141
;WIDTH:0.419999
G1 X101.587 Y70.25 E.03987
G1 X100.074 Y68.597 E.07024
G1 X98.792 Y66.751 E.07046
G1 X98.021 Y65.309 E.0513
G1 X97.782 Y64.781 E.01815
G1 X97.017 Y62.608 E.07223
G1 X96.682 Y61.55 E.03481
G1 X97.038 Y61.671 E.01181
G1 X98.16 Y61.951 E.03625
G1 X101.005 Y62.94 E.09444
G1 X103.729 Y64.215 E.0943
G1 X106.307 Y65.764 E.0943
G1 X108.713 Y67.569 E.0943
G1 X110.92 Y69.612 E.0943
G1 X112.906 Y71.871 E.09431
G1 X114.667 Y74.341 E.0951
G1 X114.978 Y74.818 E.01785
M204 P1000
G1 E-3.2 F4200
G1 Z.4 F720
G1 X105.108 Y67.979 F9000
G1 Z.2 F720
G1 E3.2 F2400
M204 P800
G1 F1200
G1 X105.177 Y67.991 E.00219
G1 X105.709 Y68.226 E.01824
G1 X106.109 Y68.579 E.01672
G1 X106.402 Y69.07 E.01793
G1 X106.466 Y69.25 E.00599
G1 X106.539 Y69.679 E.01364
G1 X106.466 Y70.299 E.01958
G1 X106.19 Y70.859 E.01958
G1 X105.743 Y71.295 E.01958
G1 X105.28 Y71.516 E.01608
G1 X104.99 Y71.598 E.00946
G1 X104.366 Y71.592 E.01958
;WIDTH:0.452899
G1 X104.081 Y71.511 E.01008
;WIDTH:0.485798
G1 X103.797 Y71.431 E.01089
;WIDTH:0.486917
G1 X103.381 Y71.125 E.01903
;WIDTH:0.503345
G1 X103.262 Y71.005 E.00648
G1 X103.118 Y70.726 E.01202
;WIDTH:0.461672
G1 X102.974 Y70.447 E.01093
;WIDTH:0.419999
G1 X102.848 Y69.836 E.01958
G1 X102.938 Y69.207 E.01992
G1 X103.227 Y68.647 E.01975
G1 X103.675 Y68.235 E.01909
G1 X104.246 Y67.983 E.01958
G1 X104.821 Y67.927 E.01812
G1 X105.049 Y67.968 E.00726
M204 P1000
G1 X105.036 Y68.341 F9000
M204 P800
;TYPE:External perimeter
G1 F1200
G1 X105.494 Y68.537 E.01562
G1 X105.861 Y68.874 E.01562
G1 X106.094 Y69.314 E.01561
G1 X106.168 Y69.743 E.01364
G1 X106.082 Y70.277 E.01695
G1 X105.821 Y70.725 E.01627
G1 X105.44 Y71.046 E.01562
G1 X104.974 Y71.221 E.01562
G1 X104.476 Y71.232 E.01562
G1 X104.003 Y71.076 E.01562
G1 X103.609 Y70.771 E.01562
G1 X103.339 Y70.352 E.01562
G1 X103.224 Y69.868 E.01561
G1 X103.279 Y69.369 E.01573
G1 X103.513 Y68.892 E.01667
G1 X103.853 Y68.567 E.01473
G1 X104.294 Y68.357 E.01533
G1 X104.773 Y68.301 E.01513
G1 X104.977 Y68.332 E.00646
M204 P1000
G1 X105.319 Y68.059 F9000
G1 E-2.24 F4200
;WIPE_START
G1 F7200
G1 X105.494 Y68.537 E-.30829
G1 X105.861 Y68.874 E-.27599
G1 X106.094 Y69.314 E-.27598
G1 X106.11 Y69.406 E-.05174
;WIPE_END
G1 E-.048 F4200
G1 Z.4 F720
G1 X106.269 Y69.364 F9000
G1 X106.234 Y69.231
G1 X106.12 Y68.978
G1 X105.965 Y68.749
G1 X105.773 Y68.549
G1 X96.255 Y61.318
G1 X95.454 Y61.17
G1 X95.032 Y61.1
G1 X93.039 Y60.814
G1 X92.439 Y60.76
G1 X92.012 Y60.734
G1 X90 Y60.656
G1 X89.398 Y60.665
G1 X88.97 Y60.684
G1 X86.961 Y60.813
G1 X86.363 Y60.884
G1 X85.94 Y60.948
G1 X83.745 Y61.318
G1 X83.56 Y61.671
G1 X83.32 Y61.545
G1 Z.2 F720
G1 E3.2 F2400
M204 P800
;TYPE:Perimeter
G1 F1200
G1 X83.205 Y61.834 E.00975
G1 X82.978 Y62.625 E.02581
G1 X82.224 Y64.763 E.07107
G1 X81.204 Y66.757 E.07024
G1 X79.926 Y68.597 E.07024
G1 X78.413 Y70.25 E.07024
G1 X77.577 Y70.947 E.03414
;WIDTH:0.457711
G1 X77.289 Y71.163 E.01244
;WIDTH:0.495423
G1 X76.532 Y71.749 E.03598
;WIDTH:0.482968
G1 X76.294 Y71.917 E.01066
;WIDTH:0.451484
G1 X76.056 Y72.085 E.0099
;WIDTH:0.419999
G1 X74.797 Y72.877 E.04666
G1 X72.758 Y73.805 E.07023
G1 X70.596 Y74.456 E.0708
G1 X68.401 Y74.806 E.06967
G1 X66.117 Y74.862 E.07164
G1 X65.011 Y74.847 E.03467
G1 X65.258 Y74.528 E.01264
G1 X66.191 Y73.075 E.05413
G1 X68.058 Y70.716 E.09434
G1 X70.157 Y68.562 E.0943
G1 X72.467 Y66.635 E.0943
G1 X74.962 Y64.956 E.0943
G1 X77.617 Y63.543 E.0943
G1 X80.403 Y62.41 E.09431
G1 X83.263 Y61.563 E.09351
M204 P1000
G1 E-3.2 F4200
M73 P2 R31
G1 Z.4 F720
G1 X75.357 Y67.935 F9000
G1 Z.2 F720
G1 E3.2 F2400
M204 P800
G1 F1200
G1 X75.432 Y67.927 E.00237
G1 X75.787 Y67.991 E.01133
G1 X76.354 Y68.254 E.01958
G1 X76.746 Y68.609 E.01657
G1 X77.013 Y69.07 E.01671
G1 X77.15 Y69.679 E.01958
G1 X77.077 Y70.299 E.01958
;WIDTH:0.441394
G1 X76.81 Y70.864 E.02071
;WIDTH:0.468409
G1 X76.758 Y70.95 E.00356
;WIDTH:0.495423
G1 X76.706 Y71.036 E.00378
G1 X76.298 Y71.376 E.01997
;WIDTH:0.482968
G1 X76.043 Y71.467 E.00991
;WIDTH:0.451484
G1 X75.787 Y71.558 E.00921
;WIDTH:0.419999
G1 X75.166 Y71.617 E.01958
G1 X74.659 Y71.495 E.01633
G1 X74.39 Y71.379 E.00921
G1 X73.909 Y70.984 E.01951
G1 X73.605 Y70.509 E.01767
G1 X73.458 Y69.911 E.01931
G1 X73.496 Y69.402 E.016
G1 X73.723 Y68.821 E.01958
G1 X74.055 Y68.428 E.01612
G1 X74.285 Y68.235 E.00942
G1 X74.857 Y67.983 E.01958
G1 X75.297 Y67.94 E.01387
M204 P1000
G1 X75.384 Y68.301 F9000
M204 P800
;TYPE:External perimeter
G1 F1200
G1 X75.647 Y68.341 E.00834
G1 X76.105 Y68.537 E.01562
G1 X76.472 Y68.874 E.01561
G1 X76.705 Y69.314 E.01562
G1 X76.778 Y69.806 E.01562
G1 X76.684 Y70.295 E.01562
G1 X76.431 Y70.725 E.01562
G1 X76.051 Y71.046 E.01562
G1 X75.585 Y71.221 E.01561
G1 X75.087 Y71.232 E.01562
G1 X74.614 Y71.076 E.01561
G1 X74.221 Y70.772 E.01556
G1 X73.95 Y70.352 E.01567
G1 X73.835 Y69.868 E.01561
G1 X73.888 Y69.373 E.01562
G1 X74.103 Y68.923 E.01562
G1 X74.455 Y68.571 E.01561
G1 X74.904 Y68.357 E.01562
G1 X75.324 Y68.308 E.01325
M204 P1000
G1 X75.518 Y68.072 F9000
G1 E-2.24 F4200
;WIPE_START
G1 F7200
G1 X75.647 Y68.341 E-.17966
G1 X76.105 Y68.537 E-.27599
G1 X76.472 Y68.874 E-.27598
G1 X76.624 Y69.161 E-.18036
;WIPE_END
G1 E-.048 F4200
G1 Z.4 F720
G1 X76.781 Y69.09 F9000
G1 X76.845 Y69.231
G1 X76.915 Y69.499
G1 X76.938 Y69.775
G1 X76.915 Y70.051
G1 X76.845 Y70.319
G1 X76.731 Y70.571
G1 X76.576 Y70.8
G1 X76.384 Y71
G1 X72.35 Y74.159
G1 X65.537 Y75.035
G1 X64.649 Y75.178
G1 X64.397 Y75.653
G1 X63.172 Y78.086
G1 X63.05 Y78.382
G1 X62.082 Y80.929
G1 X61.992 Y81.235
G1 X61.292 Y83.869
G1 X61.236 Y84.183
G1 X60.776 Y87.092
G1 X61.068 Y87.388
G1 X60.878 Y87.575
G1 Z.2 F720
G1 E3.2 F2400
M204 P800
;TYPE:Perimeter
G1 F1200
G1 X61.113 Y87.764 E.00947
G1 X61.796 Y88.22 E.02574
G1 X63.595 Y89.597 E.07103
G1 X65.177 Y91.183 E.07024
G1 X66.532 Y92.967 E.07024
G1 X67.636 Y94.916 E.07024
G1 X67.958 Y95.72 E.02715
;WIDTH:0.467397
G1 X68.072 Y96.068 E.0129
;WIDTH:0.514795
G1 X68.185 Y96.415 E.01434
G1 X68.462 Y97.104 E.02912
;WIDTH:0.508823
G1 X68.577 Y97.607 E.02
G1 X68.678 Y97.913 E.01249
;WIDTH:0.464411
G1 X68.778 Y98.22 E.0113
;WIDTH:0.419999
G1 X69.017 Y99.168 E.03067
G1 X69.27 Y101.394 E.07024
G1 X69.222 Y103.633 E.07024
G1 X68.883 Y105.799 E.06872
G1 X68.792 Y106.195 E.01276
G1 X68.23 Y108.015 E.0597
G1 X68.025 Y108.575 E.0187
G1 X67.867 Y109.089 E.01687
G1 X67.534 Y108.627 E.01786
G1 X66.192 Y106.926 E.06793
G1 X64.577 Y104.388 E.09431
G1 X63.233 Y101.698 E.0943
G1 X62.172 Y98.884 E.0943
G1 X61.406 Y95.975 E.0943
G1 X60.943 Y93.004 E.0943
G1 X60.788 Y89.998 E.09435
G1 X60.876 Y87.635 E.07417
M204 P1000
G1 E-3.2 F4200
G1 Z.4 F720
G1 X66.339 Y95.895 F9000
G1 Z.2 F720
G1 E3.2 F2400
M204 P800
G1 F1200
G1 X66.696 Y95.938 E.01128
G1 X67.272 Y96.205 E.0199
;WIDTH:0.467397
G1 X67.516 Y96.411 E.01128
;WIDTH:0.514795
G1 X67.76 Y96.618 E.01254
G1 X67.992 Y97.074 E.02008
;WIDTH:0.503736
G1 X68.11 Y97.623 E.02149
G1 X68.052 Y97.936 E.01221
;WIDTH:0.461868
G1 X67.995 Y98.25 E.0111
;WIDTH:0.419999
G1 X67.719 Y98.81 E.01958
G1 X67.272 Y99.246 E.01958
G1 X66.701 Y99.509 E.01971
G1 X66.084 Y99.567 E.01945
G1 X65.478 Y99.416 E.01957
G1 X65.308 Y99.33 E.00599
G1 X64.826 Y98.933 E.01958
G1 X64.521 Y98.455 E.01776
G1 X64.394 Y97.977 E.01552
G1 X64.414 Y97.353 E.01958
G1 X64.642 Y96.772 E.01958
G1 X65.05 Y96.299 E.01958
G1 X65.592 Y95.99 E.01958
G1 X66.206 Y95.878 E.01958
G1 X66.279 Y95.887 E.0023
M204 P1000
G1 X66.302 Y96.252 F9000
M204 P800
;TYPE:External perimeter
G1 F1200
G1 X66.565 Y96.292 E.00834
G1 X67.023 Y96.488 E.01561
G1 X67.39 Y96.825 E.01562
G1 X67.623 Y97.265 E.01562
G1 X67.697 Y97.757 E.01562
G1 X67.602 Y98.246 E.01562
G1 X67.35 Y98.676 E.01562
G1 X66.968 Y98.997 E.01563
G1 X66.499 Y99.173 E.01571
G1 X66.005 Y99.183 E.0155
G1 X65.532 Y99.026 E.01562
G1 X65.138 Y98.722 E.01562
G1 X64.868 Y98.303 E.01561
G1 X64.753 Y97.819 E.01562
G1 X64.806 Y97.323 E.01562
G1 X65.021 Y96.874 E.01562
G1 X65.373 Y96.522 E.01561
G1 X65.823 Y96.308 E.01562
G1 X66.243 Y96.259 E.01325
M204 P1000
G1 X66.436 Y96.023 F9000
G1 E-2.24 F4200
;WIPE_START
G1 F7200
G1 X66.565 Y96.292 E-.17967
G1 X67.023 Y96.488 E-.27598
G1 X67.39 Y96.825 E-.27599
G1 X67.542 Y97.112 E-.18036
;WIPE_END
G1 E-.048 F4200
G1 Z.4 F720
G1 X67.7 Y97.041 F9000
G1 X69.409 Y100.66
G1 X68.151 Y109.001
G1 X68.073 Y109.529
G1 X69.811 Y111.285
G1 X70.161 Y111.626
G1 X70.383 Y111.83
G1 X72.171 Y113.299
G1 X72.508 Y113.564
G1 X72.749 Y113.744
G1 X74.68 Y115.02
G1 X75.042 Y115.248
G1 X75.301 Y115.402
G1 X77.353 Y116.473
G1 X77.737 Y116.661
G1 X78.202 Y116.885
G1 X78.562 Y116.703
G1 X78.685 Y116.946
G1 Z.2 F720
G1 E3.2 F2400
M204 P800
;TYPE:Perimeter
G1 F1200
G1 X78.943 Y116.781 E.00962
G1 X79.591 Y116.274 E.02578
G1 X81.457 Y114.988 E.07106
G1 X83.455 Y113.974 E.07024
G1 X85.57 Y113.237 E.07024
G1 X87.765 Y112.789 E.07024
