; generated by PrusaSlicer 2.5.2+win64 on 2023-04-23 at 23:04:10 UTC


;
;

;
;
; 

; external perimeters extrusion width = 0.45mm
; perimeters extrusion width = 0.45mm
; infill extrusion width = 0.45mm
; solid infill extrusion width = 0.45mm
; top infill extrusion width = 0.40mm
; first layer extrusion width = 0.42mm

M73 P0 R14
M201 X2500 Y2500 Z400 E5000 ; sets maximum accelerations, mm/sec^2
M203 X180 Y180 Z12 E80 ; sets maximum feedrates, mm / sec
M204 P1250 R1250 T2500 ; sets acceleration (P, T) and retract acceleration (R), mm/sec^2
M205 X8.00 Y8.00 Z2.00 E10.00 ; sets the jerk limits, mm/sec
M205 S0 T0 ; sets the minimum extruding and travel feed rate, mm/sec
M107
;TYPE:Custom
M862.3 P "MINI" ; printer model check
G90 ; use absolute coordinates
M83 ; extruder relative mode
M104 S170 ; set extruder temp for bed leveling
M140 S60 ; set bed temp
M109 R170 ; wait for bed leveling temp
M190 S60 ; wait for bed temp
M204 T1250 ; set travel acceleration
G28 ; home all without mesh bed level
G29 ; mesh bed leveling 
M204 T2500 ; restore travel acceleration
M104 S215 ; set extruder temp
G92 E0
G1 Y-2 X179 F2400
G1 Z3 F720
M109 S215 ; wait for extruder temp

; intro line
G1 X170 F1000
G1 Z0.2 F720
G1 X110 E8 F900
G1 X40 E10 F700
G92 E0

M221 S95 ; set flow
G21 ; set units to millimeters
G90 ; use absolute coordinates
M83 ; use relative distances for extrusion
M900 K0.2 ; Filament gcode LA 1.5
; ; Filament gcode LA 1.0
M107
;LAYER_CHANGE
;Z:0.2
;HEIGHT:0.2
;BEFORE_LAYER_CHANGE
G92 E0.0
;0.2


M73 P1 R14
G1 E-3.2 F4200
M73 P1 R13
G1 Z.2 F720
;AFTER_LAYER_CHANGE
;0.2
G1 Z.4
G1 X85.459 Y84.445 F9000
G1 Z.2 F720
G1 E3.2 F2400
M204 P800
;TYPE:Skirt/Brim
;WIDTH:0.42
G1 F915
G1 X86.467 Y83.755 E.03829
G1 X87.569 Y83.25 E.03803
G1 X88.226 Y83.048 E.02154
G1 X89.429 Y82.848 E.03823
G1 X90.645 Y82.854 E.03814
G1 X91.842 Y83.066 E.0381
G1 X92.989 Y83.478 E.03823
G1 X94.048 Y84.076 E.03814
G1 X95.357 Y85.228 E.05467
M73 P2 R13
G1 X96.087 Y86.202 E.03816
G1 X96.423 Y86.803 E.02161
G1 X96.871 Y87.934 E.03814
G1 X97.121 Y89.123 E.0381
G1 X97.164 Y90.476 E.04245
G1 X96.873 Y92.06 E.05047
G1 X96.424 Y93.195 E.03829
G1 X95.792 Y94.235 E.03816
G1 X94.996 Y95.15 E.03803
G1 X94.478 Y95.606 E.02161
G1 X92.995 Y96.52 E.05465
G1 X91.846 Y96.933 E.03829
G1 X90.647 Y97.146 E.03816
G1 X89.43 Y97.152 E.03816
G1 X88.234 Y96.954 E.03803
G1 X87.08 Y96.554 E.03829
G1 X86.015 Y95.966 E.03816
G1 X85.067 Y95.21 E.03803
G1 X84.591 Y94.714 E.02154
G1 X83.871 Y93.73 E.03823
G1 X83.329 Y92.641 E.03814
G1 X82.889 Y90.954 E.05467
G1 X82.83 Y89.734 E.03829
G1 X82.977 Y88.531 E.03803
G1 X83.151 Y87.864 E.02161
G1 X83.61 Y86.737 E.03814
G1 X84.254 Y85.704 E.03817
G1 X85.418 Y84.488 E.05277
M204 P1000
G1 X85.684 Y84.748 F9000
M204 P800
G1 F915
G1 X86.637 Y84.092 E.03628
G1 X87.68 Y83.61 E.03603
G1 X88.336 Y83.409 E.02154
G1 X89.477 Y83.222 E.03623
G1 X90.629 Y83.231 E.03613
G1 X91.762 Y83.434 E.0361
G1 X92.849 Y83.827 E.03623
G1 X93.85 Y84.397 E.03613
G1 X95.064 Y85.465 E.05068
G1 X95.758 Y86.386 E.03615
G1 X96.094 Y86.987 E.02161
G1 X96.515 Y88.06 E.03613
G1 X96.749 Y89.187 E.0361
G1 X96.787 Y90.46 E.03994
G1 X96.517 Y91.934 E.04698
G1 X96.095 Y93.011 E.03628
G1 X95.498 Y93.998 E.03615
G1 X94.746 Y94.867 E.03603
G1 X94.229 Y95.323 E.02161
G1 X92.854 Y96.17 E.05065
G1 X91.766 Y96.565 E.03628
G1 X90.631 Y96.769 E.03615
G1 X89.478 Y96.778 E.03615
G1 X88.344 Y96.593 E.03603
G1 X87.25 Y96.217 E.03628
G1 X86.239 Y95.663 E.03615
G1 X85.339 Y94.948 E.03603
G1 X84.863 Y94.453 E.02154
G1 X84.183 Y93.519 E.03623
G1 X83.673 Y92.486 E.03613
G1 X83.265 Y90.922 E.05068
G1 X83.206 Y89.766 E.03628
G1 X83.342 Y88.625 E.03603
G1 X83.516 Y87.958 E.02161
G1 X83.954 Y86.893 E.03613
G1 X84.566 Y85.915 E.03618
G1 X85.642 Y84.791 E.04877
M204 P1000
G1 X85.908 Y85.051 F9000
M204 P800
G1 F915
G1 X86.806 Y84.429 E.03427
G1 X87.79 Y83.971 E.03403
G1 X88.447 Y83.769 E.02154
G1 X89.525 Y83.596 E.03422
G1 X90.613 Y83.608 E.03412
G1 X91.683 Y83.803 E.03411
G1 X92.708 Y84.177 E.03422
G1 X93.653 Y84.718 E.03412
G1 X94.771 Y85.702 E.04669
G1 X95.429 Y86.57 E.03415
G1 X95.765 Y87.171 E.02161
G1 X96.16 Y88.185 E.03412
G1 X96.378 Y89.251 E.03411
G1 X96.41 Y90.444 E.03743
G1 X96.161 Y91.809 E.04349
G1 X95.766 Y92.827 E.03427
G1 X95.205 Y93.761 E.03415
G1 X94.497 Y94.584 E.03403
G1 X93.98 Y95.04 E.02161
G1 X92.713 Y95.82 E.04666
G1 X91.687 Y96.196 E.03427
G1 X90.615 Y96.392 E.03415
G1 X89.526 Y96.404 E.03415
G1 X88.454 Y96.233 E.03403
G1 X87.42 Y95.881 E.03427
G1 X86.463 Y95.36 E.03415
G1 X85.611 Y94.687 E.03403
G1 X85.135 Y94.192 E.02154
G1 X84.496 Y93.307 E.03422
G1 X84.016 Y92.33 E.03412
G1 X83.64 Y90.89 E.04669
G1 X83.581 Y89.798 E.03427
G1 X83.707 Y88.72 E.03403
G1 X83.881 Y88.053 E.02161
G1 X84.297 Y87.048 E.03412
G1 X84.879 Y86.126 E.03418
G1 X85.867 Y85.094 E.04477
M204 P1000
; printing object A00020-PART-35-REV-P1.STL id:0 copy 0
G1 E-2.24 F4200
;WIPE_START
G1 F7200
G1 X86.806 Y84.429 E-.63827
G1 X87.254 Y84.22 E-.27373
;WIPE_END
G1 E-.048 F4200
G1 Z.4 F720
G1 X87.919 Y87.513 F9000
G1 Z.2 F720
G1 E3.2 F2400
M204 P800
;TYPE:Perimeter
;WIDTH:0.442176
G1 F915
G1 X88.312 Y87.226 E.01617
G1 X88.805 Y86.98 E.01829
G1 X89.332 Y86.822 E.01829
G1 X89.879 Y86.755 E.01829
G1 X90.429 Y86.781 E.01829
G1 X90.967 Y86.9 E.01829
G1 X91.477 Y87.108 E.01829
G1 X91.945 Y87.399 E.01829
G1 X92.356 Y87.765 E.01829
M73 P3 R13
G1 X92.7 Y88.196 E.01829
G1 X92.966 Y88.678 E.01829
G1 X93.147 Y89.198 E.01829
;WIDTH:0.442583
G1 X93.238 Y89.746 E.01846
G1 X93.235 Y90.288 E.018
G1 X93.138 Y90.835 E.01846
;WIDTH:0.442176
G1 X92.952 Y91.353 E.01829
G1 X92.681 Y91.833 E.01829
G1 X92.333 Y92.259 E.01829
G1 X91.917 Y92.621 E.01829
G1 X91.447 Y92.907 E.01829
G1 X90.935 Y93.11 E.01829
G1 X90.396 Y93.223 E.01829
G1 X89.845 Y93.244 E.01829
G1 X89.299 Y93.171 E.01829
G1 X88.773 Y93.007 E.01829
G1 X88.283 Y92.756 E.01829
G1 X87.842 Y92.427 E.01829
G1 X87.463 Y92.027 E.01829
G1 X87.157 Y91.569 E.01829
G1 X86.932 Y91.066 E.01829
G1 X86.796 Y90.532 E.01829
G1 X86.752 Y89.983 E.01829
G1 X86.802 Y89.434 E.01829
G1 X86.944 Y88.902 E.01829
G1 X87.173 Y88.401 E.01829
G1 X87.484 Y87.947 E.01829
G1 X87.87 Y87.549 E.01841
M204 P1000
G1 X87.689 Y87.2 F9000
M204 P800
;TYPE:External perimeter
;WIDTH:0.419999
G1 F915
G1 X88.196 Y86.85 E.01931
G1 X88.754 Y86.59 E.01931
G1 X89.348 Y86.428 E.01931
G1 X89.961 Y86.37 E.01931
G1 X90.575 Y86.415 E.01931
G1 X91.173 Y86.564 E.01931
G1 X91.737 Y86.812 E.01931
G1 X92.251 Y87.151 E.01931
G1 X92.7 Y87.573 E.01931
G1 X93.071 Y88.064 E.01931
G1 X93.354 Y88.611 E.01931
G1 X93.541 Y89.197 E.01931
G1 X93.626 Y89.803 E.01918
G1 X93.605 Y90.427 E.01957
G1 X93.483 Y91.026 E.01917
G1 X93.259 Y91.6 E.01931
G1 X92.942 Y92.128 E.01931
G1 X92.54 Y92.594 E.01931
G1 X92.065 Y92.986 E.01931
G1 X91.531 Y93.292 E.01931
G1 X90.952 Y93.503 E.01931
G1 X90.346 Y93.614 E.01931
G1 X89.731 Y93.621 E.01931
G1 X89.123 Y93.523 E.01931
G1 X88.54 Y93.324 E.01931
G1 X87.999 Y93.029 E.01931
G1 X87.516 Y92.648 E.01931
G1 X87.104 Y92.19 E.01931
G1 X86.776 Y91.669 E.01931
G1 X86.54 Y91.1 E.01931
G1 X86.404 Y90.499 E.01931
G1 X86.371 Y89.885 E.01931
G1 X86.443 Y89.273 E.01931
G1 X86.617 Y88.682 E.01931
G1 X86.888 Y88.13 E.01931
G1 X87.249 Y87.631 E.01931
G1 X87.646 Y87.242 E.01743
M204 P1000
G1 X88.064 Y87.34 F9000
G1 X88.504 Y87.583
M204 P800
;TYPE:Perimeter
;WIDTH:0.440777
G1 F915
G1 X88.984 Y87.341 E.01778
G1 X89.448 Y87.207 E.01597
G1 X89.928 Y87.154 E.01597
;WIDTH:0.442176
G1 X90.362 Y87.174 E.01442
G1 X90.88 Y87.293 E.01765
;WIDTH:0.440778
G1 X91.325 Y87.481 E.01597
G1 X91.732 Y87.741 E.01597
G1 X92.089 Y88.066 E.01597
G1 X92.385 Y88.447 E.01597
G1 X92.614 Y88.872 E.01597
G1 X92.767 Y89.33 E.01597
;WIDTH:0.441538
G1 X92.84 Y89.803 E.01586
G1 X92.831 Y90.294 E.01628
;WIDTH:0.440777
G1 X92.742 Y90.764 E.01583
G1 X92.573 Y91.217 E.01597
G1 X92.331 Y91.634 E.01597
G1 X92.021 Y92.005 E.01597
G1 X91.653 Y92.317 E.01597
G1 X91.238 Y92.563 E.01597
G1 X90.787 Y92.736 E.01597
G1 X90.313 Y92.829 E.01597
G1 X89.83 Y92.842 E.01597
G1 X89.353 Y92.772 E.01597
G1 X88.893 Y92.623 E.01597
G1 X88.466 Y92.398 E.01597
G1 X88.083 Y92.104 E.01597
G1 X87.755 Y91.75 E.01597
G1 X87.491 Y91.345 E.01597
G1 X87.3 Y90.902 E.01597
G1 X87.186 Y90.433 E.01597
G1 X87.154 Y89.951 E.01597
G1 X87.203 Y89.471 E.01597
G1 X87.333 Y89.006 E.01597
G1 X87.539 Y88.569 E.01597
G1 X87.816 Y88.174 E.01597
G1 X88.156 Y87.831 E.01597
G1 X88.455 Y87.618 E.01215
M204 P1000
G1 X88.724 Y87.897 F9000
M204 P800
;TYPE:External perimeter
;WIDTH:0.419999
G1 F915
G1 X89.098 Y87.711 E.01308
G1 X89.497 Y87.592 E.01308
G1 X89.912 Y87.541 E.01308
G1 X90.313 Y87.559 E.01259
G1 X90.736 Y87.652 E.01358
G1 X91.122 Y87.81 E.01308
G1 X91.476 Y88.032 E.01308
G1 X91.787 Y88.309 E.01308
G1 X92.047 Y88.636 E.01308
G1 X92.248 Y89.001 E.01308
G1 X92.385 Y89.396 E.01308
G1 X92.452 Y89.803 E.01295
G1 X92.449 Y90.229 E.01335
G1 X92.377 Y90.635 E.01295
G1 X92.235 Y91.028 E.01308
G1 X92.029 Y91.391 E.01308
G1 X91.765 Y91.714 E.01308
G1 X91.45 Y91.987 E.01308
G1 X91.093 Y92.204 E.01308
G1 X90.705 Y92.357 E.01308
G1 X90.297 Y92.442 E.01308
G1 X89.88 Y92.457 E.01308
G1 X89.466 Y92.402 E.01308
G1 X89.068 Y92.277 E.01308
G1 X88.697 Y92.086 E.01308
G1 X88.363 Y91.836 E.01308
G1 X88.076 Y91.533 E.01308
G1 X87.844 Y91.186 E.01308
G1 X87.675 Y90.804 E.01308
G1 X87.573 Y90.4 E.01308
G1 X87.54 Y89.984 E.01308
G1 X87.578 Y89.568 E.01308
G1 X87.686 Y89.165 E.01308
G1 X87.86 Y88.786 E.01308
G1 X88.096 Y88.442 E.01308
G1 X88.387 Y88.143 E.01308
G1 X88.675 Y87.932 E.0112
M204 P1000
G1 X88.715 Y87.497 F9000
; stop printing object A00020-PART-35-REV-P1.STL id:0 copy 0
M106 S84.15
;LAYER_CHANGE
;Z:0.4
;HEIGHT:0.2
;BEFORE_LAYER_CHANGE
G92 E0.0
;0.4


G1 E-2.24 F4200
;WIPE_START
G1 F7200
G1 X89.098 Y87.711 E-.26407
G1 X89.497 Y87.592 E-.23124
G1 X89.912 Y87.541 E-.23124
G1 X90.246 Y87.556 E-.18545
;WIPE_END
G1 E-.048 F4200
G1 Z.4 F720
;AFTER_LAYER_CHANGE
;0.4
; printing object A00020-PART-35-REV-P1.STL id:0 copy 0
G1 X89.962 Y86.674 F9000
G1 E3.2 F2400
M204 P800
;TYPE:Perimeter
;WIDTH:0.612557
G1 F900
G1 X90.44 Y86.698 E.02269
G1 X91 Y86.821 E.02712
G1 X91.522 Y87.036 E.02673
G1 X92.001 Y87.335 E.02677
G1 X92.422 Y87.712 E.02677
G1 X92.774 Y88.154 E.02677
G1 X93.046 Y88.65 E.02677
G1 X93.231 Y89.184 E.02677
G1 X93.322 Y89.742 E.02679
G1 X93.318 Y90.306 E.02673
G1 X93.218 Y90.863 E.02679
G1 X93.026 Y91.394 E.02677
G1 X92.747 Y91.886 E.02677
G1 X92.389 Y92.323 E.02677
G1 X91.967 Y92.689 E.02645
G1 X91.478 Y92.986 E.02712
G1 X90.953 Y93.193 E.02673
G1 X90.399 Y93.308 E.02677
G1 X89.834 Y93.328 E.02677
G1 X89.274 Y93.252 E.02677
G1 X88.735 Y93.083 E.02677
G1 X88.232 Y92.825 E.02677
G1 X87.786 Y92.489 E.02645
G1 X87.392 Y92.074 E.02712
G1 X87.079 Y91.604 E.02673
G1 X86.85 Y91.087 E.02677
G1 X86.712 Y90.539 E.02677
G1 X86.668 Y89.976 E.02677
G1 X86.72 Y89.413 E.02677
G1 X86.866 Y88.867 E.02677
G1 X87.1 Y88.36 E.02645
G1 X87.423 Y87.887 E.02713
G1 X87.817 Y87.483 E.02673
G1 X88.274 Y87.15 E.02677
G1 X88.78 Y86.899 E.02677
G1 X89.322 Y86.738 E.02677
G1 X89.902 Y86.671 E.02768
M204 P1000
G1 X89.986 Y86.186 F9000
M204 P800
;TYPE:External perimeter
;WIDTH:0.449999
G1 F900
G1 X90.63 Y86.239 E.02185
G1 X91.258 Y86.399 E.02194
G1 X91.848 Y86.663 E.0219
G1 X92.386 Y87.024 E.0219
G1 X92.854 Y87.47 E.0219
G1 X93.241 Y87.988 E.0219
G1 X93.534 Y88.565 E.0219
G1 X93.726 Y89.183 E.0219
G1 X93.81 Y89.742 E.01914
G1 X93.785 Y90.471 E.02469
G1 X93.651 Y91.104 E.0219
G1 X93.412 Y91.705 E.0219
G1 X93.075 Y92.257 E.0219
G1 X92.649 Y92.744 E.0219
G1 X92.148 Y93.151 E.02185
G1 X91.584 Y93.47 E.02194
G1 X90.975 Y93.688 E.0219
G1 X90.337 Y93.8 E.0219
G1 X89.69 Y93.802 E.0219
G1 X89.052 Y93.695 E.0219
G1 X88.441 Y93.481 E.0219
G1 X87.875 Y93.168 E.0219
G1 X87.372 Y92.764 E.02185
G1 X86.941 Y92.279 E.02194
G1 X86.6 Y91.73 E.0219
G1 X86.357 Y91.13 E.0219
G1 X86.218 Y90.498 E.0219
G1 X86.188 Y89.852 E.0219
G1 X86.268 Y89.21 E.0219
G1 X86.455 Y88.591 E.0219
G1 X86.745 Y88.013 E.02185
G1 X87.127 Y87.49 E.02194
G1 X87.593 Y87.041 E.0219
G1 X88.128 Y86.677 E.0219
G1 X88.716 Y86.408 E.0219
G1 X89.342 Y86.243 E.0219
G1 X89.926 Y86.191 E.01987
M204 P1000
G1 X90.187 Y86.531 F9000
G1 X90.341 Y87.266
M204 P800
;TYPE:Perimeter
;WIDTH:0.610778
G1 F900
G1 X90.864 Y87.378 E.02527
G1 X91.295 Y87.562 E.02211
G1 X91.688 Y87.816 E.02211
G1 X92.033 Y88.133 E.02211
G1 X92.32 Y88.503 E.02211
G1 X92.539 Y88.917 E.02211
G1 X92.686 Y89.361 E.02211
G1 X92.755 Y89.824 E.02211
G1 X92.745 Y90.292 E.02211
G1 X92.656 Y90.752 E.02211
G1 X92.491 Y91.19 E.02211
G1 X92.254 Y91.594 E.02211
M73 P4 R13
G1 X91.952 Y91.952 E.02211
G1 X91.594 Y92.254 E.02211
;WIDTH:0.610632
G1 X91.295 Y92.438 E.01659
;WIDTH:0.612536
G1 X90.809 Y92.642 E.02495
G1 X90.292 Y92.745 E.02495
;WIDTH:0.610778
G1 X89.824 Y92.755 E.02211
G1 X89.361 Y92.686 E.02211
G1 X88.917 Y92.539 E.02211
G1 X88.503 Y92.32 E.02211
G1 X88.133 Y92.033 E.02211
G1 X87.816 Y91.688 E.02211
G1 X87.562 Y91.295 E.02211
G1 X87.378 Y90.864 E.02211
G1 X87.27 Y90.409 E.02211
G1 X87.24 Y89.941 E.02211
G1 X87.29 Y89.476 E.02211
G1 X87.417 Y89.025 E.02211
G1 X87.619 Y88.603 E.02211
G1 X87.889 Y88.22 E.02211
G1 X88.22 Y87.889 E.02211
G1 X88.603 Y87.619 E.02211
G1 X89.025 Y87.417 E.02211
G1 X89.476 Y87.29 E.02211
G1 X89.941 Y87.24 E.02211
G1 X90.281 Y87.262 E.01608
M204 P1000
G1 X90.306 Y87.746 F9000
M204 P800
;TYPE:External perimeter
;WIDTH:0.449999
G1 F900
G1 X90.682 Y87.83 E.01306
G1 X91.039 Y87.977 E.01306
G1 X91.366 Y88.182 E.01306
G1 X91.654 Y88.439 E.01306
G1 X91.894 Y88.741 E.01306
G1 X92.08 Y89.079 E.01306
G1 X92.205 Y89.444 E.01306
G1 X92.268 Y89.824 E.01306
G1 X92.265 Y90.21 E.01306
G1 X92.197 Y90.59 E.01306
G1 X92.065 Y90.953 E.01306
G1 X91.875 Y91.288 E.01306
G1 X91.63 Y91.586 E.01306
G1 X91.339 Y91.839 E.01306
G1 X91.039 Y92.023 E.01189
G1 X90.649 Y92.18 E.01422
G1 X90.272 Y92.258 E.01306
G1 X89.886 Y92.272 E.01306
G1 X89.504 Y92.22 E.01306
G1 X89.136 Y92.104 E.01306
G1 X88.793 Y91.928 E.01306
G1 X88.484 Y91.696 E.01306
G1 X88.22 Y91.415 E.01306
G1 X88.006 Y91.094 E.01306
G1 X87.85 Y90.741 E.01306
G1 X87.755 Y90.367 E.01306
G1 X87.726 Y89.983 E.01306
G1 X87.761 Y89.599 E.01306
G1 X87.861 Y89.226 E.01306
G1 X88.023 Y88.876 E.01306
G1 X88.241 Y88.558 E.01306
G1 X88.51 Y88.281 E.01306
G1 X88.822 Y88.054 E.01306
G1 X89.168 Y87.883 E.01306
G1 X89.538 Y87.773 E.01306
G1 X89.921 Y87.727 E.01306
G1 X90.246 Y87.743 E.01103
M204 P1000
G1 X90.542 Y87.441 F9000
; stop printing object A00020-PART-35-REV-P1.STL id:0 copy 0
M106 S170.85
;LAYER_CHANGE
;Z:0.6
;HEIGHT:0.2
;BEFORE_LAYER_CHANGE
G92 E0.0
;0.6


G1 E-2.24 F4200
;WIPE_START
G1 F7200
G1 X90.682 Y87.83 E-.24662
G1 X91.039 Y87.977 E-.21377
G1 X91.366 Y88.182 E-.21378
G1 X91.654 Y88.439 E-.21378
G1 X91.681 Y88.473 E-.02405
;WIPE_END
G1 E-.048 F4200
G1 Z.6 F720
;AFTER_LAYER_CHANGE
;0.6
; printing object A00020-PART-35-REV-P1.STL id:0 copy 0
G1 X92.472 Y87.774 F9000
G1 E3.2 F2400
M204 P800
;TYPE:Perimeter
;WIDTH:0.612477
G1 F900
G1 X92.774 Y88.154 E.02301
G1 X93.046 Y88.65 E.02677
;WIDTH:0.612802
G1 X93.23 Y89.184 E.02678
G1 X93.322 Y89.742 E.0268
;WIDTH:0.612557
G1 X93.318 Y90.306 E.02673
G1 X93.218 Y90.863 E.02679
G1 X93.026 Y91.394 E.02677
G1 X92.747 Y91.886 E.02677
G1 X92.389 Y92.323 E.02677
G1 X91.962 Y92.693 E.02677
G1 X91.479 Y92.986 E.02677
G1 X90.963 Y93.189 E.02624
G1 X90.398 Y93.308 E.02736
G1 X89.834 Y93.328 E.0267
G1 X89.274 Y93.252 E.02677
G1 X88.735 Y93.083 E.02677
G1 X88.232 Y92.825 E.02677
G1 X87.78 Y92.485 E.02677
G1 X87.4 Y92.083 E.02624
G1 X87.079 Y91.603 E.02736
G1 X86.85 Y91.087 E.0267
G1 X86.712 Y90.539 E.02677
G1 X86.668 Y89.976 E.02677
G1 X86.72 Y89.413 E.02677
;WIDTH:0.612801
G1 X86.866 Y88.867 E.02678
G1 X87.098 Y88.364 E.02625
;WIDTH:0.612478
G1 X87.424 Y87.887 E.02736
G1 X87.817 Y87.483 E.0267
G1 X88.274 Y87.15 E.02677
G1 X88.78 Y86.899 E.02677
G1 X89.322 Y86.738 E.02676
;WIDTH:0.612802
G1 X89.883 Y86.67 E.02678
G1 X90.436 Y86.697 E.02625
;WIDTH:0.612477
G1 X91 Y86.822 E.02736
G1 X91.522 Y87.036 E.0267
G1 X92.001 Y87.335 E.02677
G1 X92.434 Y87.727 E.02767
M204 P1000
G1 X92.854 Y87.47 F9000
M204 P800
;TYPE:External perimeter
;WIDTH:0.449999
G1 F900
