; generated by PrusaSlicer 2.5.2+win64 on 2023-04-24 at 09:23:48 UTC


;
;

;
;
; 

; external perimeters extrusion width = 0.45mm
; perimeters extrusion width = 0.45mm
; infill extrusion width = 0.45mm
; solid infill extrusion width = 0.45mm
; top infill extrusion width = 0.40mm
; first layer extrusion width = 0.42mm

M73 P0 R14
M201 X2500 Y2500 Z400 E5000 ; sets maximum accelerations, mm/sec^2
M203 X180 Y180 Z12 E80 ; sets maximum feedrates, mm / sec
M204 P1250 R1250 T2500 ; sets acceleration (P, T) and retract acceleration (R), mm/sec^2
M205 X8.00 Y8.00 Z2.00 E10.00 ; sets the jerk limits, mm/sec
M205 S0 T0 ; sets the minimum extruding and travel feed rate, mm/sec
M107
;TYPE:Custom
M862.3 P "MINI" ; printer model check
G90 ; use absolute coordinates
M83 ; extruder relative mode
M104 S170 ; set extruder temp for bed leveling
M140 S60 ; set bed temp
M109 R170 ; wait for bed leveling temp
M190 S60 ; wait for bed temp
M204 T1250 ; set travel acceleration
G28 ; home all without mesh bed level
G29 ; mesh bed leveling 
M204 T2500 ; restore travel acceleration
M104 S215 ; set extruder temp
G92 E0
G1 Y-2 X179 F2400
G1 Z3 F720
M109 S215 ; wait for extruder temp

; intro line
G1 X170 F1000
G1 Z0.2 F720
G1 X110 E8 F900
G1 X40 E10 F700
G92 E0

M221 S95 ; set flow
G21 ; set units to millimeters
G90 ; use absolute coordinates
M83 ; use relative distances for extrusion
M900 K0.2 ; Filament gcode LA 1.5
; ; Filament gcode LA 1.0
M107
;LAYER_CHANGE
;Z:0.2
;HEIGHT:0.2
;BEFORE_LAYER_CHANGE
G92 E0.0
;0.2


M73 P1 R14
G1 E-3.2 F4200
G1 Z.2 F720
;AFTER_LAYER_CHANGE
;0.2
G1 Z.4
G1 X85.459 Y84.445 F9000
G1 Z.2 F720
G1 E3.2 F2400
M204 P800
;TYPE:Skirt/Brim
;WIDTH:0.42
G1 F900
G1 X86.467 Y83.755 E.03829
G1 X87.569 Y83.25 E.03803
G1 X88.226 Y83.048 E.02154
G1 X89.429 Y82.848 E.03823
G1 X90.645 Y82.854 E.03814
G1 X91.842 Y83.066 E.0381
G1 X92.989 Y83.478 E.03823
G1 X94.048 Y84.076 E.03814
G1 X95.357 Y85.228 E.05467
G1 X96.087 Y86.202 E.03816
G1 X96.423 Y86.803 E.02161
G1 X96.871 Y87.934 E.03814
G1 X97.121 Y89.123 E.0381
G1 X97.164 Y90.476 E.04245
G1 X96.873 Y92.06 E.05047
G1 X96.424 Y93.195 E.03829
M73 P2 R14
G1 X95.792 Y94.235 E.03816
G1 X94.996 Y95.15 E.03803
G1 X94.478 Y95.606 E.02161
G1 X92.995 Y96.52 E.05465
G1 X91.846 Y96.933 E.03829
G1 X90.647 Y97.146 E.03816
G1 X89.43 Y97.152 E.03816
G1 X88.234 Y96.954 E.03803
G1 X87.08 Y96.554 E.03829
G1 X86.015 Y95.966 E.03816
G1 X85.067 Y95.21 E.03803
G1 X84.591 Y94.714 E.02154
G1 X83.871 Y93.73 E.03823
G1 X83.329 Y92.641 E.03814
G1 X82.889 Y90.954 E.05467
G1 X82.83 Y89.734 E.03829
G1 X82.977 Y88.531 E.03803
G1 X83.151 Y87.864 E.02161
G1 X83.61 Y86.737 E.03814
G1 X84.254 Y85.704 E.03817
G1 X85.418 Y84.488 E.05277
M204 P1000
G1 X85.684 Y84.748 F9000
M204 P800
G1 F900
G1 X86.637 Y84.092 E.03628
G1 X87.68 Y83.61 E.03603
G1 X88.336 Y83.409 E.02154
G1 X89.477 Y83.222 E.03623
G1 X90.629 Y83.231 E.03613
G1 X91.762 Y83.434 E.0361
G1 X92.849 Y83.827 E.03623
G1 X93.85 Y84.397 E.03613
G1 X95.064 Y85.465 E.05068
G1 X95.758 Y86.386 E.03615
G1 X96.094 Y86.987 E.02161
G1 X96.515 Y88.06 E.03613
G1 X96.749 Y89.187 E.0361
G1 X96.787 Y90.46 E.03994
G1 X96.517 Y91.934 E.04698
G1 X96.095 Y93.011 E.03628
G1 X95.498 Y93.998 E.03615
G1 X94.746 Y94.867 E.03603
G1 X94.229 Y95.323 E.02161
G1 X92.854 Y96.17 E.05065
G1 X91.766 Y96.565 E.03628
G1 X90.631 Y96.769 E.03615
G1 X89.478 Y96.778 E.03615
G1 X88.344 Y96.593 E.03603
G1 X87.25 Y96.217 E.03628
G1 X86.239 Y95.663 E.03615
G1 X85.339 Y94.948 E.03603
G1 X84.863 Y94.453 E.02154
G1 X84.183 Y93.519 E.03623
G1 X83.673 Y92.486 E.03613
G1 X83.265 Y90.922 E.05068
G1 X83.206 Y89.766 E.03628
G1 X83.342 Y88.625 E.03603
G1 X83.516 Y87.958 E.02161
G1 X83.954 Y86.893 E.03613
G1 X84.566 Y85.915 E.03618
G1 X85.642 Y84.791 E.04877
M204 P1000
G1 X85.908 Y85.051 F9000
M204 P800
G1 F900
G1 X86.806 Y84.429 E.03427
G1 X87.79 Y83.971 E.03403
G1 X88.447 Y83.769 E.02154
G1 X89.525 Y83.596 E.03422
G1 X90.613 Y83.608 E.03412
G1 X91.683 Y83.803 E.03411
G1 X92.708 Y84.177 E.03422
G1 X93.653 Y84.718 E.03412
G1 X94.771 Y85.702 E.04669
G1 X95.429 Y86.57 E.03415
G1 X95.765 Y87.171 E.02161
G1 X96.16 Y88.185 E.03412
G1 X96.378 Y89.251 E.03411
G1 X96.41 Y90.444 E.03743
G1 X96.161 Y91.809 E.04349
G1 X95.766 Y92.827 E.03427
G1 X95.205 Y93.761 E.03415
G1 X94.497 Y94.584 E.03403
G1 X93.98 Y95.04 E.02161
G1 X92.713 Y95.82 E.04666
G1 X91.687 Y96.196 E.03427
G1 X90.615 Y96.392 E.03415
G1 X89.526 Y96.404 E.03415
G1 X88.454 Y96.233 E.03403
G1 X87.42 Y95.881 E.03427
G1 X86.463 Y95.36 E.03415
G1 X85.611 Y94.687 E.03403
G1 X85.135 Y94.192 E.02154
G1 X84.496 Y93.307 E.03422
G1 X84.016 Y92.33 E.03412
G1 X83.64 Y90.89 E.04669
G1 X83.581 Y89.798 E.03427
G1 X83.707 Y88.72 E.03403
G1 X83.881 Y88.053 E.02161
G1 X84.297 Y87.048 E.03412
G1 X84.879 Y86.126 E.03418
G1 X85.867 Y85.094 E.04477
M204 P1000
; printing object A00020-PART-35-REV-P2.STL id:0 copy 0
G1 E-2.24 F4200
;WIPE_START
G1 F7200
G1 X86.806 Y84.429 E-.63827
G1 X87.254 Y84.22 E-.27373
;WIPE_END
G1 E-.048 F4200
G1 Z.4 F720
G1 X87.664 Y87.219 F9000
G1 Z.2 F720
G1 E3.2 F2400
M204 P800
;TYPE:External perimeter
;WIDTH:0.419999
G1 F900
G1 X88.167 Y86.864 E.01932
G1 X88.724 Y86.599 E.01932
G1 X89.317 Y86.432 E.01932
G1 X89.93 Y86.368 E.01932
G1 X90.544 Y86.409 E.01932
G1 X91.143 Y86.552 E.01932
G1 X91.71 Y86.795 E.01932
G1 X92.227 Y87.13 E.01932
G1 X92.68 Y87.548 E.01932
G1 X93.056 Y88.036 E.01932
G1 X93.344 Y88.581 E.01932
G1 X93.535 Y89.166 E.01932
G1 X93.626 Y89.771 E.01919
G1 X93.61 Y90.396 E.01958
G1 X93.493 Y90.996 E.01918
G1 X93.275 Y91.572 E.01932
G1 X92.962 Y92.103 E.01932
G1 X92.564 Y92.573 E.01932
G1 X92.092 Y92.969 E.01932
G1 X91.56 Y93.28 E.01932
G1 X90.983 Y93.497 E.01932
G1 X90.378 Y93.613 E.01932
G1 X89.762 Y93.625 E.01932
G1 X89.153 Y93.532 E.01932
G1 X88.568 Y93.338 E.01932
G1 X88.025 Y93.048 E.01932
G1 X87.538 Y92.671 E.01932
G1 X87.122 Y92.216 E.01932
M73 P3 R14
G1 X86.789 Y91.698 E.01932
G1 X86.548 Y91.131 E.01932
G1 X86.407 Y90.531 E.01932
G1 X86.369 Y89.916 E.01932
G1 X86.435 Y89.304 E.01932
G1 X86.604 Y88.711 E.01932
G1 X86.871 Y88.156 E.01932
G1 X87.227 Y87.654 E.01932
G1 X87.621 Y87.261 E.01744
M204 P1000
G1 X88.04 Y87.355 F9000
G1 X87.804 Y88.206
M204 P800
G1 F900
G1 X88.139 Y87.861 E.01508
G1 X88.527 Y87.577 E.01508
G1 X88.958 Y87.363 E.01508
G1 X89.418 Y87.225 E.01508
G1 X89.896 Y87.167 E.01508
G1 X90.376 Y87.19 E.01508
G1 X90.845 Y87.294 E.01508
G1 X91.291 Y87.476 E.01508
G1 X91.699 Y87.73 E.01508
G1 X92.058 Y88.05 E.01508
G1 X92.358 Y88.426 E.01508
G1 X92.59 Y88.847 E.01508
G1 X92.748 Y89.301 E.01508
G1 X92.826 Y89.771 E.01494
G1 X92.825 Y90.242 E.01475
G1 X92.74 Y90.73 E.01553
G1 X92.577 Y91.182 E.01508
G1 X92.34 Y91.601 E.01508
G1 X92.036 Y91.973 E.01508
G1 X91.673 Y92.289 E.01508
G1 X91.262 Y92.539 E.01508
G1 X90.815 Y92.716 E.01508
G1 X90.344 Y92.814 E.01508
G1 X89.864 Y92.832 E.01508
G1 X89.387 Y92.768 E.01508
G1 X88.928 Y92.625 E.01508
G1 X88.5 Y92.406 E.01508
G1 X88.115 Y92.118 E.01508
G1 X87.784 Y91.769 E.01508
G1 X87.517 Y91.369 E.01508
G1 X87.322 Y90.929 E.01508
G1 X87.203 Y90.463 E.01508
G1 X87.165 Y89.984 E.01508
G1 X87.208 Y89.505 E.01508
G1 X87.332 Y89.04 E.01508
G1 X87.533 Y88.603 E.01508
G1 X87.77 Y88.256 E.0132
M204 P1000
G1 X87.662 Y87.832 F9000
G1 X87.483 Y87.977
M204 P800
;TYPE:Perimeter
;WIDTH:0.464988
G1 F900
G1 X87.901 Y87.54 E.02125
G1 X88.347 Y87.221 E.01925
G1 X88.841 Y86.981 E.01925
G1 X89.368 Y86.829 E.01925
G1 X89.913 Y86.768 E.01925
G1 X90.46 Y86.799 E.01925
G1 X90.994 Y86.923 E.01925
G1 X91.5 Y87.135 E.01925
G1 X91.963 Y87.43 E.01925
G1 X92.369 Y87.799 E.01925
G1 X92.707 Y88.231 E.01925
G1 X92.967 Y88.714 E.01925
G1 X93.141 Y89.234 E.01925
;WIDTH:0.46794
G1 X93.225 Y89.73 E.0178
G1 X93.226 Y89.771 E.00145
;WIDTH:0.466506
G1 X93.217 Y90.328 E.01961
;WIDTH:0.464988
G1 X93.116 Y90.863 E.0191
G1 X92.926 Y91.377 E.01925
G1 X92.651 Y91.852 E.01925
G1 X92.3 Y92.273 E.01925
G1 X91.882 Y92.629 E.01925
G1 X91.411 Y92.91 E.01925
G1 X90.899 Y93.106 E.01925
G1 X90.361 Y93.213 E.01925
G1 X89.813 Y93.228 E.01925
G1 X89.27 Y93.15 E.01925
G1 X88.748 Y92.982 E.01925
G1 X88.262 Y92.727 E.01925
G1 X87.826 Y92.394 E.01925
G1 X87.453 Y91.992 E.01925
G1 X87.153 Y91.533 E.01925
G1 X86.935 Y91.03 E.01925
G1 X86.805 Y90.497 E.01925
G1 X86.767 Y89.95 E.01925
G1 X86.822 Y89.404 E.01925
G1 X86.968 Y88.876 E.01925
G1 X87.202 Y88.38 E.01925
G1 X87.448 Y88.027 E.01511
M204 P1000
; stop printing object A00020-PART-35-REV-P2.STL id:0 copy 0
M106 S84.15
;LAYER_CHANGE
;Z:0.4
;HEIGHT:0.2
;BEFORE_LAYER_CHANGE
G92 E0.0
;0.4


G1 E-2.24 F4200
;WIPE_START
G1 F7200
G1 X87.901 Y87.54 E-.36849
G1 X88.347 Y87.221 E-.30394
G1 X88.736 Y87.032 E-.23956
;WIPE_END
G1 E-.048 F4200
G1 Z.4 F720
;AFTER_LAYER_CHANGE
;0.4
; printing object A00020-PART-35-REV-P2.STL id:0 copy 0
G1 X88.801 Y86.794 F9000
G1 E3.2 F2400
M204 P800
;WIDTH:0.423992
G1 F900
G1 X89.36 Y86.638 E.01839
G1 X89.938 Y86.578 E.01839
G1 X90.516 Y86.617 E.01838
G1 X91.081 Y86.753 E.0184
G1 X91.615 Y86.982 E.01839
G1 X92.101 Y87.298 E.01839
G1 X92.528 Y87.692 E.01839
G1 X92.881 Y88.153 E.01839
G1 X93.152 Y88.666 E.01839
G1 X93.332 Y89.218 E.01839
;WIDTH:0.425395
G1 X93.416 Y89.726 E.01637
G1 X93.416 Y89.793 E.00212
;WIDTH:0.423992
G1 X93.402 Y90.373 E.01839
G1 X93.29 Y90.942 E.01839
G1 X93.084 Y91.485 E.01839
G1 X92.788 Y91.985 E.01839
G1 X92.413 Y92.427 E.01839
G1 X91.968 Y92.8 E.01838
G1 X91.466 Y93.093 E.0184
G1 X90.923 Y93.296 E.01839
G1 X90.352 Y93.404 E.01839
G1 X89.772 Y93.415 E.01839
G1 X89.198 Y93.327 E.01839
G1 X88.647 Y93.144 E.01839
G1 X88.135 Y92.87 E.01839
G1 X87.678 Y92.513 E.01838
G1 X87.286 Y92.085 E.0184
G1 X86.972 Y91.596 E.01839
G1 X86.746 Y91.062 E.01839
G1 X86.614 Y90.496 E.01839
G1 X86.578 Y89.917 E.01839
G1 X86.642 Y89.34 E.01839
G1 X86.801 Y88.782 E.01839
G1 X87.054 Y88.26 E.01838
G1 X87.39 Y87.786 E.0184
G1 X87.802 Y87.377 E.01839
G1 X88.277 Y87.043 E.01839
G1 X88.747 Y86.82 E.01649
M204 P1000
G1 X88.686 Y86.417 F9000
M204 P800
;TYPE:External perimeter
;WIDTH:0.449999
G1 F900
G1 X89.31 Y86.247 E.02191
G1 X89.954 Y86.184 E.02191
G1 X90.599 Y86.232 E.02187
G1 X91.228 Y86.387 E.02194
G1 X91.821 Y86.647 E.02191
G1 X92.362 Y87.003 E.02191
G1 X92.834 Y87.445 E.02191
G1 X93.225 Y87.961 E.02191
G1 X93.524 Y88.535 E.02191
G1 X93.721 Y89.152 E.02191
G1 X93.81 Y89.793 E.02191
G1 X93.791 Y90.439 E.02191
G1 X93.662 Y91.074 E.02191
G1 X93.428 Y91.677 E.02191
G1 X93.095 Y92.232 E.02191
G1 X92.673 Y92.723 E.02191
G1 X92.175 Y93.135 E.02187
G1 X91.613 Y93.458 E.02194
G1 X91.006 Y93.681 E.02191
G1 X90.369 Y93.798 E.02191
G1 X89.722 Y93.806 E.02191
G1 X89.083 Y93.704 E.02191
G1 X88.47 Y93.496 E.02191
G1 X87.901 Y93.187 E.02191
G1 X87.394 Y92.786 E.02187
G1 X86.959 Y92.306 E.02194
G1 X86.613 Y91.759 E.02191
G1 X86.365 Y91.161 E.02191
G1 X86.221 Y90.53 E.02191
G1 X86.186 Y89.884 E.02191
G1 X86.26 Y89.241 E.02191
G1 X86.442 Y88.62 E.02191
G1 X86.727 Y88.04 E.02187
G1 X87.105 Y87.513 E.02194
G1 X87.567 Y87.06 E.02191
G1 X88.099 Y86.691 E.02191
G1 X88.631 Y86.443 E.01988
M204 P1000
G1 X88.993 Y86.674 F9000
G1 E-3.2 F4200
G1 Z.6 F720
G1 X90.432 Y86.99 F9000
G1 Z.4 F720
G1 E3.2 F2400
M204 P800
;TYPE:Perimeter
;WIDTH:0.425376
G1 F900
G1 X90.892 Y87.089 E.01495
G1 X91.371 Y87.281 E.01641
G1 X91.811 Y87.552 E.01642
G1 X92.198 Y87.893 E.01642
G1 X92.523 Y88.295 E.01642
G1 X92.775 Y88.746 E.01642
G1 X92.947 Y89.233 E.01642
G1 X93.034 Y89.742 E.01643
G1 X93.034 Y90.258 E.0164
G1 X92.947 Y90.767 E.01643
G1 X92.775 Y91.254 E.01642
G1 X92.523 Y91.705 E.01642
G1 X92.198 Y92.107 E.01642
G1 X91.814 Y92.445 E.01627
G1 X91.37 Y92.719 E.01659
G1 X90.892 Y92.911 E.01641
G1 X90.387 Y93.02 E.01642
G1 X89.871 Y93.042 E.01642
G1 X89.359 Y92.977 E.01642
G1 X88.865 Y92.825 E.01642
G1 X88.404 Y92.593 E.01642
G1 X87.992 Y92.289 E.01627
G1 X87.631 Y91.912 E.01659
G1 X87.342 Y91.485 E.01641
G1 X87.129 Y91.014 E.01642
G1 X86.999 Y90.515 E.01642
G1 X86.955 Y90 E.01642
G1 X86.999 Y89.485 E.01642
G1 X87.129 Y88.986 E.01642
G1 X87.34 Y88.519 E.01627
G1 X87.631 Y88.087 E.01659
G1 X87.988 Y87.714 E.01641
G1 X88.404 Y87.407 E.01642
G1 X88.865 Y87.175 E.01642
G1 X89.359 Y87.023 E.01642
G1 X89.871 Y86.958 E.01642
G1 X90.373 Y86.979 E.016
M204 P1000
G1 X90.354 Y87.374 F9000
M204 P800
;TYPE:External perimeter
;WIDTH:0.449999
G1 F900
G1 X90.792 Y87.472 E.01521
G1 X91.208 Y87.642 E.01521
G1 X91.576 Y87.869 E.01463
G1 X91.925 Y88.179 E.01579
G1 X92.205 Y88.531 E.01521
G1 X92.421 Y88.924 E.01521
G1 X92.568 Y89.349 E.01521
G1 X92.641 Y89.793 E.01521
G1 X92.638 Y90.242 E.01521
G1 X92.56 Y90.684 E.01521
G1 X92.407 Y91.107 E.01521
G1 X92.185 Y91.498 E.01521
G1 X91.901 Y91.846 E.01521
G1 X91.562 Y92.14 E.01521
G1 X91.177 Y92.373 E.01521
G1 X90.759 Y92.538 E.01521
G1 X90.319 Y92.63 E.01521
G1 X89.87 Y92.646 E.01521
G1 X89.425 Y92.586 E.01521
G1 X88.996 Y92.452 E.01521
G1 X88.596 Y92.247 E.01521
G1 X88.237 Y91.977 E.01521
G1 X87.928 Y91.651 E.01521
G1 X87.679 Y91.277 E.01521
G1 X87.496 Y90.866 E.01521
G1 X87.386 Y90.431 E.01521
G1 X87.351 Y89.983 E.01521
G1 X87.392 Y89.535 E.01521
G1 X87.508 Y89.101 E.01521
G1 X87.696 Y88.693 E.01521
M73 P4 R14
G1 X87.95 Y88.322 E.01521
G1 X88.263 Y88 E.01521
G1 X88.626 Y87.735 E.01521
G1 X89.028 Y87.535 E.01521
G1 X89.459 Y87.406 E.01521
G1 X89.905 Y87.352 E.01521
G1 X90.294 Y87.371 E.01318
M204 P1000
G1 X90.598 Y87.058 F9000
; stop printing object A00020-PART-35-REV-P2.STL id:0 copy 0
M106 S170.85
;LAYER_CHANGE
;Z:0.6
;HEIGHT:0.2
;BEFORE_LAYER_CHANGE
G92 E0.0
;0.6


G1 E-2.24 F4200
;WIPE_START
G1 F7200
G1 X90.792 Y87.472 E-.28186
G1 X91.208 Y87.642 E-.24902
G1 X91.576 Y87.869 E-.23953
G1 X91.767 Y88.039 E-.14159
;WIPE_END
G1 E-.048 F4200
G1 Z.6 F720
;AFTER_LAYER_CHANGE
;0.6
; printing object A00020-PART-35-REV-P2.STL id:0 copy 0
G1 X92.101 Y87.298 F9000
G1 E3.2 F2400
M204 P800
;TYPE:Perimeter
;WIDTH:0.423952
G1 F900
G1 X92.528 Y87.692 E.01839
G1 X92.881 Y88.153 E.01839
;WIDTH:0.424555
G1 X93.149 Y88.658 E.01813
G1 X93.332 Y89.218 E.01871
;WIDTH:0.425395
G1 X93.416 Y89.726 E.01637
G1 X93.416 Y89.793 E.00212
;WIDTH:0.423992
G1 X93.402 Y90.373 E.01839
G1 X93.29 Y90.942 E.01839
G1 X93.084 Y91.485 E.01839
G1 X92.788 Y91.985 E.01839
;WIDTH:0.424555
G1 X92.42 Y92.421 E.01813
G1 X91.968 Y92.8 E.01871
;WIDTH:0.423952
G1 X91.466 Y93.093 E.01839
G1 X90.923 Y93.295 E.01837
G1 X90.352 Y93.404 E.01841
G1 X89.772 Y93.415 E.01839
G1 X89.198 Y93.327 E.01839
G1 X88.647 Y93.144 E.01839
G1 X88.135 Y92.87 E.01839
G1 X87.677 Y92.514 E.01839
G1 X87.287 Y92.085 E.01837
G1 X86.972 Y91.596 E.01841
G1 X86.746 Y91.062 E.01839
G1 X86.614 Y90.496 E.01839
G1 X86.578 Y89.917 E.01839
G1 X86.642 Y89.34 E.01839
;WIDTH:0.424557
G1 X86.798 Y88.79 E.01813
G1 X87.054 Y88.26 E.01869
;WIDTH:0.423955
G1 X87.39 Y87.786 E.01841
G1 X87.802 Y87.377 E.01839
G1 X88.277 Y87.043 E.01839
G1 X88.801 Y86.794 E.01839
G1 X89.36 Y86.638 E.01839
;WIDTH:0.424558
G1 X89.928 Y86.578 E.01813
G1 X90.516 Y86.618 E.01869
;WIDTH:0.423952
G1 X91.081 Y86.753 E.01841
G1 X91.615 Y86.982 E.01839
G1 X92.051 Y87.266 E.01649
M204 P1000
G1 X92.362 Y87.003 F9000
M204 P800
;TYPE:External perimeter
;WIDTH:0.449999
G1 F900
G1 X92.834 Y87.445 E.02191
G1 X93.225 Y87.961 E.02191
G1 X93.521 Y88.526 E.0216
G1 X93.721 Y89.152 E.02222
G1 X93.81 Y89.726 E.01968
G1 X93.791 Y90.439 E.02416
G1 X93.662 Y91.074 E.02191
G1 X93.428 Y91.677 E.02191
G1 X93.095 Y92.232 E.02191
G1 X92.68 Y92.717 E.0216
G1 X92.175 Y93.136 E.02222
G1 X91.613 Y93.458 E.02191
G1 X91.007 Y93.679 E.02184
G1 X90.369 Y93.798 E.02196
G1 X89.722 Y93.806 E.02191
G1 X89.083 Y93.704 E.02191
G1 X88.47 Y93.496 E.02191
G1 X87.901 Y93.187 E.02191
G1 X87.393 Y92.786 E.02191
G1 X86.961 Y92.306 E.02185
G1 X86.613 Y91.759 E.02196
G1 X86.365 Y91.161 E.02191
G1 X86.221 Y90.53 E.02191
G1 X86.186 Y89.884 E.02191
G1 X86.26 Y89.241 E.02191
G1 X86.439 Y88.628 E.0216
G1 X86.727 Y88.04 E.02216
G1 X87.105 Y87.513 E.02196
G1 X87.567 Y87.06 E.02191
G1 X88.099 Y86.691 E.02191
G1 X88.686 Y86.417 E.02191
G1 X89.31 Y86.247 E.02191
G1 X89.945 Y86.184 E.0216
G1 X90.598 Y86.233 E.02216
G1 X91.228 Y86.387 E.02196
G1 X91.821 Y86.647 E.02191
G1 X92.312 Y86.97 E.01988
M204 P1000
G1 X92.304 Y87.398 F9000
G1 X90.935 Y87.106
M204 P800
;TYPE:Perimeter
