; generated by PrusaSlicer 2.5.2+win64 on 2023-04-13 at 14:42:15 UTC


;
;

;
;
; 

; external perimeters extrusion width = 0.45mm
; perimeters extrusion width = 0.45mm
; infill extrusion width = 0.45mm
; solid infill extrusion width = 0.45mm
; top infill extrusion width = 0.40mm
; first layer extrusion width = 0.42mm

M73 P0 R10
M201 X2500 Y2500 Z400 E5000 ; sets maximum accelerations, mm/sec^2
M203 X180 Y180 Z12 E80 ; sets maximum feedrates, mm / sec
M204 P1250 R1250 T2500 ; sets acceleration (P, T) and retract acceleration (R), mm/sec^2
M205 X8.00 Y8.00 Z2.00 E10.00 ; sets the jerk limits, mm/sec
M205 S0 T0 ; sets the minimum extruding and travel feed rate, mm/sec
M107
;TYPE:Custom
M862.3 P "MINI" ; printer model check
G90 ; use absolute coordinates
M83 ; extruder relative mode
M104 S170 ; set extruder temp for bed leveling
M140 S60 ; set bed temp
M109 R170 ; wait for bed leveling temp
M190 S60 ; wait for bed temp
M204 T1250 ; set travel acceleration
G28 ; home all without mesh bed level
G29 ; mesh bed leveling 
M204 T2500 ; restore travel acceleration
M104 S215 ; set extruder temp
G92 E0
G1 Y-2 X179 F2400
G1 Z3 F720
M109 S215 ; wait for extruder temp

; intro line
G1 X170 F1000
G1 Z0.2 F720
G1 X110 E8 F900
G1 X40 E10 F700
G92 E0

M221 S95 ; set flow
G21 ; set units to millimeters
G90 ; use absolute coordinates
M83 ; use relative distances for extrusion
M900 K0.2 ; Filament gcode LA 1.5
; ; Filament gcode LA 1.0
M107
;LAYER_CHANGE
;Z:0.2
;HEIGHT:0.2
;BEFORE_LAYER_CHANGE
G92 E0.0
;0.2


M73 P1 R10
G1 E-3.2 F4200
M73 P2 R10
G1 Z.2 F720
;AFTER_LAYER_CHANGE
;0.2
G1 Z.4
G1 X83.629 Y75.979 F9000
G1 Z.2 F720
G1 E3.2 F2400
M204 P800
;TYPE:Skirt/Brim
;WIDTH:0.42
G1 F1200
G1 X85.5 Y75.246 E.06303
G1 X94.5 Y75.246 E.28219
G1 X95.917 Y75.639 E.04612
G1 X97.145 Y77.231 E.06303
G1 X103.545 Y99.231 E.71839
G1 X103.654 Y100 E.02437
G1 X103.654 Y102 E.06271
G1 X103.261 Y103.417 E.04612
G1 X102.195 Y104.431 E.04612
G1 X100.9 Y104.754 E.04186
G1 X79.1 Y104.754 E.68352
G1 X77.683 Y104.361 E.04612
M73 P3 R10
G1 X76.669 Y103.295 E.04612
G1 X76.346 Y102 E.04186
G1 X76.346 Y100 E.06271
G1 X76.455 Y99.231 E.02437
G1 X82.855 Y77.231 E.71839
G1 X83.597 Y76.03 E.04424
M204 P1000
G1 X83.925 Y76.243 F9000
M204 P800
G1 F1200
G1 X83.959 Y76.19 E.00195
G1 X85.5 Y75.623 E.0515
G1 X94.5 Y75.623 E.28219
G1 X95.807 Y76.015 E.04278
G1 X96.782 Y77.336 E.0515
G1 X103.182 Y99.336 E.71839
G1 X103.277 Y100 E.02103
G1 X103.277 Y102 E.06271
G1 X102.885 Y103.307 E.04278
G1 X101.84 Y104.183 E.04278
G1 X100.9 Y104.377 E.03008
G1 X79.1 Y104.377 E.68352
G1 X77.793 Y103.985 E.04278
G1 X76.917 Y102.94 E.04278
G1 X76.723 Y102 E.03008
G1 X76.723 Y100 E.06271
G1 X76.818 Y99.336 E.02103
G1 X83.218 Y77.336 E.71839
G1 X83.892 Y76.293 E.03895
M204 P1000
; printing object A00020-PART-31-REV-P1.STL id:0 copy 0
M73 P4 R10
G1 E-2.24 F4200
;WIPE_START
G1 F7200
G1 X83.959 Y76.19 E-.06768
G1 X85.388 Y75.664 E-.84432
;WIPE_END
G1 E-.048 F4200
G1 Z.4 F720
G1 X86.287 Y78.787 F9000
G1 Z.2 F720
G1 E3.2 F2400
M204 P800
;TYPE:Perimeter
;WIDTH:0.419999
G1 F1200
G1 X93.713 Y78.787 E.23283
G1 X93.713 Y100.221 E.67206
G1 X93.826 Y100.561 E.01122
;WIDTH:0.444381
G1 X94.279 Y100.799 E.01707
G1 X100.101 Y100.799 E.19435
G1 X100.101 Y101 E.0067
G1 X100.101 Y101.201 E.0067
G1 X93.5 Y101.213 E.22034
;WIDTH:0.419999
G1 X86.5 Y101.213 E.21948
;WIDTH:0.444381
G1 X79.899 Y101.201 E.22034
G1 X79.899 Y100.799 E.0134
G1 X85.721 Y100.799 E.19435
;WIDTH:0.45028
G1 X85.822 Y100.793 E.0034
G1 X86.174 Y100.561 E.0143
;WIDTH:0.419999
G1 X86.287 Y100.221 E.01122
G1 X86.287 Y78.847 E.67018
M204 P1000
G1 X85.91 Y78.41 F9000
M204 P800
;TYPE:External perimeter
G1 F1200
G1 X94.09 Y78.41 E.25648
G1 X94.09 Y100.221 E.68388
G1 X94.128 Y100.335 E.00374
G1 X94.279 Y100.41 E.00529
G1 X100.49 Y100.41 E.19476
G1 X100.49 Y101.59 E.037
M73 P5 R10
G1 X79.51 Y101.59 E.65781
G1 X79.51 Y100.41 E.037
G1 X85.721 Y100.41 E.19476
G1 X85.872 Y100.335 E.00529
G1 X85.91 Y100.221 E.00374
G1 X85.91 Y78.47 E.682
M204 P1000
G1 X86.256 Y78.61 F9000
G1 E-3.2 F4200
G1 Z.4 F720
G1 X89.863 Y84.782 F9000
G1 Z.2 F720
G1 E3.2 F2400
M204 P800
;TYPE:Perimeter
G1 F1200
G1 X89.938 Y84.767 E.00242
G1 X90.314 Y84.796 E.01183
G1 X90.837 Y84.98 E.01738
G1 X91.315 Y85.372 E.01937
G1 X91.616 Y85.875 E.01836
G1 X91.734 Y86.4 E.0169
G1 X91.658 Y86.996 E.01882
G1 X91.38 Y87.548 E.01938
G1 X90.952 Y87.948 E.01836
G1 X90.415 Y88.182 E.01836
G1 X89.831 Y88.224 E.01836
G1 X89.266 Y88.069 E.01836
G1 X88.786 Y87.735 E.01835
G1 X88.443 Y87.26 E.01837
G1 X88.279 Y86.698 E.01836
G1 X88.311 Y86.114 E.01836
G1 X88.536 Y85.573 E.01835
G1 X88.859 Y85.189 E.01573
G1 X89.344 Y84.891 E.01787
G1 X89.804 Y84.795 E.01472
M204 P1000
G1 X89.93 Y85.144 F9000
M204 P800
;TYPE:External perimeter
G1 F1200
G1 X90.204 Y85.157 E.00861
G1 X90.64 Y85.302 E.0144
G1 X91.003 Y85.583 E.0144
G1 X91.251 Y85.97 E.0144
G1 X91.356 Y86.415 E.01436
G1 X91.312 Y86.846 E.01356
G1 X91.107 Y87.287 E.01525
G1 X90.782 Y87.611 E.0144
G1 X90.367 Y87.808 E.0144
G1 X89.911 Y87.856 E.0144
G1 X89.464 Y87.748 E.0144
G1 X89.079 Y87.499 E.01439
G1 X88.799 Y87.135 E.0144
G1 X88.656 Y86.698 E.0144
G1 X88.667 Y86.239 E.0144
G1 X88.83 Y85.81 E.01439
G1 X89.127 Y85.459 E.0144
G1 X89.53 Y85.226 E.01461
G1 X89.871 Y85.156 E.0109
M204 P1000
G1 X90.044 Y84.894 F9000
G1 E-3.2 F4200
G1 Z.4 F720
G1 X90.441 Y83.156 F9000
G1 Z.2 F720
G1 E3.2 F2400
M204 P800
;TYPE:Perimeter
G1 F1200
G1 X90.081 Y83.225 E.01148
G1 X89.798 Y83.217 E.00887
G1 X89.266 Y83.069 E.01731
G1 X88.785 Y82.735 E.01836
G1 X88.443 Y82.26 E.01836
G1 X88.279 Y81.698 E.01836
G1 X88.311 Y81.114 E.01836
G1 X88.498 Y80.626 E.01637
G1 X88.785 Y80.265 E.01447
G1 X89.266 Y79.931 E.01836
G1 X89.803 Y79.78 E.01747
G1 X90.162 Y79.772 E.01126
G1 X90.693 Y79.912 E.01724
G1 X91.183 Y80.234 E.01836
G1 X91.512 Y80.664 E.017
G1 X91.616 Y80.875 E.00734
G1 X91.734 Y81.401 E.0169
G1 X91.692 Y81.893 E.0155
G1 X91.487 Y82.389 E.01684
G1 X91.105 Y82.834 E.01836
G1 X90.598 Y83.126 E.01836
G1 X90.5 Y83.145 E.00314
M204 P1000
G1 E-2.24 F4200
;WIPE_START
G1 F7200
G1 X90.081 Y83.225 E-.23608
G1 X89.798 Y83.217 E-.1568
G1 X89.266 Y83.069 E-.30594
G1 X88.95 Y82.85 E-.21318
;WIPE_END
G1 E-.048 F4200
G1 Z.4 F720
G1 X89.068 Y82.691 F9000
G1 X88.997 Y82.639
G1 X88.819 Y82.454
G1 X88.675 Y82.24
G1 X88.569 Y82.006
G1 X88.504 Y81.756
G1 X88.482 Y81.5
G1 X88.504 Y81.243
G1 X88.569 Y80.994
G1 X88.675 Y80.76
G1 X88.819 Y80.547
G1 X88.997 Y80.361
G1 X89.204 Y80.208
G1 X89.434 Y80.092
G1 X89.68 Y80.016
G1 X89.936 Y79.984
G1 X90.193 Y79.995
G1 X90.237 Y80.004
G1 X90.204 Y80.157
G1 Z.2 F720
G1 E3.2 F2400
M204 P800
;TYPE:External perimeter
G1 F1200
G1 X90.64 Y80.302 E.0144
G1 X91.003 Y80.583 E.0144
G1 X91.251 Y80.97 E.0144
G1 X91.357 Y81.401 E.01391
G1 X91.306 Y81.873 E.0149
G1 X91.107 Y82.287 E.0144
G1 X90.782 Y82.611 E.0144
G1 X90.367 Y82.808 E.0144
G1 X89.878 Y82.848 E.0154
G1 X89.464 Y82.748 E.01335
G1 X89.079 Y82.498 E.0144
G1 X88.799 Y82.135 E.0144
G1 X88.656 Y81.698 E.0144
G1 X88.667 Y81.239 E.0144
G1 X88.83 Y80.81 E.01439
G1 X89.127 Y80.459 E.0144
G1 X89.522 Y80.228 E.01436
G1 X89.93 Y80.144 E.01305
G1 X90.144 Y80.154 E.00673
M204 P1000
G1 X90.462 Y79.852 F9000
G1 E-3.2 F4200
G1 Z.4 F720
G1 X92.825 Y78.9 F9000
G1 Z.2 F720
G1 E3.2 F2400
M204 P800
;TYPE:Solid infill
;WIDTH:0.425966
G1 F1200
G1 X93.43 Y79.505 E.02726
G1 X93.43 Y80.047 E.01725
G1 X92.453 Y79.07 E.04402
G1 X91.911 Y79.07 E.01725
G1 X93.43 Y80.589 E.06842
G1 X93.43 Y81.131 E.01725
G1 X91.369 Y79.07 E.09282
G1 X90.828 Y79.07 E.01725
M73 P6 R10
G1 X93.43 Y81.672 E.11722
G1 X93.43 Y82.214 E.01725
G1 X90.286 Y79.07 E.14162
G1 X89.744 Y79.07 E.01725
G1 X90.163 Y79.489 E.01888
G1 X89.784 Y79.495 E.01209
G1 X89.656 Y79.523 E.00417
G1 X89.203 Y79.07 E.02042
G1 X88.661 Y79.07 E.01725
G1 X89.233 Y79.642 E.02576
G1 X89.125 Y79.686 E.00371
G1 X88.884 Y79.834 E.00902
G1 X88.119 Y79.07 E.03443
G1 X87.577 Y79.07 E.01725
G1 X88.58 Y80.072 E.04516
G1 X88.339 Y80.373 E.01227
G1 X87.036 Y79.07 E.05871
G1 X86.57 Y79.07 E.01484
G1 X86.57 Y79.146 E.00241
G1 X88.149 Y80.725 E.07112
G1 X88.042 Y81.027 E.01021
G1 X88.023 Y81.14 E.00366
G1 X86.57 Y79.687 E.06543
G1 X86.57 Y80.229 E.01725
G1 X88.193 Y81.853 E.07313
M204 P1000
G1 E-2.24 F4200
;WIPE_START
G1 F7200
G1 X87.03 Y80.689 E-.912
;WIPE_END
G1 E-.048 F4200
G1 Z.4 F720
G1 X89.68 Y80.016 F9000
G1 X89.936 Y79.984
G1 X90.193 Y79.995
G1 X90.444 Y80.049
G1 X90.683 Y80.145
G1 X90.902 Y80.28
G1 X91.096 Y80.45
G1 X91.257 Y80.65
G1 X91.383 Y80.875
G1 X91.469 Y81.118
G1 X91.479 Y81.177
G1 X91.797 Y81.123
G1 Z.2 F720
G1 E3.2 F2400
M204 P800
G1 F1200
G1 X93.43 Y82.756 E.07356
G1 X93.43 Y83.297 E.01725
G1 X91.979 Y81.846 E.06538
G1 X91.97 Y81.944 E.00313
G1 X91.854 Y82.263 E.01082
G1 X93.43 Y83.839 E.07099
G1 X93.43 Y84.381 E.01725
G1 X91.669 Y82.62 E.07933
G1 X91.589 Y82.738 E.00454
G1 X91.421 Y82.913 E.00775
G1 X93.43 Y84.923 E.0905
G1 X93.43 Y85.464 E.01725
G1 X91.134 Y83.168 E.10341
G1 X90.776 Y83.352 E.01282
G1 X93.43 Y86.006 E.11954
G1 X93.43 Y86.548 E.01725
G1 X90.356 Y83.473 E.13849
G1 X89.954 Y83.52 E.01287
G1 X89.85 Y83.509 E.00333
G1 X93.43 Y87.089 E.16126
G1 X93.43 Y87.631 E.01725
G1 X91.99 Y86.191 E.06486
G1 X92.017 Y86.398 E.00665
G1 X91.99 Y86.732 E.01068
G1 X93.43 Y88.173 E.06488
G1 X93.43 Y88.714 E.01725
G1 X91.889 Y87.173 E.06943
G1 X91.718 Y87.544 E.01301
G1 X93.43 Y89.256 E.07712
G1 X93.43 Y89.798 E.01725
G1 X91.482 Y87.85 E.08775
G1 X91.304 Y88.035 E.00819
G1 X91.202 Y88.111 E.00406
G1 X93.43 Y90.34 E.10038
G1 X93.43 Y90.881 E.01725
G1 X90.86 Y88.311 E.11579
G1 X90.718 Y88.382 E.00505
G1 X90.466 Y88.459 E.00839
G1 X93.43 Y91.423 E.1335
G1 X93.43 Y91.965 E.01725
G1 X89.798 Y88.333 E.1636
M204 P1000
G1 E-2.24 F4200
;WIPE_START
G1 F7200
G1 X90.962 Y89.496 E-.912
;WIPE_END
G1 E-.048 F4200
G1 Z.4 F720
G1 X91.469 Y86.883 F9000
G1 X91.512 Y86.629
G1 X91.512 Y86.371
G1 X91.469 Y86.118
G1 X91.383 Y85.875
G1 X91.257 Y85.65
G1 X91.096 Y85.45
G1 X90.903 Y85.28
G1 X90.683 Y85.145
G1 X90.631 Y85.124
G1 X90.444 Y85.049
G1 X90.549 Y84.75
G1 Z.2 F720
G1 E3.2 F2400
M204 P800
G1 F1200
G1 X86.57 Y80.771 E.17924
G1 X86.57 Y81.313 E.01725
G1 X89.758 Y84.5 E.14359
G1 X89.323 Y84.607 E.01427
G1 X86.57 Y81.854 E.124
G1 X86.57 Y82.396 E.01725
M73 P7 R10
G1 X88.963 Y84.789 E.10781
G1 X88.774 Y84.901 E.00699
G1 X88.646 Y85.014 E.00544
G1 X86.57 Y82.938 E.09353
G1 X86.57 Y83.479 E.01725
G1 X88.392 Y85.302 E.08208
G1 X88.311 Y85.402 E.0041
G1 X88.182 Y85.633 E.00844
G1 X86.57 Y84.021 E.07262
G1 X86.57 Y84.563 E.01725
G1 X88.041 Y86.034 E.06625
G1 X87.996 Y86.294 E.00841
G1 X87.996 Y86.531 E.00755
G1 X86.57 Y85.104 E.06425
G1 X86.57 Y85.646 E.01725
G1 X88.121 Y87.198 E.06988
G1 X88.179 Y87.362 E.00555
G1 X88.311 Y87.598 E.00863
G1 X88.571 Y87.919 E.01314
G1 X88.774 Y88.098 E.00863
G1 X89.125 Y88.314 E.01312
G1 X89.314 Y88.39 E.00649
G1 X93.43 Y92.506 E.1854
G1 X93.43 Y93.048 E.01725
G1 X86.57 Y86.188 E.30901
G1 X86.57 Y86.73 E.01725
G1 X93.43 Y93.59 E.30901
G1 X93.43 Y94.132 E.01725
G1 X86.57 Y87.271 E.30901
G1 X86.57 Y87.813 E.01725
G1 X93.43 Y94.673 E.30901
G1 X93.43 Y95.215 E.01725
G1 X86.57 Y88.355 E.30901
G1 X86.57 Y88.896 E.01725
G1 X93.43 Y95.757 E.30901
G1 X93.43 Y96.298 E.01725
G1 X86.57 Y89.438 E.30901
G1 X86.57 Y89.98 E.01725
G1 X93.43 Y96.84 E.30901
G1 X93.43 Y97.382 E.01725
M73 P7 R9
G1 X86.57 Y90.522 E.30901
G1 X86.57 Y91.063 E.01725
G1 X93.43 Y97.924 E.30901
G1 X93.43 Y98.465 E.01725
M73 P8 R9
G1 X86.57 Y91.605 E.30901
G1 X86.57 Y92.147 E.01725
G1 X93.43 Y99.007 E.30901
G1 X93.43 Y99.549 E.01725
G1 X86.57 Y92.688 E.30901
G1 X86.57 Y93.23 E.01725
G1 X93.43 Y100.09 E.30901
G1 X93.43 Y100.237 E.00466
G1 X93.598 Y100.739 E.01687
G1 X93.877 Y100.89 E.01013
G1 X93.871 Y100.918 E.00092
G1 X93.721 Y100.923 E.00476
G1 X86.57 Y93.772 E.32212
G1 X86.57 Y94.314 E.01725
G1 X93.186 Y100.93 E.29803
G1 X92.645 Y100.93 E.01725
G1 X86.57 Y94.855 E.27363
G1 X86.57 Y95.397 E.01725
G1 X92.103 Y100.93 E.24923
G1 X91.561 Y100.93 E.01725
G1 X86.57 Y95.939 E.22483
G1 X86.57 Y96.48 E.01725
G1 X91.02 Y100.93 E.20043
G1 X90.478 Y100.93 E.01725
G1 X86.57 Y97.022 E.17603
G1 X86.57 Y97.564 E.01725
G1 X89.936 Y100.93 E.15163
G1 X89.394 Y100.93 E.01725
G1 X86.57 Y98.106 E.12723
G1 X86.57 Y98.647 E.01725
G1 X88.853 Y100.93 E.10283
G1 X88.311 Y100.93 E.01725
G1 X86.57 Y99.189 E.07843
G1 X86.57 Y99.731 E.01725
G1 X87.769 Y100.93 E.05403
G1 X87.228 Y100.93 E.01725
M73 P9 R9
G1 X86.561 Y100.263 E.03003
G1 X86.426 Y100.67 E.01364
G1 X86.856 Y101.1 E.01937
M204 P1000
; stop printing object A00020-PART-31-REV-P1.STL id:0 copy 0
M106 S84.15
;LAYER_CHANGE
;Z:0.4
;HEIGHT:0.2
;BEFORE_LAYER_CHANGE
G92 E0.0
;0.4


G1 E-2.24 F4200
;WIPE_START
G1 F7200
G1 X86.426 Y100.67 E-.33706
G1 X86.561 Y100.263 E-.23733
G1 X86.992 Y100.694 E-.33761
;WIPE_END
G1 E-.048 F4200
G1 Z.4 F720
;AFTER_LAYER_CHANGE
;0.4
; printing object A00020-PART-31-REV-P1.STL id:0 copy 0
G1 X86.098 Y100.125 F9000
G1 E3.2 F2400
M204 P800
;TYPE:Perimeter
;WIDTH:0.449999
G1 X86.132 Y100.021 E.0037
G1 X86.132 Y78.632 E.724
G1 X93.868 Y78.632 E.26185
G1 X93.868 Y100.021 E.724
G1 X93.99 Y100.388 E.01307
;WIDTH:0.491095
G1 X94.112 Y100.469 E.00547
;WIDTH:0.53219
G1 X94.234 Y100.551 E.00598
;WIDTH:0.573286
G1 X94.356 Y100.633 E.00648
;WIDTH:0.614381
G1 X94.479 Y100.714 E.00698
G1 X100.186 Y100.714 E.27119
G1 X100.186 Y101 E.01358
G1 X100.186 Y101.286 E.01358
G1 X94.479 Y101.286 E.27119
G1 X94.234 Y101.306 E.01167
;WIDTH:0.573286
G1 X93.989 Y101.327 E.01083
;WIDTH:0.53219
G1 X93.745 Y101.347 E.00999
;WIDTH:0.491095
G1 X93.5 Y101.368 E.00915
;WIDTH:0.449999
G1 X86.5 Y101.368 E.23694
;WIDTH:0.491095
G1 X86.255 Y101.347 E.00915
;WIDTH:0.53219
G1 X86.011 Y101.327 E.00999
;WIDTH:0.573286
G1 X85.766 Y101.306 E.01083
;WIDTH:0.614381
G1 X85.521 Y101.286 E.01167
G1 X79.814 Y101.286 E.27119
G1 X79.814 Y100.714 E.02715
G1 X85.521 Y100.714 E.27119
;WIDTH:0.621795
G1 X85.642 Y100.708 E.0058
G1 X85.734 Y100.628 E.00587
;WIDTH:0.578846
G1 X85.826 Y100.548 E.00543
;WIDTH:0.535897
G1 X85.918 Y100.468 E.005
;WIDTH:0.492948
G1 X86.01 Y100.388 E.00456
;WIDTH:0.449999
G1 X86.079 Y100.182 E.00734
M204 P1000
G1 X85.725 Y100.021 F9000
M204 P800
;TYPE:External perimeter
G1 F1800
G1 X85.725 Y78.225 E.73778
G1 X94.275 Y78.225 E.28941
G1 X94.275 Y100.021 E.73778
G1 X94.316 Y100.144 E.00436
G1 X94.479 Y100.225 E.00616
G1 X100.675 Y100.225 E.20974
G1 X100.675 Y101.775 E.05247
G1 X79.325 Y101.775 E.72267
G1 X79.325 Y100.225 E.05247
G1 X85.521 Y100.225 E.20974
G1 X85.684 Y100.144 E.00616
G1 X85.706 Y100.078 E.00233
M204 P1000
G1 X86.111 Y99.918 F9000
G1 E-3.2 F4200
G1 Z.6 F720
G1 X90.871 Y87.791 F9000
G1 Z.4 F720
G1 E3.2 F2400
M204 P800
;TYPE:Perimeter
G1 F1500
M73 P10 R9
G1 X90.559 Y87.974 E.01224
G1 X90.036 Y88.076 E.01804
G1 X89.509 Y87.998 E.01804
G1 X89.038 Y87.749 E.01804
G1 X88.677 Y87.357 E.01804
G1 X88.467 Y86.868 E.01804
G1 X88.432 Y86.336 E.01804
G1 X88.576 Y85.823 E.01803
G1 X88.883 Y85.387 E.01805
G1 X89.038 Y85.251 E.00699
G1 X89.505 Y85.002 E.0179
G1 X89.947 Y84.922 E.01521
G1 X90.302 Y84.952 E.01206
G1 X90.757 Y85.112 E.01633
G1 X91.081 Y85.349 E.01358
G1 X91.391 Y85.758 E.01737
G1 X91.559 Y86.263 E.01803
G1 X91.553 Y86.768 E.01709
G1 X91.366 Y87.286 E.01863
G1 X91.019 Y87.704 E.01839
G1 X90.923 Y87.76 E.00377
M204 P1000
G1 E-2.24 F4200
;WIPE_START
G1 F7200
G1 X90.559 Y87.974 E-.23366
G1 X90.036 Y88.076 E-.29534
G1 X89.509 Y87.998 E-.29534
G1 X89.369 Y87.924 E-.08765
;WIPE_END
G1 E-.048 F4200
G1 Z.6 F720
G1 X89.369 Y87.926 F9000
G1 X89.417 Y87.95
G1 X89.671 Y88.028
G1 X89.934 Y88.062
G1 X90.199 Y88.05
G1 X90.458 Y87.994
G1 X90.704 Y87.896
G1 X90.929 Y87.757
G1 X91.128 Y87.581
G1 X91.295 Y87.375
G1 X91.424 Y87.144
G1 X91.512 Y86.894
G1 X91.557 Y86.633
G1 X91.557 Y86.367
G1 X91.512 Y86.106
G1 X91.424 Y85.856
G1 X91.295 Y85.625
G1 X91.247 Y85.566
G1 X91.171 Y85.471
G1 X90.87 Y85.714
G1 Z.4 F720
G1 E3.2 F2400
M204 P800
;TYPE:External perimeter
G1 F1500
G1 X91.082 Y86.048 E.01342
G1 X91.171 Y86.433 E.01336
G1 X91.131 Y86.801 E.01253
G1 X90.952 Y87.185 E.01433
G1 X90.669 Y87.463 E.01342
G1 X90.31 Y87.631 E.01342
G1 X89.916 Y87.67 E.01342
G1 X89.531 Y87.575 E.01342
G1 X89.2 Y87.357 E.01342
