; generated by PrusaSlicer 2.5.2+win64 on 2023-04-13 at 13:58:19 UTC


;
;

;
;
; 

; external perimeters extrusion width = 0.45mm
; perimeters extrusion width = 0.45mm
; infill extrusion width = 0.45mm
; solid infill extrusion width = 0.45mm
; top infill extrusion width = 0.40mm
; first layer extrusion width = 0.42mm

M73 P0 R14
M201 X2500 Y2500 Z400 E5000 ; sets maximum accelerations, mm/sec^2
M203 X180 Y180 Z12 E80 ; sets maximum feedrates, mm / sec
M204 P1250 R1250 T2500 ; sets acceleration (P, T) and retract acceleration (R), mm/sec^2
M205 X8.00 Y8.00 Z2.00 E10.00 ; sets the jerk limits, mm/sec
M205 S0 T0 ; sets the minimum extruding and travel feed rate, mm/sec
M107
;TYPE:Custom
M862.3 P "MINI" ; printer model check
G90 ; use absolute coordinates
M83 ; extruder relative mode
M104 S170 ; set extruder temp for bed leveling
M140 S60 ; set bed temp
M109 R170 ; wait for bed leveling temp
M190 S60 ; wait for bed temp
M204 T1250 ; set travel acceleration
G28 ; home all without mesh bed level
G29 ; mesh bed leveling 
M204 T2500 ; restore travel acceleration
M104 S215 ; set extruder temp
G92 E0
G1 Y-2 X179 F2400
G1 Z3 F720
M109 S215 ; wait for extruder temp

; intro line
G1 X170 F1000
G1 Z0.2 F720
G1 X110 E8 F900
G1 X40 E10 F700
G92 E0

M221 S95 ; set flow
G21 ; set units to millimeters
G90 ; use absolute coordinates
M83 ; use relative distances for extrusion
M900 K0.2 ; Filament gcode LA 1.5
; ; Filament gcode LA 1.0
M107
;LAYER_CHANGE
;Z:0.2
;HEIGHT:0.2
;BEFORE_LAYER_CHANGE
G92 E0.0
;0.2


M73 P1 R14
G1 E-3.2 F4200
G1 Z.2 F720
;AFTER_LAYER_CHANGE
;0.2
G1 Z.4
G1 X74.705 Y80.769 F9000
G1 Z.2 F720
G1 E3.2 F2400
M204 P800
;TYPE:Skirt/Brim
;WIDTH:0.42
G1 F1200
G1 X76 Y80.446 E.04186
G1 X104 Y80.446 E.87792
G1 X105.417 Y80.839 E.04612
M73 P2 R14
G1 X106.431 Y81.905 E.04612
G1 X106.754 Y83.2 E.04186
G1 X106.754 Y86.9 E.11601
G1 X106.458 Y88.142 E.04002
G1 X101.458 Y98.042 E.34775
G1 X100.469 Y99.13 E.04612
G1 X99 Y99.554 E.04794
G1 X81 Y99.554 E.56438
G1 X79.583 Y99.161 E.04612
G1 X78.542 Y98.042 E.04794
G1 X73.542 Y88.142 E.34775
G1 X73.246 Y86.9 E.04002
G1 X73.246 Y83.2 E.11601
G1 X73.639 Y81.783 E.04612
G1 X74.661 Y80.811 E.04424
M204 P1000
G1 X74.927 Y81.128 F9000
M204 P800
G1 F1200
G1 X75.06 Y81.017 E.00544
G1 X76 Y80.823 E.03008
G1 X104 Y80.823 E.87792
G1 X105.307 Y81.215 E.04278
M73 P2 R13
G1 X106.183 Y82.26 E.04278
G1 X106.377 Y83.2 E.03008
G1 X106.377 Y86.9 E.11601
G1 X106.122 Y87.972 E.03454
G1 X101.122 Y97.872 E.34775
G1 X100.183 Y98.862 E.04278
G1 X99 Y99.177 E.03839
G1 X81 Y99.177 E.56438
G1 X79.693 Y98.785 E.04278
G1 X78.878 Y97.872 E.03839
G1 X73.878 Y87.972 E.34775
G1 X73.623 Y86.9 E.03454
G1 X73.623 Y83.2 E.11601
G1 X74.015 Y81.893 E.04278
G1 X74.881 Y81.167 E.03546
M204 P1000
; printing object A00020-PART-30-REV-P1.STL id:0 copy 0
G1 E-2.24 F4200
;WIPE_START
G1 F7200
G1 X75.06 Y81.017 E-.12943
G1 X76 Y80.823 E-.53172
G1 X76.453 Y80.823 E-.25085
;WIPE_END
G1 E-.048 F4200
G1 Z.4 F720
G1 X81.317 Y86.145 F9000
G1 Z.2 F720
M73 P3 R13
G1 E3.2 F2400
M204 P800
;TYPE:Perimeter
;WIDTH:0.419999
G1 F1200
G1 X81.221 Y86.113 E.00317
G1 X76.787 Y86.113 E.13904
G1 X76.787 Y83.987 E.06665
G1 X82.213 Y83.987 E.17012
G1 X82.213 Y85.9 E.05998
;WIDTH:0.444381
G1 X82.201 Y95.021 E.30449
;WIDTH:0.488907
G1 X82.241 Y95.173 E.00583
;WIDTH:0.533432
G1 X82.282 Y95.325 E.00641
;WIDTH:0.577957
G1 X82.323 Y95.477 E.007
G1 X82.475 Y95.518 E.007
;WIDTH:0.533432
G1 X82.627 Y95.559 E.00641
;WIDTH:0.488907
G1 X82.779 Y95.599 E.00583
;WIDTH:0.444382
G1 X97.221 Y95.599 E.48213
;WIDTH:0.488908
G1 X97.373 Y95.559 E.00583
;WIDTH:0.533433
G1 X97.525 Y95.518 E.00641
;WIDTH:0.577958
G1 X97.677 Y95.477 E.007
G1 X97.718 Y95.325 E.007
;WIDTH:0.533433
G1 X97.759 Y95.173 E.00641
;WIDTH:0.488907
G1 X97.799 Y95.021 E.00583
;WIDTH:0.444381
G1 X97.787 Y85.9 E.30449
;WIDTH:0.419999
G1 X97.787 Y83.987 E.05998
G1 X103.213 Y83.987 E.17012
G1 X103.213 Y86.113 E.06665
G1 X98.85 Y86.113 E.1368
G1 X98.439 Y86.226 E.01336
;WIDTH:0.444381
G1 X98.201 Y86.679 E.01707
G1 X98.201 Y95.021 E.2785
;WIDTH:0.450279
G1 X98.198 Y95.157 E.00459
;WIDTH:0.492839
G1 X98.177 Y95.416 E.00972
;WIDTH:0.535399
G1 X98.155 Y95.675 E.01064
;WIDTH:0.577958
G1 X98.134 Y95.934 E.01156
G1 X97.651 Y95.956 E.02149
;WIDTH:0.533433
G1 X97.436 Y95.978 E.00882
;WIDTH:0.488908
G1 X97.221 Y96.001 E.00802
;WIDTH:0.444382
G1 X82.779 Y96.001 E.48213
;WIDTH:0.488907
G1 X82.474 Y95.978 E.01131
;WIDTH:0.533432
G1 X82.17 Y95.956 E.01244
;WIDTH:0.577957
G1 X81.866 Y95.934 E.01357
G1 X81.844 Y95.451 E.02149
;WIDTH:0.533432
G1 X81.822 Y95.236 E.00882
;WIDTH:0.488907
G1 X81.799 Y95.021 E.00802
;WIDTH:0.444381
G1 X81.799 Y86.679 E.2785
G1 X81.561 Y86.226 E.01707
;WIDTH:0.419999
G1 X81.374 Y86.164 E.00617
M204 P1000
G1 X81.221 Y86.49 F9000
M204 P800
;TYPE:External perimeter
G1 F1200
G1 X76.41 Y86.49 E.15086
G1 X76.41 Y83.61 E.0903
G1 X82.59 Y83.61 E.19377
G1 X82.59 Y95.021 E.3578
G1 X82.645 Y95.155 E.00452
G1 X82.779 Y95.21 E.00452
G1 X97.221 Y95.21 E.45285
G1 X97.355 Y95.155 E.00452
G1 X97.41 Y95.021 E.00452
G1 X97.41 Y83.61 E.3578
G1 X103.59 Y83.61 E.19377
G1 X103.59 Y86.49 E.0903
G1 X98.85 Y86.49 E.14862
G1 X98.665 Y86.528 E.00591
G1 X98.59 Y86.679 E.00529
G1 X98.59 Y96.39 E.3045
G1 X81.41 Y96.39 E.53867
M73 P4 R13
G1 X81.41 Y86.679 E.3045
G1 X81.335 Y86.528 E.00529
G1 X81.278 Y86.509 E.00186
M204 P1000
G1 X81.118 Y86.104 F9000
G1 E-3.2 F4200
G1 Z.4 F720
G1 X82.1 Y84.89 F9000
G1 Z.2 F720
G1 E3.2 F2400
M204 P800
;TYPE:Solid infill
;WIDTH:0.433171
G1 F1200
G1 X81.479 Y84.27 E.02848
G1 X80.927 Y84.27 E.01791
G1 X81.93 Y85.273 E.04602
G1 X81.93 Y85.825 E.01791
G1 X80.375 Y84.27 E.07134
G1 X79.824 Y84.27 E.01791
G1 X81.457 Y85.904 E.07498
G1 X81.237 Y85.83 E.00755
G1 X80.832 Y85.83 E.01314
G1 X79.272 Y84.27 E.0716
G1 X78.72 Y84.27 E.01791
G1 X80.28 Y85.83 E.0716
G1 X79.728 Y85.83 E.01791
G1 X78.168 Y84.27 E.0716
G1 X77.616 Y84.27 E.01791
G1 X79.176 Y85.83 E.0716
G1 X78.624 Y85.83 E.01791
G1 X77.07 Y84.276 E.07134
G1 X77.07 Y84.828 E.01791
G1 X78.072 Y85.83 E.04601
G1 X77.521 Y85.83 E.01791
G1 X76.9 Y85.21 E.02847
M204 P1000
G1 E-2.24 F4200
;WIPE_START
G1 F7200
G1 X77.521 Y85.83 E-.48621
G1 X78.072 Y85.83 E-.30584
G1 X77.919 Y85.677 E-.11994
;WIPE_END
G1 E-.048 F4200
G1 Z.4 F720
G1 X77.919 Y86.334 F9000
G1 X81.566 Y86.334
G1 X81.566 Y96.234
G1 X98.434 Y96.234
G1 X98.434 Y86.334
G1 X103.434 Y83.766
G1 X102.327 Y83.766
G1 X102.327 Y84.1
G1 Z.2 F720
G1 E3.2 F2400
M204 P800
;WIDTH:0.424794
G1 F1200
G1 X102.93 Y84.703 E.02707
G1 X102.93 Y85.243 E.01715
G1 X101.957 Y84.27 E.0437
G1 X101.417 Y84.27 E.01715
G1 X102.93 Y85.783 E.06795
G1 X102.93 Y85.83 E.0015
G1 X102.437 Y85.83 E.01565
G1 X100.877 Y84.27 E.07006
G1 X100.337 Y84.27 E.01715
G1 X101.897 Y85.83 E.07006
G1 X101.357 Y85.83 E.01715
G1 X99.797 Y84.27 E.07006
G1 X99.257 Y84.27 E.01715
G1 X100.817 Y85.83 E.07006
G1 X100.277 Y85.83 E.01715
G1 X98.717 Y84.27 E.07006
G1 X98.177 Y84.27 E.01715
G1 X99.737 Y85.83 E.07006
G1 X99.197 Y85.83 E.01715
G1 X98.07 Y84.703 E.05061
G1 X98.07 Y85.243 E.01715
G1 X98.683 Y85.857 E.02755
G1 X98.278 Y85.992 E.01356
G1 X97.9 Y85.614 E.01698
M204 P1000
; stop printing object A00020-PART-30-REV-P1.STL id:0 copy 0
M106 S84.15
;LAYER_CHANGE
;Z:0.4
;HEIGHT:0.2
;BEFORE_LAYER_CHANGE
G92 E0.0
;0.4


G1 E-2.24 F4200
;WIPE_START
G1 F7200
G1 X98.278 Y85.992 E-.2964
G1 X98.683 Y85.857 E-.2366
G1 X98.2 Y85.373 E-.379
;WIPE_END
G1 E-.048 F4200
G1 Z.4 F720
;AFTER_LAYER_CHANGE
;0.4
; printing object A00020-PART-30-REV-P1.STL id:0 copy 0
G1 X98.869 Y86.308 F9000
G1 E3.2 F2400
M204 P800
;TYPE:Perimeter
;WIDTH:0.449999
G1 F1220
G1 X98.586 Y86.411 E.01019
;WIDTH:0.491095
G1 X98.511 Y86.528 E.00518
;WIDTH:0.53219
G1 X98.436 Y86.645 E.00566
;WIDTH:0.573286
G1 X98.361 Y86.762 E.00613
;WIDTH:0.614381
G1 X98.286 Y86.879 E.00661
G1 X98.286 Y94.821 E.37743
;WIDTH:0.621795
G1 X98.282 Y94.992 E.0082
G1 X98.303 Y95.152 E.00777
;WIDTH:0.578846
G1 X98.325 Y95.312 E.0072
;WIDTH:0.535897
G1 X98.346 Y95.472 E.00662
;WIDTH:0.492948
G1 X98.368 Y95.632 E.00604
;WIDTH:0.449999
G1 X98.368 Y96.168 E.01814
G1 X97.832 Y96.168 E.01814
;WIDTH:0.491095
G1 X97.629 Y96.147 E.00759
;WIDTH:0.532191
G1 X97.427 Y96.127 E.00829
;WIDTH:0.573287
G1 X97.224 Y96.106 E.00898
;WIDTH:0.614382
G1 X97.021 Y96.086 E.00968
G1 X82.979 Y96.086 E.66728
G1 X82.776 Y96.106 E.00968
;WIDTH:0.573287
G1 X82.573 Y96.127 E.00898
;WIDTH:0.532191
G1 X82.371 Y96.147 E.00829
;WIDTH:0.491095
G1 X82.168 Y96.168 E.00759
;WIDTH:0.449999
G1 X81.632 Y96.168 E.01814
G1 X81.632 Y95.632 E.01814
;WIDTH:0.491095
G1 X81.653 Y95.429 E.00759
;WIDTH:0.53219
G1 X81.673 Y95.227 E.00829
;WIDTH:0.573286
G1 X81.694 Y95.024 E.00898
;WIDTH:0.614381
G1 X81.714 Y94.821 E.00968
G1 X81.714 Y86.879 E.37743
G1 X81.639 Y86.762 E.00661
;WIDTH:0.573286
G1 X81.564 Y86.645 E.00613
;WIDTH:0.53219
G1 X81.489 Y86.528 E.00566
;WIDTH:0.491095
G1 X81.414 Y86.411 E.00518
;WIDTH:0.449999
G1 X81.021 Y86.268 E.01413
G1 X76.632 Y86.268 E.14858
G1 X76.632 Y83.832 E.08245
G1 X82.368 Y83.832 E.19415
G1 X82.368 Y85.965 E.07221
;WIDTH:0.491095
M73 P5 R13
G1 X82.347 Y86.194 E.00854
;WIDTH:0.53219
G1 X82.327 Y86.422 E.00933
;WIDTH:0.573286
G1 X82.306 Y86.65 E.01011
;WIDTH:0.614381
G1 X82.286 Y86.879 E.01089
G1 X82.286 Y94.821 E.37743
;WIDTH:0.621795
G1 X82.292 Y94.942 E.0058
G1 X82.356 Y95.02 E.00484
;WIDTH:0.578846
G1 X82.42 Y95.098 E.00448
;WIDTH:0.535897
G1 X82.483 Y95.175 E.00412
;WIDTH:0.492948
G1 X82.547 Y95.253 E.00376
;WIDTH:0.491095
G1 X82.655 Y95.318 E.0047
;WIDTH:0.532191
G1 X82.763 Y95.384 E.00513
;WIDTH:0.573287
G1 X82.871 Y95.449 E.00556
;WIDTH:0.614382
G1 X82.979 Y95.514 E.00599
G1 X97.021 Y95.514 E.66728
;WIDTH:0.621796
G1 X97.142 Y95.508 E.0058
G1 X97.22 Y95.444 E.00484
;WIDTH:0.578847
G1 X97.298 Y95.38 E.00448
;WIDTH:0.535898
G1 X97.375 Y95.317 E.00412
;WIDTH:0.492949
G1 X97.517 Y95.175 E.00748
;WIDTH:0.535897
G1 X97.58 Y95.098 E.00412
;WIDTH:0.578846
G1 X97.644 Y95.02 E.00448
;WIDTH:0.621795
G1 X97.708 Y94.942 E.00484
G1 X97.714 Y94.821 E.0058
;WIDTH:0.614381
G1 X97.714 Y86.879 E.37743
G1 X97.694 Y86.65 E.01089
;WIDTH:0.573286
G1 X97.673 Y86.422 E.01011
;WIDTH:0.53219
G1 X97.653 Y86.194 E.00933
;WIDTH:0.491095
G1 X97.632 Y85.965 E.00854
;WIDTH:0.449999
G1 X97.632 Y83.832 E.07221
G1 X103.368 Y83.832 E.19415
G1 X103.368 Y85.05 E.04123
G1 X103.368 Y86.268 E.04123
G1 X98.979 Y86.268 E.14858
G1 X98.926 Y86.287 E.00191
M204 P1000
G1 X98.979 Y86.675 F9000
M204 P800
;TYPE:External perimeter
G1 F1220
G1 X98.848 Y86.723 E.00471
G1 X98.775 Y86.879 E.00583
G1 X98.775 Y96.575 E.32821
G1 X81.225 Y96.575 E.59405
G1 X81.225 Y86.879 E.32821
G1 X81.152 Y86.723 E.00583
G1 X81.021 Y86.675 E.00471
G1 X76.225 Y86.675 E.16235
G1 X76.225 Y83.425 E.11001
G1 X82.775 Y83.425 E.22171
G1 X82.775 Y94.821 E.38576
G1 X82.835 Y94.965 E.00527
G1 X82.979 Y95.025 E.00527
G1 X97.021 Y95.025 E.47534
G1 X97.165 Y94.965 E.00527
G1 X97.225 Y94.821 E.00527
G1 X97.225 Y83.425 E.38576
G1 X103.775 Y83.425 E.22171
G1 X103.775 Y86.675 E.11001
G1 X99.039 Y86.675 E.16032
M204 P1000
G1 X98.865 Y86.595 F9000
G1 E-3.2 F4200
G1 Z.6 F720
G1 X102.39 Y86.146 F9000
G1 Z.4 F720
G1 E3.2 F2400
;TYPE:Solid infill
;WIDTH:0.465256
G1 F1220
G1 X103.063 Y85.474 E.0334
G1 X103.063 Y84.876 E.02097
G1 X101.976 Y85.963 E.05397
G1 X101.378 Y85.963 E.02098
G1 X103.063 Y84.279 E.08365
G1 X103.063 Y84.137 E.00498
M73 P6 R13
G1 X102.607 Y84.137 E.016
G1 X100.781 Y85.964 E.0907
G1 X100.183 Y85.964 E.02098
G1 X102.01 Y84.137 E.09071
G1 X101.413 Y84.137 E.02097
G1 X99.586 Y85.964 E.09073
G1 X98.988 Y85.965 E.02098
G1 X100.815 Y84.137 E.09074
G1 X100.218 Y84.137 E.02097
G1 X98.008 Y86.348 E.10976
G1 X97.937 Y85.956 E.01396
G1 X97.937 Y85.821 E.00476
G1 X99.621 Y84.137 E.0836
G1 X99.023 Y84.137 E.02097
G1 X97.937 Y85.223 E.05394
G1 X97.937 Y84.626 E.02097
G1 X98.609 Y83.954 E.03337
G1 E-3.2 F4200
G1 Z.6 F720
G1 X98.125 Y95.171 F9000
G1 Z.4 F720
G1 E3.2 F2400
;WIDTH:0.531415
G1 F1220
G1 X97.371 Y95.925 E.04331
G1 E-3.2 F4200
G1 Z.6 F720
G1 X82.507 Y95.371 F9000
G1 Z.4 F720
G1 E3.2 F2400
G1 F1220
G1 X81.832 Y96.046 E.03879
G1 E-3.2 F4200
G1 Z.6 F720
G1 X82.246 Y85.872 F9000
G1 Z.4 F720
G1 E3.2 F2400
;WIDTH:0.46437
G1 F1220
G1 X81.752 Y86.366 E.02448
G1 X81.61 Y86.171 E.00846
G1 X81.425 Y86.097 E.00697
G1 X82.063 Y85.459 E.03159
G1 X82.063 Y84.863 E.02089
G1 X80.961 Y85.965 E.05458
G1 X80.366 Y85.964 E.02088
G1 X82.063 Y84.267 E.0841
G1 X82.063 Y84.137 E.00455
G1 X81.596 Y84.137 E.01634
G1 X79.77 Y85.964 E.09052
G1 X79.174 Y85.964 E.02088
G1 X81 Y84.137 E.09051
G1 X80.404 Y84.137 E.02089
G1 X78.578 Y85.963 E.0905
G1 X77.983 Y85.963 E.02088
G1 X79.808 Y84.137 E.09048
G1 X79.212 Y84.137 E.02089
G1 X77.387 Y85.963 E.09047
G1 X76.937 Y85.963 E.01575
G1 X76.937 Y85.816 E.00513
G1 X78.616 Y84.137 E.08321
G1 X78.02 Y84.137 E.02089
G1 X76.937 Y85.22 E.05367
G1 X76.937 Y84.624 E.02089
G1 X77.607 Y83.954 E.03321
; stop printing object A00020-PART-30-REV-P1.STL id:0 copy 0
M106 S170.85
;LAYER_CHANGE
;Z:0.6
;HEIGHT:0.2
;BEFORE_LAYER_CHANGE
G92 E0.0
;0.6


G1 E-2.24 F4200
;WIPE_START
G1 F7200
G1 X76.937 Y84.624 E-.52515
G1 X76.937 Y85.22 E-.33029
G1 X77.01 Y85.148 E-.05656
;WIPE_END
G1 E-.048 F4200
G1 Z.6 F720
;AFTER_LAYER_CHANGE
;0.6
; printing object A00020-PART-30-REV-P1.STL id:0 copy 0
G1 Z.8
G1 X81.131 Y86.308 F9000
G1 Z.6 F720
G1 E3.2 F2400
M204 P800
;TYPE:Perimeter
;WIDTH:0.449999
G1 F1234
G1 X81.021 Y86.268 E.00394
G1 X76.632 Y86.268 E.14858
G1 X76.632 Y83.832 E.08245
G1 X82.368 Y83.832 E.19415
G1 X82.368 Y85.965 E.07221
;WIDTH:0.491095
G1 X82.347 Y86.194 E.00854
;WIDTH:0.53219
G1 X82.327 Y86.422 E.00933
;WIDTH:0.573286
G1 X82.306 Y86.65 E.01011
;WIDTH:0.614381
G1 X82.286 Y86.879 E.01089
G1 X82.286 Y94.821 E.37743
;WIDTH:0.621795
G1 X82.292 Y94.942 E.0058
G1 X82.356 Y95.02 E.00484
;WIDTH:0.578846
G1 X82.42 Y95.098 E.00448
;WIDTH:0.535897
G1 X82.483 Y95.175 E.00412
;WIDTH:0.492948
G1 X82.547 Y95.253 E.00376
;WIDTH:0.491095
G1 X82.655 Y95.318 E.0047
;WIDTH:0.532191
G1 X82.763 Y95.384 E.00513
;WIDTH:0.573287
G1 X82.871 Y95.449 E.00556
;WIDTH:0.614382
G1 X82.979 Y95.514 E.00599
G1 X97.021 Y95.514 E.66728
;WIDTH:0.621796
G1 X97.142 Y95.508 E.0058
G1 X97.22 Y95.444 E.00484
;WIDTH:0.578847
G1 X97.298 Y95.38 E.00448
;WIDTH:0.535898
G1 X97.375 Y95.317 E.00412
;WIDTH:0.492949
G1 X97.517 Y95.175 E.00748
;WIDTH:0.535897
G1 X97.58 Y95.098 E.00412
;WIDTH:0.578846
G1 X97.644 Y95.02 E.00448
;WIDTH:0.621795
G1 X97.708 Y94.942 E.00484
G1 X97.714 Y94.821 E.0058
;WIDTH:0.614381
G1 X97.714 Y86.879 E.37743
G1 X97.694 Y86.65 E.01089
;WIDTH:0.573286
G1 X97.673 Y86.422 E.01011
;WIDTH:0.53219
G1 X97.653 Y86.194 E.00933
;WIDTH:0.491095
G1 X97.632 Y85.965 E.00854
;WIDTH:0.449999
G1 X97.632 Y83.832 E.07221
G1 X103.368 Y83.832 E.19415
G1 X103.368 Y85.05 E.04123
G1 X103.368 Y86.268 E.04123
G1 X98.979 Y86.268 E.14858
G1 X98.586 Y86.411 E.01413
;WIDTH:0.491095
G1 X98.511 Y86.528 E.00518
;WIDTH:0.53219
G1 X98.436 Y86.645 E.00566
;WIDTH:0.573286
G1 X98.361 Y86.762 E.00613
;WIDTH:0.614381
G1 X98.286 Y86.879 E.00661
G1 X98.286 Y94.821 E.37743
;WIDTH:0.621795
G1 X98.282 Y94.992 E.0082
G1 X98.303 Y95.152 E.00777
;WIDTH:0.578846
G1 X98.325 Y95.312 E.0072
;WIDTH:0.535897
G1 X98.346 Y95.472 E.00662
;WIDTH:0.492948
G1 X98.368 Y95.632 E.00604
;WIDTH:0.449999
G1 X98.368 Y96.168 E.01814
G1 X97.832 Y96.168 E.01814
;WIDTH:0.491095
G1 X97.629 Y96.147 E.00759
;WIDTH:0.532191
G1 X97.427 Y96.127 E.00829
;WIDTH:0.573287
G1 X97.224 Y96.106 E.00898
;WIDTH:0.614382
G1 X97.021 Y96.086 E.00968
G1 X82.979 Y96.086 E.66728
G1 X82.776 Y96.106 E.00968
;WIDTH:0.573287
M73 P7 R13
G1 X82.573 Y96.127 E.00898
;WIDTH:0.532191
G1 X82.371 Y96.147 E.00829
;WIDTH:0.491095
G1 X82.168 Y96.168 E.00759
;WIDTH:0.449999
G1 X81.632 Y96.168 E.01814
G1 X81.632 Y95.632 E.01814
;WIDTH:0.491095
G1 X81.653 Y95.429 E.00759
;WIDTH:0.53219
G1 X81.673 Y95.227 E.00829
;WIDTH:0.573286
G1 X81.694 Y95.024 E.00898
;WIDTH:0.614381
G1 X81.714 Y94.821 E.00968
G1 X81.714 Y86.879 E.37743
G1 X81.639 Y86.762 E.00661
;WIDTH:0.573286
G1 X81.564 Y86.645 E.00613
;WIDTH:0.53219
G1 X81.489 Y86.528 E.00566
;WIDTH:0.491095
G1 X81.414 Y86.411 E.00518
;WIDTH:0.449999
G1 X81.187 Y86.328 E.00816
M204 P1000
