; generated by PrusaSlicer 2.5.0+win64 on 2023-04-12 at 00:38:19 UTC


;
;

;
;
; 

; external perimeters extrusion width = 0.45mm
; perimeters extrusion width = 0.45mm
; infill extrusion width = 0.45mm
; solid infill extrusion width = 0.45mm
; top infill extrusion width = 0.40mm
; support material extrusion width = 0.35mm
; first layer extrusion width = 0.42mm

M73 P0 R35
M201 X2500 Y2500 Z400 E5000 ; sets maximum accelerations, mm/sec^2
M203 X180 Y180 Z12 E80 ; sets maximum feedrates, mm / sec
M204 P1250 R1250 T2500 ; sets acceleration (P, T) and retract acceleration (R), mm/sec^2
M205 X8.00 Y8.00 Z2.00 E10.00 ; sets the jerk limits, mm/sec
M205 S0 T0 ; sets the minimum extruding and travel feed rate, mm/sec
M107
;TYPE:Custom
M862.3 P "MINI" ; printer model check
G90 ; use absolute coordinates
M83 ; extruder relative mode
M104 S170 ; set extruder temp for bed leveling
M140 S60 ; set bed temp
M109 R170 ; wait for bed leveling temp
M190 S60 ; wait for bed temp
M204 T1250 ; set travel acceleration
G28 ; home all without mesh bed level
G29 ; mesh bed leveling 
M204 T2500 ; restore travel acceleration
M104 S215 ; set extruder temp
G92 E0
G1 Y-2 X179 F2400
G1 Z3 F720
M109 S215 ; wait for extruder temp

; intro line
G1 X170 F1000
G1 Z0.2 F720
G1 X110 E8 F900
G1 X40 E10 F700
G92 E0

M221 S95 ; set flow
G21 ; set units to millimeters
G90 ; use absolute coordinates
M83 ; use relative distances for extrusion
M900 K0.2 ; Filament gcode LA 1.5
; ; Filament gcode LA 1.0
M107
;LAYER_CHANGE
;Z:0.2
;HEIGHT:0.2
;BEFORE_LAYER_CHANGE
G92 E0.0
;0.2


G1 E-3.2 F4200
G1 Z.2 F720
;AFTER_LAYER_CHANGE
;0.2
G1 Z.4
G1 X62.785 Y71.163 F9000
G1 Z.2 F720
G1 E3.2 F2400
M204 P800
;TYPE:Skirt/Brim
;WIDTH:0.42
G1 F1200
G1 X67.249 Y68.549 E.1622
G1 X68.45 Y68.223 E.03902
M73 P0 R34
G1 X111.55 Y68.223 E1.35137
G1 X112.857 Y68.615 E.04278
G1 X113.733 Y69.66 E.04278
G1 X113.927 Y70.6 E.03008
G1 X113.927 Y109.4 E1.21655
G1 X113.535 Y110.707 E.04278
G1 X112.49 Y111.583 E.04278
G1 X111.55 Y111.777 E.03008
G1 X68.45 Y111.777 E1.35137
G1 X63.823 Y111.464 E.14542
M73 P1 R34
G1 X62.546 Y110.984 E.04278
G1 X61.743 Y109.881 E.04278
G1 X61.609 Y109.093 E.02506
G1 X61.609 Y73.214 E1.12496
G1 X62 Y71.907 E.04278
G1 X62.741 Y71.204 E.03202
M204 P1000
; printing object A00020-PART-16-REV-P1.STL id:0 copy 0
G1 E-2.24 F4200
;WIPE_START
G1 F7200
G1 X64.159 Y70.369 E-.912
;WIPE_END
G1 E-.048 F4200
G1 Z.4 F720
G1 X81.408 Y106.92 F9000
G1 Z.2 F720
G1 E3.2 F2400
M204 P800
;TYPE:Support material
G1 F1200
G1 X70.93 Y106.92 E.32853
G1 X70.93 Y105.201 E.05389
G1 X70.649 Y104.92 E.01247
G1 X68.251 Y104.92 E.07518
G1 X67.97 Y105.201 E.01247
G1 X67.97 Y109.093 E.12203
G1 X63.986 Y109.093 E.12492
G1 X63.986 Y73.214 E1.12496
G1 X67.97 Y73.214 E.12492
G1 X67.97 Y76.799 E.1124
G1 X68.251 Y77.08 E.01247
G1 X70.649 Y77.08 E.07518
G1 X70.93 Y76.799 E.01247
G1 X70.93 Y73.08 E.1166
G1 X81.408 Y73.08 E.32853
G1 X81.408 Y106.863 E1.05926
M204 P1000
G1 X80.783 Y106.75 F9000
M204 P800
G1 F1200
G1 X80.783 Y73.419 E1.04507
G1 X80.364 Y73.419 E.01314
G1 X80.364 Y106.581 E1.03975
G1 X79.945 Y106.581 E.01314
G1 X79.945 Y73.419 E1.03975
G1 X79.526 Y73.419 E.01314
G1 X79.526 Y106.581 E1.03975
G1 X79.107 Y106.581 E.01314
G1 X79.107 Y73.419 E1.03975
G1 X78.688 Y73.419 E.01314
G1 X78.688 Y106.581 E1.03975
G1 X78.269 Y106.581 E.01314
M73 P2 R34
G1 X78.269 Y73.419 E1.03975
G1 X77.85 Y73.419 E.01314
G1 X77.85 Y106.581 E1.03975
G1 X77.431 Y106.581 E.01314
G1 X77.431 Y73.419 E1.03975
G1 X77.012 Y73.419 E.01314
G1 X77.012 Y106.581 E1.03975
G1 X76.593 Y106.581 E.01314
G1 X76.593 Y73.419 E1.03975
G1 X76.174 Y73.419 E.01314
G1 X76.174 Y106.581 E1.03975
G1 X75.755 Y106.581 E.01314
G1 X75.755 Y73.419 E1.03975
G1 X75.336 Y73.419 E.01314
G1 X75.336 Y106.581 E1.03975
G1 X74.917 Y106.581 E.01314
G1 X74.917 Y73.419 E1.03975
G1 X74.498 Y73.419 E.01314
G1 X74.498 Y106.581 E1.03975
G1 X74.079 Y106.581 E.01314
G1 X74.079 Y73.419 E1.03975
G1 X73.66 Y73.419 E.01314
G1 X73.66 Y106.581 E1.03975
G1 X73.241 Y106.581 E.01314
G1 X73.241 Y73.419 E1.03975
G1 X72.822 Y73.419 E.01314
M73 P3 R34
G1 X72.822 Y106.581 E1.03975
G1 X72.403 Y106.581 E.01314
G1 X72.403 Y73.419 E1.03975
G1 X71.984 Y73.419 E.01314
G1 X71.984 Y106.581 E1.03975
G1 X71.565 Y106.581 E.01314
G1 X71.565 Y73.419 E1.03975
G1 X71.269 Y73.419 E.00927
G1 X71.269 Y76.939 E.11037
G1 X71.146 Y77.063 E.00547
G1 X71.146 Y104.937 E.87399
G1 X70.789 Y104.581 E.01581
G1 X70.727 Y104.581 E.00195
G1 X70.727 Y77.419 E.85162
G1 X70.308 Y77.419 E.01314
G1 X70.308 Y104.581 E.85162
G1 X69.889 Y104.581 E.01314
G1 X69.889 Y77.419 E.85162
G1 X69.47 Y77.419 E.01314
M73 P3 R33
G1 X69.47 Y104.581 E.85162
G1 X69.051 Y104.581 E.01314
G1 X69.051 Y77.419 E.85162
G1 X68.632 Y77.419 E.01314
G1 X68.632 Y104.581 E.85162
G1 X68.213 Y104.581 E.01314
G1 X68.213 Y77.419 E.85162
G1 X68.111 Y77.419 E.00322
G1 X67.794 Y77.103 E.01403
G1 X67.794 Y104.897 E.87146
G1 X67.631 Y105.061 E.00725
G1 X67.631 Y108.754 E.11579
G1 X67.375 Y108.754 E.00801
G1 X67.375 Y73.553 E1.10368
G1 X66.956 Y73.553 E.01314
M73 P4 R33
G1 X66.956 Y108.754 E1.10368
G1 X66.537 Y108.754 E.01314
G1 X66.537 Y73.553 E1.10368
G1 X66.118 Y73.553 E.01314
G1 X66.118 Y108.754 E1.10368
G1 X65.699 Y108.754 E.01314
G1 X65.699 Y73.553 E1.10368
G1 X65.28 Y73.553 E.01314
G1 X65.28 Y108.754 E1.10368
G1 X64.861 Y108.754 E.01314
G1 X64.861 Y73.553 E1.10368
G1 X64.442 Y73.553 E.01314
G1 X64.442 Y108.923 E1.109
M204 P1000
G1 E-2.24 F4200
;WIPE_START
G1 F7200
G1 X64.442 Y107.278 E-.912
;WIPE_END
G1 E-.048 F4200
G1 Z.4 F720
G1 X69.05 Y107.241 F9000
G1 X69.85 Y107.234
G1 X109.07 Y106.92
G1 Z.2 F720
G1 E3.2 F2400
M204 P800
G1 F1200
G1 X98.592 Y106.92 E.32853
G1 X98.592 Y96.285 E.33346
G1 X109.07 Y96.285 E.32853
G1 X109.07 Y106.863 E.33168
M204 P1000
G1 X108.435 Y106.75 F9000
M204 P800
G1 F1200
G1 X108.435 Y96.624 E.3175
G1 X108.016 Y96.624 E.01314
G1 X108.016 Y106.581 E.31218
G1 X107.597 Y106.581 E.01314
G1 X107.597 Y96.624 E.31218
G1 X107.178 Y96.624 E.01314
G1 X107.178 Y106.581 E.31218
G1 X106.759 Y106.581 E.01314
G1 X106.759 Y96.624 E.31218
G1 X106.34 Y96.624 E.01314
G1 X106.34 Y106.581 E.31218
G1 X105.921 Y106.581 E.01314
G1 X105.921 Y96.624 E.31218
G1 X105.502 Y96.624 E.01314
G1 X105.502 Y106.581 E.31218
G1 X105.083 Y106.581 E.01314
M73 P5 R33
G1 X105.083 Y96.624 E.31218
G1 X104.664 Y96.624 E.01314
G1 X104.664 Y106.581 E.31218
G1 X104.245 Y106.581 E.01314
G1 X104.245 Y96.624 E.31218
G1 X103.826 Y96.624 E.01314
G1 X103.826 Y106.581 E.31218
G1 X103.407 Y106.581 E.01314
G1 X103.407 Y96.624 E.31218
G1 X102.988 Y96.624 E.01314
G1 X102.988 Y106.581 E.31218
G1 X102.569 Y106.581 E.01314
G1 X102.569 Y96.624 E.31218
G1 X102.15 Y96.624 E.01314
G1 X102.15 Y106.581 E.31218
G1 X101.731 Y106.581 E.01314
G1 X101.731 Y96.624 E.31218
G1 X101.312 Y96.624 E.01314
G1 X101.312 Y106.581 E.31218
G1 X100.893 Y106.581 E.01314
G1 X100.893 Y96.624 E.31218
G1 X100.474 Y96.624 E.01314
G1 X100.474 Y106.581 E.31218
G1 X100.055 Y106.581 E.01314
G1 X100.055 Y96.624 E.31218
G1 X99.636 Y96.624 E.01314
G1 X99.636 Y106.581 E.31218
G1 X99.217 Y106.581 E.01314
G1 X99.217 Y96.455 E.3175
M204 P1000
G1 E-3.2 F4200
G1 Z.4 F720
G1 X109.07 Y83.715 F9000
G1 Z.2 F720
G1 E3.2 F2400
M204 P800
G1 F1200
G1 X98.592 Y83.715 E.32853
G1 X98.592 Y73.08 E.33346
G1 X109.07 Y73.08 E.32853
G1 X109.07 Y83.659 E.33168
M204 P1000
G1 X108.435 Y83.545 F9000
M204 P800
G1 F1200
G1 X108.435 Y73.419 E.3175
G1 X108.016 Y73.419 E.01314
G1 X108.016 Y83.376 E.31218
G1 X107.597 Y83.376 E.01314
G1 X107.597 Y73.419 E.31218
G1 X107.178 Y73.419 E.01314
G1 X107.178 Y83.376 E.31218
G1 X106.759 Y83.376 E.01314
G1 X106.759 Y73.419 E.31218
G1 X106.34 Y73.419 E.01314
G1 X106.34 Y83.376 E.31218
G1 X105.921 Y83.376 E.01314
G1 X105.921 Y73.419 E.31218
G1 X105.502 Y73.419 E.01314
G1 X105.502 Y83.376 E.31218
G1 X105.083 Y83.376 E.01314
G1 X105.083 Y73.419 E.31218
G1 X104.664 Y73.419 E.01314
G1 X104.664 Y83.376 E.31218
G1 X104.245 Y83.376 E.01314
G1 X104.245 Y73.419 E.31218
G1 X103.826 Y73.419 E.01314
G1 X103.826 Y83.376 E.31218
G1 X103.407 Y83.376 E.01314
G1 X103.407 Y73.419 E.31218
G1 X102.988 Y73.419 E.01314
G1 X102.988 Y83.376 E.31218
G1 X102.569 Y83.376 E.01314
G1 X102.569 Y73.419 E.31218
G1 X102.15 Y73.419 E.01314
G1 X102.15 Y83.376 E.31218
G1 X101.731 Y83.376 E.01314
G1 X101.731 Y73.419 E.31218
G1 X101.312 Y73.419 E.01314
G1 X101.312 Y83.376 E.31218
G1 X100.893 Y83.376 E.01314
G1 X100.893 Y73.419 E.31218
G1 X100.474 Y73.419 E.01314
G1 X100.474 Y83.376 E.31218
G1 X100.055 Y83.376 E.01314
M73 P6 R33
G1 X100.055 Y73.419 E.31218
G1 X99.636 Y73.419 E.01314
G1 X99.636 Y83.376 E.31218
G1 X99.217 Y83.376 E.01314
G1 X99.217 Y73.25 E.3175
M204 P1000
G1 E-2.24 F4200
;WIPE_START
G1 F7200
G1 X99.217 Y74.895 E-.912
;WIPE_END
G1 E-.048 F4200
G1 Z.4 F720
G1 X109.859 Y72 F9000
G1 X109.859 Y71.824
G1 Z.2 F720
G1 E3.2 F2400
M204 P800
;TYPE:Perimeter
;WIDTH:0.488908
G1 F1200
G1 X109.771 Y71.801 E.00338
;WIDTH:0.444381
G1 X70.229 Y71.801 E1.32001
;WIDTH:0.488907
G1 X70.077 Y71.841 E.00583
;WIDTH:0.533432
G1 X69.925 Y71.882 E.00641
;WIDTH:0.577957
G1 X69.773 Y71.923 E.007
G1 X69.732 Y72.075 E.007
;WIDTH:0.533432
G1 X69.691 Y72.227 E.00641
;WIDTH:0.488907
G1 X69.651 Y72.379 E.00583
;WIDTH:0.444381
G1 X69.651 Y75.801 E.11424
G1 X69.249 Y75.801 E.0134
G1 X69.249 Y72.379 E.11424
;WIDTH:0.488907
G1 X69.272 Y72.074 E.01131
;WIDTH:0.533432
G1 X69.294 Y71.77 E.01244
;WIDTH:0.577957
G1 X69.316 Y71.466 E.01357
G1 X69.799 Y71.444 E.02149
;WIDTH:0.533432
G1 X70.014 Y71.422 E.00882
;WIDTH:0.488907
G1 X70.229 Y71.399 E.00802
;WIDTH:0.444381
G1 X109.771 Y71.399 E1.32001
;WIDTH:0.488908
G1 X110.076 Y71.422 E.01131
;WIDTH:0.533434
G1 X110.38 Y71.444 E.01244
;WIDTH:0.57796
G1 X110.684 Y71.466 E.01357
G1 X110.684 Y71.734 E.0119
G1 X110.706 Y71.949 E.00962
;WIDTH:0.533435
G1 X110.728 Y72.164 E.00882
;WIDTH:0.48891
G1 X110.751 Y72.379 E.00802
;WIDTH:0.444385
G1 X110.751 Y107.621 E1.17648
;WIDTH:0.450284
G1 X110.748 Y107.757 E.00459
;WIDTH:0.492843
G1 X110.727 Y108.016 E.00972
;WIDTH:0.535402
G1 X110.705 Y108.275 E.01064
;WIDTH:0.57796
G1 X110.684 Y108.534 E.01156
G1 X110.201 Y108.556 E.02149
;WIDTH:0.533434
G1 X109.986 Y108.578 E.00882
;WIDTH:0.488908
G1 X109.771 Y108.601 E.00802
;WIDTH:0.444381
G1 X70.229 Y108.601 E1.32001
;WIDTH:0.488907
G1 X69.924 Y108.578 E.01131
;WIDTH:0.533432
M73 P6 R32
G1 X69.62 Y108.556 E.01244
;WIDTH:0.577957
G1 X69.316 Y108.534 E.01357
G1 X69.294 Y108.051 E.02149
;WIDTH:0.533432
G1 X69.272 Y107.836 E.00882
;WIDTH:0.488907
G1 X69.249 Y107.621 E.00802
;WIDTH:0.444381
G1 X69.249 Y106.199 E.04748
G1 X69.651 Y106.199 E.0134
G1 X69.651 Y107.621 E.04748
;WIDTH:0.488907
G1 X69.691 Y107.773 E.00583
;WIDTH:0.533432
G1 X69.732 Y107.925 E.00641
;WIDTH:0.577957
G1 X69.773 Y108.077 E.007
G1 X69.925 Y108.118 E.007
;WIDTH:0.533432
G1 X70.077 Y108.159 E.00641
;WIDTH:0.488907
G1 X70.229 Y108.199 E.00583
;WIDTH:0.444381
G1 X109.771 Y108.199 E1.32001
;WIDTH:0.488908
G1 X109.923 Y108.159 E.00583
;WIDTH:0.533434
G1 X110.075 Y108.118 E.00642
;WIDTH:0.57796
G1 X110.227 Y108.077 E.007
G1 X110.268 Y107.925 E.007
;WIDTH:0.533435
G1 X110.309 Y107.773 E.00641
;WIDTH:0.48891
G1 X110.349 Y107.621 E.00583
;WIDTH:0.444385
G1 X110.349 Y72.379 E1.17648
;WIDTH:0.48891
G1 X110.309 Y72.227 E.00583
;WIDTH:0.533435
G1 X110.268 Y72.075 E.00641
;WIDTH:0.57796
G1 X110.227 Y71.923 E.007
G1 X110.075 Y71.882 E.007
;WIDTH:0.533434
G1 X109.923 Y71.841 E.00642
;WIDTH:0.488908
G1 X109.917 Y71.84 E.00023
M204 P1000
G1 X109.771 Y72.19 F9000
M204 P800
;TYPE:External perimeter
;WIDTH:0.419999
G1 F1200
G1 X70.229 Y72.19 E1.23984
G1 X70.095 Y72.245 E.00452
G1 X70.04 Y72.379 E.00452
G1 X70.04 Y76.19 E.11951
G1 X68.86 Y76.19 E.037
G1 X68.86 Y71.01 E.16242
G1 X111.14 Y71.01 E1.32566
G1 X111.14 Y108.99 E1.19083
G1 X68.86 Y108.99 E1.32566
M73 P7 R32
G1 X68.86 Y105.81 E.09971
G1 X70.04 Y105.81 E.037
G1 X70.04 Y107.621 E.0568
G1 X70.095 Y107.755 E.00452
G1 X70.229 Y107.81 E.00452
G1 X109.771 Y107.81 E1.23984
G1 X109.905 Y107.755 E.00452
G1 X109.96 Y107.621 E.00452
G1 X109.96 Y72.379 E1.10502
G1 X109.905 Y72.245 E.00452
G1 X109.827 Y72.213 E.00264
M204 P1000
G1 X109.668 Y71.804 F9000
; stop printing object A00020-PART-16-REV-P1.STL id:0 copy 0
M106 S84.15
;LAYER_CHANGE
;Z:0.4
;HEIGHT:0.2
;BEFORE_LAYER_CHANGE
G92 E0.0
;0.4


G1 E-2.24 F4200
;WIPE_START
G1 F7200
G1 X108.181 Y72.212 E-.912
;WIPE_END
G1 E-.048 F4200
G1 Z.4 F720
;AFTER_LAYER_CHANGE
;0.4
; printing object A00020-PART-16-REV-P1.STL id:0 copy 0
G1 Z.6
G1 X109.741 Y71.988 F9000
G1 Z.4 F720
G1 E3.2 F2400
M204 P800
;TYPE:Perimeter
;WIDTH:0.573286
G1 X109.679 Y71.951 E.00315
;WIDTH:0.614381
G1 X109.571 Y71.886 E.00599
G1 X70.429 Y71.886 E1.85996
;WIDTH:0.621795
G1 X70.308 Y71.893 E.0058
G1 X70.23 Y71.956 E.00484
;WIDTH:0.578846
G1 X70.152 Y72.02 E.00448
;WIDTH:0.535897
G1 X70.075 Y72.083 E.00412
;WIDTH:0.492948
G1 X69.997 Y72.147 E.00376
;WIDTH:0.491095
G1 X69.932 Y72.255 E.0047
;WIDTH:0.53219
G1 X69.866 Y72.363 E.00513
;WIDTH:0.573286
G1 X69.801 Y72.471 E.00556
;WIDTH:0.614381
G1 X69.736 Y72.579 E.00599
G1 X69.736 Y75.886 E.15715
G1 X69.164 Y75.886 E.02715
G1 X69.164 Y72.579 E.15715
G1 X69.144 Y72.376 E.00968
;WIDTH:0.573286
G1 X69.123 Y72.173 E.00898
;WIDTH:0.53219
G1 X69.103 Y71.971 E.00829
;WIDTH:0.491095
G1 X69.082 Y71.768 E.00759
;WIDTH:0.449999
G1 X69.082 Y71.232 E.01814
G1 X69.618 Y71.232 E.01814
;WIDTH:0.491095
G1 X69.821 Y71.253 E.00759
;WIDTH:0.53219
G1 X70.023 Y71.273 E.00829
;WIDTH:0.573286
G1 X70.226 Y71.294 E.00898
;WIDTH:0.614381
G1 X70.429 Y71.314 E.00968
G1 X109.571 Y71.314 E1.85996
G1 X109.774 Y71.294 E.00968
;WIDTH:0.573286
G1 X109.977 Y71.273 E.00898
;WIDTH:0.53219
G1 X110.179 Y71.253 E.00829
;WIDTH:0.491095
G1 X110.382 Y71.232 E.00759
;WIDTH:0.449999
G1 X110.918 Y71.232 E.01814
G1 X110.918 Y71.768 E.01814
;WIDTH:0.491096
G1 X110.897 Y71.971 E.00759
;WIDTH:0.532192
G1 X110.877 Y72.173 E.00829
;WIDTH:0.573289
G1 X110.856 Y72.376 E.00898
;WIDTH:0.614385
G1 X110.836 Y72.579 E.00968
G1 X110.836 Y107.421 E1.65565
;WIDTH:0.621799
G1 X110.832 Y107.592 E.0082
G1 X110.854 Y107.752 E.00777
;WIDTH:0.578849
G1 X110.875 Y107.912 E.0072
;WIDTH:0.535899
G1 X110.896 Y108.072 E.00662
;WIDTH:0.492949
G1 X110.918 Y108.232 E.00604
;WIDTH:0.449999
G1 X110.918 Y108.768 E.01814
G1 X110.382 Y108.768 E.01814
;WIDTH:0.491095
G1 X110.179 Y108.747 E.00759
;WIDTH:0.53219
G1 X109.977 Y108.727 E.00829
;WIDTH:0.573286
G1 X109.774 Y108.706 E.00898
;WIDTH:0.614381
G1 X109.571 Y108.686 E.00968
G1 X70.429 Y108.686 E1.85996
G1 X70.226 Y108.706 E.00968
;WIDTH:0.573286
G1 X70.023 Y108.727 E.00898
;WIDTH:0.53219
G1 X69.821 Y108.747 E.00829
;WIDTH:0.491095
G1 X69.618 Y108.768 E.00759
;WIDTH:0.449999
G1 X69.082 Y108.768 E.01814
G1 X69.082 Y108.232 E.01814
;WIDTH:0.491095
G1 X69.103 Y108.029 E.00759
;WIDTH:0.53219
G1 X69.123 Y107.827 E.00829
;WIDTH:0.573286
G1 X69.144 Y107.624 E.00898
;WIDTH:0.614381
G1 X69.164 Y107.421 E.00968
G1 X69.164 Y106.114 E.06211
G1 X69.736 Y106.114 E.02715
G1 X69.736 Y107.421 E.06211
;WIDTH:0.621795
G1 X69.742 Y107.542 E.0058
G1 X69.806 Y107.62 E.00484
;WIDTH:0.578846
G1 X69.87 Y107.698 E.00448
;WIDTH:0.535897
G1 X69.933 Y107.775 E.00412
;WIDTH:0.492948
G1 X69.997 Y107.853 E.00376
;WIDTH:0.491095
G1 X70.105 Y107.918 E.0047
;WIDTH:0.53219
G1 X70.213 Y107.984 E.00513
;WIDTH:0.573286
G1 X70.321 Y108.049 E.00556
;WIDTH:0.614381
G1 X70.429 Y108.114 E.00599
G1 X109.571 Y108.114 E1.85996
;WIDTH:0.621795
G1 X109.692 Y108.108 E.0058
G1 X109.77 Y108.044 E.00484
;WIDTH:0.578846
G1 X109.848 Y107.98 E.00448
;WIDTH:0.535897
G1 X109.925 Y107.917 E.00412
;WIDTH:0.492948
G1 X110.067 Y107.775 E.00748
;WIDTH:0.535899
G1 X110.13 Y107.698 E.00412
;WIDTH:0.578849
G1 X110.194 Y107.62 E.00448
;WIDTH:0.621799
G1 X110.258 Y107.542 E.00484
G1 X110.264 Y107.421 E.0058
;WIDTH:0.614385
G1 X110.264 Y72.579 E1.65565
G1 X110.199 Y72.471 E.00599
;WIDTH:0.573289
G1 X110.134 Y72.363 E.00556
;WIDTH:0.532192
G1 X110.068 Y72.255 E.00513
;WIDTH:0.491096
G1 X110.003 Y72.147 E.0047
G1 X109.895 Y72.082 E.0047
;WIDTH:0.53219
G1 X109.792 Y72.019 E.00491
M204 P1000
G1 X109.775 Y72.579 F9000
M204 P800
;TYPE:External perimeter
;WIDTH:0.449999
G1 F1800
