; generated by PrusaSlicer 2.5.0+win64 on 2023-04-12 at 17:07:51 UTC


;
;

;
;
; 

; external perimeters extrusion width = 0.45mm
; perimeters extrusion width = 0.45mm
; infill extrusion width = 0.45mm
; solid infill extrusion width = 0.45mm
; top infill extrusion width = 0.40mm
; first layer extrusion width = 0.42mm

M73 P0 R34
M201 X2500 Y2500 Z400 E5000 ; sets maximum accelerations, mm/sec^2
M203 X180 Y180 Z12 E80 ; sets maximum feedrates, mm / sec
M204 P1250 R1250 T2500 ; sets acceleration (P, T) and retract acceleration (R), mm/sec^2
M205 X8.00 Y8.00 Z2.00 E10.00 ; sets the jerk limits, mm/sec
M205 S0 T0 ; sets the minimum extruding and travel feed rate, mm/sec
M107
;TYPE:Custom
M862.3 P "MINI" ; printer model check
G90 ; use absolute coordinates
M83 ; extruder relative mode
M104 S170 ; set extruder temp for bed leveling
M140 S60 ; set bed temp
M109 R170 ; wait for bed leveling temp
M190 S60 ; wait for bed temp
M204 T1250 ; set travel acceleration
G28 ; home all without mesh bed level
G29 ; mesh bed leveling 
M204 T2500 ; restore travel acceleration
M104 S215 ; set extruder temp
G92 E0
G1 Y-2 X179 F2400
G1 Z3 F720
M109 S215 ; wait for extruder temp

; intro line
G1 X170 F1000
G1 Z0.2 F720
G1 X110 E8 F900
G1 X40 E10 F700
G92 E0

M221 S95 ; set flow
G21 ; set units to millimeters
G90 ; use absolute coordinates
M83 ; use relative distances for extrusion
M900 K0.2 ; Filament gcode LA 1.5
; ; Filament gcode LA 1.0
M107
;LAYER_CHANGE
;Z:0.2
;HEIGHT:0.2
;BEFORE_LAYER_CHANGE
G92 E0.0
;0.2


G1 E-3.2 F4200
M73 P0 R33
G1 Z.2 F720
;AFTER_LAYER_CHANGE
;0.2
G1 Z.4
G1 X79.418 Y56.558 F9000
G1 Z.2 F720
G1 E3.2 F2400
M204 P800
;TYPE:Skirt/Brim
;WIDTH:0.42
G1 F1200
G1 X80.392 Y55.602 E.04278
G1 X81.5 Y55.328 E.03578
G1 X83.5 Y55.328 E.06271
G1 X84.729 Y55.671 E.04003
G1 X114.729 Y73.805 E1.09912
G1 X115.645 Y74.816 E.04278
G1 X115.877 Y75.839 E.03289
G1 X115.877 Y77.839 E.06271
G1 X115.559 Y79.027 E.03856
G1 X89.909 Y123.483 E1.60925
G1 X88.916 Y124.419 E.04278
M73 P1 R33
G1 X87.85 Y124.672 E.03437
G1 X75.15 Y124.672 E.3982
G1 X73.843 Y124.28 E.04278
G1 X72.857 Y122.923 E.0526
G1 X64.743 Y93.289 E.96336
G1 X64.262 Y90.857 E.07772
G1 X64.128 Y88.721 E.06711
G1 X64.303 Y86.248 E.07772
G1 X64.827 Y83.825 E.07773
G1 X65.83 Y81.205 E.08797
G1 X79.389 Y56.61 E.88057
M204 P1000
; printing object A00020-PART-25-REV-P1.STL id:0 copy 0
G1 E-2.24 F4200
;WIPE_START
G1 F7200
G1 X80.392 Y55.602 E-.78803
G1 X80.609 Y55.548 E-.12397
;WIPE_END
G1 E-.048 F4200
G1 Z.4 F720
G1 X82.299 Y58.504 F9000
G1 Z.2 F720
G1 E3.2 F2400
M204 P800
;TYPE:Perimeter
;WIDTH:0.444382
G1 F1200
G1 X82.7 Y58.504 E.0134
G1 X82.7 Y69.848 E.37866
;WIDTH:0.450978
G1 X82.78 Y70.632 E.02673
;WIDTH:0.419999
G1 X82.962 Y71.36 E.02355
G1 X83.255 Y72.051 E.02355
G1 X83.712 Y72.756 E.02631
G1 X84.147 Y73.255 E.02076
G1 X84.722 Y73.737 E.02355
G1 X85.287 Y74.083 E.02077
G1 X86.063 Y74.405 E.02632
G1 X86.795 Y74.573 E.02355
G1 X87.491 Y74.626 E.02189
G1 X100.713 Y74.626 E.41455
G1 X100.713 Y76.061 E.04497
G1 X100.826 Y76.4 E.01122
;WIDTH:0.444381
G1 X101.278 Y76.638 E.01707
G1 X112.7 Y76.638 E.38129
G1 X112.7 Y76.839 E.0067
G1 X112.7 Y77.04 E.0067
G1 X100.5 Y77.052 E.40728
;WIDTH:0.419999
G1 X91.696 Y77.052 E.27604
G1 X91.461 Y77.103 E.00753
G1 X91.282 Y77.232 E.00691
G1 X91.178 Y77.39 E.00592
G1 X91.021 Y77.792 E.01354
G1 X91.03 Y78.014 E.00698
G1 X91.162 Y78.264 E.00885
G1 X92.627 Y79.866 E.06806
G1 X93.743 Y81.491 E.06182
G1 X94.624 Y83.255 E.06182
G1 X95.252 Y85.123 E.06182
G1 X95.615 Y87.061 E.06182
G1 X95.707 Y89.031 E.06182
G1 X95.525 Y90.994 E.06182
G1 X95.073 Y92.913 E.06182
G1 X94.361 Y94.751 E.06182
G1 X93.4 Y96.473 E.06182
G1 X92.21 Y98.045 E.06182
G1 X90.815 Y99.438 E.06182
G1 X89.24 Y100.623 E.06182
G1 X87.323 Y101.689 E.06876
G1 X87.133 Y101.891 E.00868
G1 X87.063 Y102.164 E.00887
G1 X87.063 Y121.508 E.60649
G1 X75.937 Y121.508 E.34884
G1 X75.935 Y102.117 E.60799
G1 X75.835 Y101.841 E.0092
G1 X75.647 Y101.671 E.00796
G1 X73.712 Y100.593 E.06943
G1 X72.1 Y99.363 E.06358
G1 X70.679 Y97.917 E.06358
G1 X69.478 Y96.283 E.06358
G1 X68.521 Y94.494 E.06358
G1 X67.83 Y92.588 E.06358
G1 X67.416 Y90.603 E.06358
G1 X67.289 Y88.579 E.06358
G1 X67.452 Y86.558 E.06358
G1 X67.901 Y84.58 E.06358
G1 X68.626 Y82.687 E.06358
G1 X69.609 Y80.924 E.06329
G1 X70.844 Y79.303 E.06388
G1 X72.29 Y77.882 E.06358
G1 X73.925 Y76.681 E.06358
G1 X75.713 Y75.726 E.06358
G1 X77.62 Y75.034 E.06358
G1 X79.836 Y74.573 E.071
G1 X80.077 Y74.459 E.00835
G1 X80.247 Y74.227 E.00903
G1 X80.287 Y74.019 E.00662
G1 X80.287 Y70.492 E.11059
G1 X81.793 Y70.488 E.04721
G1 X82.13 Y70.318 E.01185
;WIDTH:0.450978
G1 X82.3 Y69.982 E.01276
G1 X82.299 Y69.848 E.00455
;WIDTH:0.444382
G1 X82.299 Y58.564 E.37666
M204 P1000
G1 X81.91 Y58.115 F9000
M204 P800
;TYPE:External perimeter
;WIDTH:0.419999
G1 F1200
G1 X83.09 Y58.115 E.037
G1 X83.09 Y69.848 E.36787
G1 X83.146 Y70.544 E.02189
G1 X83.31 Y71.216 E.0217
G1 X83.577 Y71.854 E.0217
G1 X83.998 Y72.511 E.02446
G1 X84.392 Y72.968 E.01891
G1 X84.919 Y73.416 E.0217
G1 X85.674 Y73.843 E.0272
G1 X86.151 Y74.038 E.01614
G1 X86.824 Y74.197 E.0217
G1 X87.491 Y74.249 E.02096
G1 X101.09 Y74.249 E.42638
G1 X101.09 Y75.839 E.04985
G1 X101.127 Y76.174 E.01056
G1 X101.278 Y76.249 E.00529
G1 X113.09 Y76.249 E.37034
G1 X113.09 Y77.429 E.037
G1 X91.696 Y77.429 E.67079
G1 X91.558 Y77.489 E.00471
G1 X91.393 Y77.852 E.0125
G1 X91.44 Y78.009 E.00515
G1 X92.923 Y79.63 E.06888
G1 X94.069 Y81.299 E.06346
G1 X94.973 Y83.11 E.06346
G1 X95.618 Y85.028 E.06346
G1 X95.991 Y87.018 E.06346
G1 X96.085 Y89.039 E.06346
G1 X95.898 Y91.055 E.06346
G1 X95.435 Y93.025 E.06346
G1 X94.703 Y94.912 E.06346
G1 X93.717 Y96.679 E.06346
G1 X92.495 Y98.294 E.06346
G1 X91.062 Y99.723 E.06346
G1 X89.446 Y100.94 E.06346
M73 P2 R33
G1 X87.554 Y101.99 E.06782
G1 X87.511 Y102.017 E.00159
G1 X87.44 Y102.164 E.00515
G1 X87.44 Y121.885 E.61832
G1 X75.56 Y121.885 E.37249
G1 X75.557 Y102.134 E.61928
G1 X75.463 Y102 E.00513
G1 X73.505 Y100.909 E.07027
G1 X71.85 Y99.647 E.06527
G1 X70.391 Y98.162 E.06527
G1 X69.158 Y96.484 E.06527
G1 X68.176 Y94.648 E.06527
G1 X67.466 Y92.692 E.06527
G1 X67.041 Y90.653 E.06527
G1 X66.911 Y88.576 E.06527
G1 X67.078 Y86.501 E.06527
G1 X67.539 Y84.47 E.06527
G1 X68.284 Y82.526 E.06527
G1 X69.293 Y80.716 E.06498
G1 X70.56 Y79.053 E.06557
G1 X72.045 Y77.594 E.06527
G1 X73.723 Y76.362 E.06527
G1 X75.559 Y75.38 E.06527
G1 X77.516 Y74.671 E.06527
G1 X79.161 Y74.328 E.05267
G1 X79.84 Y74.166 E.02189
G1 X79.91 Y74.019 E.00509
G1 X79.91 Y70.115 E.12241
G1 X81.675 Y70.115 E.05534
G1 X81.835 Y70.077 E.00518
G1 X81.91 Y69.927 E.00525
G1 X81.91 Y58.175 E.36846
M204 P1000
G1 X82.256 Y58.316 F9000
G1 E-2.24 F4200
;WIPE_START
G1 F7200
G1 X83.09 Y58.115 E-.65476
G1 X83.09 Y58.579 E-.25724
;WIPE_END
G1 E-.048 F4200
G1 Z.4 F720
G1 X80.394 Y79.993 F9000
G1 Z.2 F720
G1 E3.2 F2400
M204 P800
;TYPE:Perimeter
G1 F1200
G1 X81.825 Y79.925 E.0449
G1 X83.304 Y80.106 E.04672
G1 X83.862 Y80.269 E.01822
G1 X84.785 Y80.555 E.0303
G1 X86.147 Y81.249 E.04794
G1 X87.268 Y82.078 E.04373
G1 X88.305 Y83.148 E.04672
G1 X89.193 Y84.462 E.04972
G1 X89.768 Y85.733 E.04373
G1 X90.151 Y87.173 E.04672
G1 X90.196 Y87.607 E.01369
G1 X90.286 Y88.753 E.03603
G1 X90.167 Y90.147 E.04386
G1 X89.8 Y91.587 E.04659
G1 X89.193 Y92.948 E.04672
G1 X88.366 Y94.187 E.04672
G1 X87.34 Y95.269 E.04672
G1 X86.065 Y96.212 E.04972
G1 X84.817 Y96.841 E.04383
G1 X83.398 Y97.284 E.04662
G1 X81.921 Y97.481 E.04672
G1 X80.336 Y97.414 E.04972
G1 X78.973 Y97.12 E.04373
G1 X77.501 Y96.529 E.04972
G1 X76.314 Y95.798 E.04373
G1 X75.704 Y95.272 E.02524
G1 X75.19 Y94.819 E.02149
G1 X74.247 Y93.665 E.04672
G1 X73.514 Y92.368 E.04672
G1 X73.008 Y90.961 E.04686
G1 X72.75 Y89.498 E.04659
G1 X72.741 Y88.008 E.04672
G1 X72.985 Y86.538 E.04672
G1 X73.474 Y85.13 E.04672
G1 X74.247 Y83.746 E.04972
G1 X75.124 Y82.661 E.04373
G1 X76.237 Y81.67 E.04672
G1 X76.807 Y81.309 E.02116
G1 X77.501 Y80.882 E.02557
G1 X78.881 Y80.319 E.04672
G1 X80.335 Y79.997 E.04667
M204 P1000
G1 X80.417 Y80.365 F9000
M204 P800
;TYPE:External perimeter
G1 F1200
G1 X81.841 Y80.302 E.04468
G1 X83.256 Y80.48 E.04473
G1 X84.639 Y80.902 E.04532
G1 X85.923 Y81.552 E.04513
G1 X87.068 Y82.403 E.04473
G1 X88.053 Y83.434 E.04473
G1 X88.85 Y84.618 E.04473
G1 X89.424 Y85.888 E.04373
G1 X89.786 Y87.268 E.04473
G1 X89.91 Y88.721 E.04572
G1 X89.786 Y90.142 E.04473
G1 X89.435 Y91.492 E.04373
G1 X88.85 Y92.793 E.04473
G1 X88.547 Y93.246 E.01708
G1 X88.053 Y93.976 E.02765
G1 X87.068 Y95.008 E.04473
G1 X85.923 Y95.858 E.04473
G1 X84.649 Y96.503 E.04476
G1 X83.287 Y96.923 E.04469
G1 X81.873 Y97.107 E.04473
G1 X80.416 Y97.045 E.04572
G1 X79.052 Y96.751 E.04373
G1 X77.728 Y96.222 E.04473
G1 X76.512 Y95.476 E.04473
G1 X75.439 Y94.536 E.04473
G1 X74.541 Y93.428 E.04473
G1 X73.843 Y92.184 E.04473
G1 X73.357 Y90.809 E.04572
G1 X73.121 Y89.434 E.04373
G1 X73.119 Y88.008 E.04473
G1 X73.204 Y87.494 E.01634
G1 X73.357 Y86.602 E.02839
G1 X73.83 Y85.256 E.04473
G1 X74.523 Y84.009 E.04473
G1 X75.417 Y82.897 E.04473
G1 X76.486 Y81.953 E.04473
G1 X77.699 Y81.203 E.04473
G1 X77.977 Y81.088 E.00944
G1 X79.052 Y80.659 E.03629
G1 X80.358 Y80.378 E.04189
M204 P1000
G1 X80.572 Y79.996 F9000
G1 E-3.2 F4200
G1 Z.4 F720
G1 X100.6 Y75.506 F9000
G1 Z.2 F720
G1 E3.2 F2400
M204 P800
;TYPE:Solid infill
;WIDTH:0.421888
G1 F1200
G1 X100.003 Y74.909 E.02659
G1 X99.467 Y74.909 E.01689
G1 X100.6 Y76.042 E.05047
M204 P1000
G1 X100.947 Y76.925 F9000
M204 P800
G1 F1200
G1 X98.931 Y74.909 E.08984
G1 X98.395 Y74.909 E.01689
G1 X100.255 Y76.769 E.0829
G1 X99.719 Y76.769 E.01689
G1 X97.859 Y74.909 E.0829
G1 X97.323 Y74.909 E.01689
G1 X99.183 Y76.769 E.0829
G1 X98.648 Y76.769 E.01689
G1 X96.787 Y74.909 E.0829
G1 X96.251 Y74.909 E.01689
G1 X98.112 Y76.769 E.0829
G1 X97.576 Y76.769 E.01689
G1 X95.715 Y74.909 E.0829
G1 X95.179 Y74.909 E.01689
G1 X97.04 Y76.769 E.0829
G1 X96.504 Y76.769 E.01689
G1 X94.644 Y74.909 E.0829
G1 X94.108 Y74.909 E.01689
G1 X95.968 Y76.769 E.0829
G1 X95.432 Y76.769 E.01689
G1 X93.572 Y74.909 E.0829
G1 X93.036 Y74.909 E.01689
G1 X94.896 Y76.769 E.0829
G1 X94.36 Y76.769 E.01689
G1 X92.5 Y74.909 E.0829
G1 X91.964 Y74.909 E.01689
G1 X93.824 Y76.769 E.0829
G1 X93.288 Y76.769 E.01689
G1 X91.428 Y74.909 E.0829
G1 X90.892 Y74.909 E.01689
G1 X92.752 Y76.769 E.0829
G1 X92.216 Y76.769 E.01689
G1 X90.356 Y74.909 E.0829
G1 X89.82 Y74.909 E.01689
G1 X91.681 Y76.77 E.08294
G1 X91.547 Y76.782 E.00423
G1 X91.34 Y76.846 E.00683
G1 X91.271 Y76.896 E.00269
G1 X89.284 Y74.909 E.08854
G1 X88.748 Y74.909 E.01689
G1 X90.996 Y77.157 E.10018
G1 X90.923 Y77.268 E.0042
G1 X90.815 Y77.512 E.00839
G1 X88.212 Y74.909 E.116
G1 X87.676 Y74.909 E.01689
G1 X90.739 Y77.972 E.1365
G1 X90.807 Y78.236 E.00858
G1 X90.897 Y78.387 E.00555
G1 X92.405 Y80.042 E.07054
G1 X92.694 Y80.463 E.01608
G1 X87.111 Y74.879 E.24881
G1 X86.708 Y74.848 E.01274
G1 X86.492 Y74.796 E.007
G1 X93.668 Y81.972 E.31979
G1 X94.202 Y83.042 E.0377
G1 X85.43 Y74.27 E.39092
M204 P1000
G1 E-3.2 F4200
G1 Z.4 F720
G1 X82.148 Y70.452 F9000
G1 Z.2 F720
G1 E3.2 F2400
M204 P800
G1 F1200
G1 X82.551 Y70.856 E.01796
G1 X82.689 Y71.44 E.01893
G1 X82.752 Y71.593 E.0052
G1 X81.901 Y70.742 E.03791
G1 X81.835 Y70.769 E.00225
G1 X81.394 Y70.771 E.01389
G1 X94.552 Y83.929 E.58635
G1 X94.823 Y84.736 E.02683
G1 X80.861 Y70.773 E.62222
G1 X80.57 Y70.775 E.00918
G1 X80.57 Y71.018 E.00767
M73 P3 R33
G1 X95.031 Y85.479 E.64445
G1 X95.155 Y86.139 E.02115
G1 X80.57 Y71.554 E.64997
G1 X80.57 Y72.09 E.01689
G1 X95.278 Y86.799 E.65548
G1 X95.334 Y87.094 E.00947
G1 X95.348 Y87.404 E.00979
G1 X80.57 Y72.626 E.65859
G1 X80.57 Y73.162 E.01689
G1 X95.374 Y87.967 E.65976
G1 X95.401 Y88.529 E.01773
G1 X80.57 Y73.698 E.66092
G1 X80.57 Y74.024 E.0103
G1 X80.547 Y74.211 E.00593
G1 X95.418 Y89.082 E.66271
G1 X95.373 Y89.573 E.01552
G1 X80.365 Y74.565 E.6688
G1 X80.255 Y74.68 E.00501
G1 X80.061 Y74.797 E.00714
G1 X86.234 Y80.97 E.2751
G1 X87.503 Y81.905 E.04968
G1 X88.571 Y83.023 E.04872
G1 X89.137 Y83.873 E.03219
G1 X95.327 Y90.063 E.27585
G1 X95.282 Y90.554 E.01552
G1 X89.758 Y85.03 E.24616
G1 X90.056 Y85.694 E.02295
G1 X90.117 Y85.924 E.00749
G1 X95.225 Y91.033 E.22767
G1 X95.123 Y91.467 E.01404
G1 X90.307 Y86.65 E.21465
G1 X90.427 Y87.109 E.01495
G1 X90.447 Y87.326 E.00687
G1 X95.021 Y91.901 E.20386
G1 X94.919 Y92.335 E.01404
G1 X90.501 Y87.916 E.1969
G1 X90.555 Y88.507 E.01867
M73 P3 R32
G1 X94.817 Y92.769 E.18993
G1 X94.674 Y93.161 E.01317
G1 X90.541 Y89.028 E.18419
G1 X90.5 Y89.524 E.01567
G1 X94.524 Y93.547 E.17932
G1 X94.374 Y93.934 E.01305
G1 X90.46 Y90.019 E.17445
G1 X90.444 Y90.217 E.00625
G1 X90.377 Y90.472 E.00832
G1 X94.224 Y94.32 E.17146
G1 X94.066 Y94.698 E.01291
G1 X90.266 Y90.898 E.16935
G1 X90.156 Y91.323 E.01385
G1 X93.875 Y95.042 E.16573
G1 X93.683 Y95.386 E.01241
G1 X90.045 Y91.748 E.16212
G1 X89.878 Y92.117 E.01276
G1 X93.491 Y95.73 E.16101
G1 X93.299 Y96.074 E.01241
G1 X89.711 Y92.486 E.1599
G1 X89.543 Y92.854 E.01276
G1 X93.096 Y96.407 E.1583
G1 X92.865 Y96.712 E.01206
G1 X89.363 Y93.21 E.15603
G1 X89.146 Y93.529 E.01215
G1 X92.634 Y97.017 E.15544
G1 X92.403 Y97.322 E.01206
G1 X88.928 Y93.847 E.15485
G1 X88.711 Y94.165 E.01215
G1 X92.172 Y97.627 E.15426
G1 X91.997 Y97.859 E.00916
G1 X91.932 Y97.923 E.00287
G1 X88.489 Y94.479 E.15347
G1 X88.225 Y94.752 E.01194
G1 X91.664 Y98.191 E.15324
G1 X91.396 Y98.458 E.01194
G1 X87.962 Y95.025 E.15301
G1 X87.699 Y95.298 E.01194
G1 X91.128 Y98.726 E.15277
G1 X90.859 Y98.994 E.01194
G1 X87.429 Y95.563 E.15287
G1 X87.121 Y95.792 E.01207
G1 X90.586 Y99.256 E.15439
G1 X90.28 Y99.486 E.01206
G1 X86.813 Y96.02 E.15448
G1 X86.505 Y96.248 E.01207
G1 X89.974 Y99.716 E.15458
G1 X89.668 Y99.947 E.01206
G1 X86.181 Y96.459 E.15542
G1 X85.827 Y96.641 E.01254
G1 X89.363 Y100.177 E.15758
G1 X89.085 Y100.386 E.01094
G1 X89.053 Y100.404 E.00115
G1 X85.473 Y96.823 E.15958
G1 X85.118 Y97.004 E.01254
G1 X88.709 Y100.595 E.16001
G1 X88.365 Y100.787 E.01242
G1 X84.737 Y97.159 E.16166
G1 X84.328 Y97.286 E.01349
G1 X88.02 Y100.978 E.16452
G1 X87.676 Y101.17 E.01242
G1 X83.92 Y97.414 E.16739
G1 X83.511 Y97.541 E.01349
G1 X87.332 Y101.361 E.17025
G1 X87.154 Y101.46 E.0064
M73 P4 R32
G1 X87.017 Y101.583 E.0058
G1 X83.053 Y97.619 E.17665
G1 X82.579 Y97.681 E.01508
G1 X86.82 Y101.921 E.18898
G1 X86.78 Y102.156 E.00752
G1 X86.78 Y102.417 E.00822
G1 X82.104 Y97.742 E.20835
G1 X81.926 Y97.765 E.00567
G1 X81.578 Y97.751 E.01098
G1 X86.78 Y102.953 E.23182
G1 X86.78 Y103.489 E.01689
G1 X81.02 Y97.73 E.25668
G1 X80.462 Y97.708 E.01759
G1 X86.78 Y104.025 E.28154
G1 X86.78 Y104.561 E.01689
G1 X79.804 Y97.585 E.31087
G1 X79.121 Y97.438 E.02201
G1 X86.78 Y105.097 E.3413
G1 X86.78 Y105.633 E.01689
G1 X78.309 Y97.163 E.37748
G1 X77.41 Y96.799 E.03057
G1 X86.95 Y106.339 E.42513
M204 P1000
G1 E-2.24 F4200
;WIPE_START
G1 F7200
G1 X85.786 Y105.175 E-.912
;WIPE_END
G1 E-.048 F4200
G1 Z.4 F720
G1 X89.578 Y91.559 F9000
G1 X89.944 Y90.153
G1 X90.067 Y88.705
G1 X89.944 Y87.257
G1 X89.578 Y85.851
G1 X88.979 Y84.527
G1 X88.166 Y83.323
G1 X87.16 Y82.274
G1 X85.992 Y81.409
G1 X85.616 Y81.22
G1 X85.397 Y81.109
G1 X85.544 Y80.816
G1 Z.2 F720
G1 E3.2 F2400
M204 P800
G1 F1200
G1 X79.632 Y74.904 E.26346
G1 X79.189 Y74.997 E.01428
G1 X84.302 Y80.109 E.22785
G1 X83.533 Y79.877 E.02531
G1 X78.745 Y75.089 E.21336
G1 X78.302 Y75.181 E.01428
G1 X82.891 Y79.77 E.2045
G1 X82.276 Y79.692 E.01951
G1 X77.858 Y75.274 E.19691
G1 X77.697 Y75.307 E.00518
G1 X77.446 Y75.398 E.0084
G1 X81.698 Y79.65 E.18948
G1 X81.182 Y79.67 E.01627
G1 X77.053 Y75.541 E.184
G1 X76.66 Y75.683 E.01318
G1 X80.673 Y79.697 E.17885
G1 X80.289 Y79.717 E.01212
G1 X80.181 Y79.741 E.00348
G1 X76.266 Y75.826 E.17446
G1 X75.873 Y75.969 E.01318
G1 X79.74 Y79.836 E.17234
G1 X79.3 Y79.931 E.01421
G1 X75.519 Y76.15 E.16848
G1 X75.17 Y76.337 E.01248
G1 X78.863 Y80.031 E.16461
G1 X78.479 Y80.182 E.01302
G1 X74.82 Y76.524 E.16305
G1 X74.471 Y76.71 E.01248
G1 X78.095 Y80.334 E.16149
G1 X77.711 Y80.486 E.01302
G1 X74.122 Y76.897 E.15993
G1 X73.808 Y77.119 E.01212
G1 X77.346 Y80.657 E.15769
G1 X77.013 Y80.86 E.01229
G1 X73.499 Y77.345 E.15661
G1 X73.19 Y77.572 E.01208
G1 X76.68 Y81.063 E.15553
