; generated by PrusaSlicer 2.5.0+win64 on 2023-04-12 at 03:44:54 UTC


;
;

;
;
; 

; external perimeters extrusion width = 0.45mm
; perimeters extrusion width = 0.45mm
; infill extrusion width = 0.45mm
; solid infill extrusion width = 0.45mm
; top infill extrusion width = 0.40mm
; first layer extrusion width = 0.42mm

M73 P0 R21
M201 X2500 Y2500 Z400 E5000 ; sets maximum accelerations, mm/sec^2
M203 X180 Y180 Z12 E80 ; sets maximum feedrates, mm / sec
M204 P1250 R1250 T2500 ; sets acceleration (P, T) and retract acceleration (R), mm/sec^2
M205 X8.00 Y8.00 Z2.00 E10.00 ; sets the jerk limits, mm/sec
M205 S0 T0 ; sets the minimum extruding and travel feed rate, mm/sec
M107
;TYPE:Custom
M862.3 P "MINI" ; printer model check
G90 ; use absolute coordinates
M83 ; extruder relative mode
M104 S170 ; set extruder temp for bed leveling
M140 S60 ; set bed temp
M109 R170 ; wait for bed leveling temp
M190 S60 ; wait for bed temp
M204 T1250 ; set travel acceleration
G28 ; home all without mesh bed level
G29 ; mesh bed leveling 
M204 T2500 ; restore travel acceleration
M104 S215 ; set extruder temp
G92 E0
G1 Y-2 X179 F2400
G1 Z3 F720
M109 S215 ; wait for extruder temp

; intro line
G1 X170 F1000
G1 Z0.2 F720
M73 P0 R20
G1 X110 E8 F900
G1 X40 E10 F700
G92 E0

M221 S95 ; set flow
G21 ; set units to millimeters
G90 ; use absolute coordinates
M83 ; use relative distances for extrusion
M900 K0.2 ; Filament gcode LA 1.5
; ; Filament gcode LA 1.0
M107
;LAYER_CHANGE
;Z:0.2
;HEIGHT:0.2
;BEFORE_LAYER_CHANGE
G92 E0.0
;0.2


G1 E-3.2 F4200
M73 P1 R20
G1 Z.2 F720
;AFTER_LAYER_CHANGE
;0.2
G1 Z.4
G1 X64.211 Y62.99 F9000
G1 Z.2 F720
G1 E3.2 F2400
M204 P800
;TYPE:Skirt/Brim
;WIDTH:0.42
G1 F1200
G1 X64.703 Y62.489 E.02201
G1 X67.666 Y60.033 E.12065
G1 X70.865 Y57.896 E.12065
G1 X74.267 Y56.098 E.12065
G1 X77.837 Y54.661 E.12065
G1 X81.535 Y53.597 E.12065
G1 X85.323 Y52.92 E.12065
G1 X88.915 Y52.642 E.11299
G1 X92.762 Y52.728 E.12065
G1 X96.58 Y53.21 E.12065
G1 X100.047 Y54.015 E.11161
G1 X104.193 Y55.426 E.13731
G1 X107.673 Y57.068 E.12065
G1 X110.965 Y59.06 E.12065
G1 X113.978 Y61.328 E.11824
G1 X116.851 Y64.003 E.12307
G1 X119.382 Y66.901 E.12065
G1 X121.601 Y70.045 E.12065
G1 X123.485 Y73.4 E.12065
G1 X125.015 Y76.931 E.12065
G1 X126.173 Y80.6 E.12065
G1 X126.948 Y84.369 E.12065
G1 X127.33 Y88.137 E.11874
G1 X127.33 Y91.863 E.11682
G1 X126.948 Y95.631 E.11874
G1 X126.173 Y99.4 E.12065
G1 X125.015 Y103.069 E.12065
G1 X123.485 Y106.6 E.12065
G1 X121.601 Y109.955 E.12065
G1 X119.294 Y113.214 E.1252
G1 X116.8 Y116.053 E.11849
G1 X114.035 Y118.62 E.11828
G1 X110.965 Y120.94 E.12065
G1 X107.673 Y122.932 E.12065
G1 X104.193 Y124.574 E.12065
G1 X100.563 Y125.85 E.12065
G1 X96.821 Y126.746 E.12065
G1 X93.006 Y127.253 E.12065
G1 X88.915 Y127.358 E.12831
G1 X85.08 Y127.049 E.12065
G1 X81.297 Y126.347 E.12065
G1 X77.668 Y125.284 E.11854
G1 X74.046 Y123.798 E.12276
G1 X70.655 Y121.978 E.12065
G1 X67.47 Y119.82 E.12065
G1 X64.523 Y117.345 E.12065
G1 X61.921 Y114.67 E.117
G1 X59.607 Y111.75 E.11682
G1 X57.534 Y108.515 E.12047
M73 P2 R20
G1 X55.803 Y105.079 E.12065
G1 X54.433 Y101.483 E.12065
G1 X53.441 Y97.765 E.12065
G1 X52.837 Y93.965 E.12065
G1 X52.626 Y90.122 E.12065
G1 X52.812 Y86.279 E.12065
G1 X53.391 Y82.475 E.12065
G1 X54.359 Y78.751 E.12065
G1 X55.705 Y75.146 E.12065
G1 X57.414 Y71.698 E.12065
G1 X59.61 Y68.245 E.12831
G1 X62.008 Y65.236 E.12065
G1 X64.169 Y63.033 E.09676
M204 P1000
; printing object A00020-PART-12-REV-P1.STL id:0 copy 0
G1 E-2.24 F4200
;WIPE_START
G1 F7200
G1 X64.703 Y62.489 E-.42222
G1 X65.383 Y61.925 E-.48978
;WIPE_END
G1 E-.048 F4200
G1 Z.4 F720
G1 X66.761 Y64.892 F9000
G1 Z.2 F720
G1 E3.2 F2400
M204 P800
;TYPE:Perimeter
;WIDTH:0.419999
G1 F1200
G1 X69.466 Y62.636 E.11044
G1 X72.388 Y60.67 E.11044
G1 X75.497 Y59.014 E.11044
G1 X78.76 Y57.687 E.11044
G1 X80.357 Y57.222 E.05214
G1 X80.685 Y57.11 E.01089
;WIDTH:0.386762
G1 X81.014 Y56.997 E.00993
;WIDTH:0.38986
G1 X81.596 Y56.846 E.01735
;WIDTH:0.419999
G1 X82.142 Y56.703 E.01771
G1 X85.607 Y56.071 E.11044
G1 X89.119 Y55.799 E.11044
G1 X92.64 Y55.89 E.11044
G1 X96.134 Y56.342 E.11044
G1 X99.562 Y57.151 E.11044
G1 X102.889 Y58.309 E.11044
G1 X106.079 Y59.802 E.11044
G1 X109.099 Y61.615 E.11044
G1 X111.925 Y63.736 E.11079
G1 X113.023 Y64.7 E.04581
G1 X114.496 Y66.116 E.06408
G1 X116.826 Y68.768 E.11068
G1 X118.327 Y70.856 E.08063
;WIDTH:0.39367
G1 X118.542 Y71.135 E.01027
;WIDTH:0.383681
G1 X118.913 Y71.682 E.01873
;WIDTH:0.419999
G1 X119.156 Y72.149 E.01651
G1 X120.602 Y74.704 E.09205
G1 X122.013 Y77.932 E.11044
G1 X123.084 Y81.287 E.11044
G1 X123.804 Y84.735 E.11044
G1 X124.168 Y88.249 E.11076
G1 X124.211 Y90.07 E.05711
G1 X124.168 Y91.751 E.05273
G1 X123.804 Y95.265 E.11076
G1 X123.084 Y98.713 E.11044
G1 X122.013 Y102.068 E.11044
G1 X120.602 Y105.296 E.11044
G1 X118.867 Y108.361 E.11044
G1 X116.846 Y111.205 E.1094
;WIDTH:0.394424
G1 X116.638 Y111.498 E.01048
;WIDTH:0.402277
G1 X116.168 Y112.032 E.02126
;WIDTH:0.419999
G1 X115.683 Y112.597 E.02334
G1 X114.508 Y113.871 E.05434
G1 X111.916 Y116.271 E.11076
G1 X109.099 Y118.385 E.11044
G1 X106.079 Y120.198 E.11044
G1 X102.889 Y121.691 E.11044
G1 X99.562 Y122.849 E.11044
G1 X96.134 Y123.658 E.11044
G1 X92.64 Y124.11 E.11044
G1 X89.119 Y124.201 E.11044
G1 X85.607 Y123.929 E.11044
G1 X82.142 Y123.297 E.11044
G1 X78.744 Y122.307 E.11098
G1 X78.254 Y122.121 E.01642
;WIDTH:0.394675
G1 X77.705 Y121.922 E.01707
;WIDTH:0.392185
G1 X77.179 Y121.685 E.01677
;WIDTH:0.419999
G1 X75.497 Y120.986 E.05711
G1 X72.388 Y119.33 E.11044
G1 X69.466 Y117.364 E.11044
G1 X66.761 Y115.108 E.11042
G1 X64.204 Y112.473 E.11514
G1 X62.117 Y109.824 E.10573
G1 X60.226 Y106.851 E.11047
G1 X58.651 Y103.7 E.11044
G1 X57.409 Y100.404 E.11044
G1 X56.512 Y96.998 E.11044
G1 X55.969 Y93.518 E.11044
G1 X55.788 Y90 E.11044
G1 X55.845 Y88.899 E.03458
G1 X55.842 Y88.59 E.00966
;WIDTH:0.383347
G1 X55.84 Y88.282 E.00872
;WIDTH:0.376553
G1 X55.883 Y87.739 E.01511
;WIDTH:0.419999
G1 X55.969 Y86.482 E.03951
G1 X56.512 Y83.002 E.11044
G1 X57.409 Y79.596 E.11044
M73 P3 R20
G1 X58.651 Y76.3 E.11044
G1 X60.227 Y73.148 E.11048
G1 X62.114 Y70.18 E.11028
G1 X64.302 Y67.415 E.11056
G1 X66.719 Y64.935 E.10856
M204 P1000
G1 X66.504 Y64.615 F9000
M204 P800
;TYPE:External perimeter
G1 F1200
G1 X69.239 Y62.334 E.11166
G1 X72.194 Y60.346 E.11166
G1 X75.337 Y58.672 E.11166
G1 X78.636 Y57.331 E.11166
G1 X82.055 Y56.335 E.11166
G1 X85.559 Y55.697 E.11166
G1 X89.109 Y55.422 E.11166
G1 X92.669 Y55.514 E.11166
G1 X96.201 Y55.971 E.11166
G1 X99.667 Y56.789 E.11166
G1 X103.031 Y57.959 E.11166
G1 X106.256 Y59.469 E.11166
G1 X109.309 Y61.302 E.11166
G1 X112.163 Y63.443 E.11185
G1 X113.278 Y64.422 E.04653
G1 X114.769 Y65.856 E.06485
G1 X117.122 Y68.533 E.11178
G1 X119.186 Y71.436 E.11166
G1 X120.94 Y74.535 E.11166
G1 X122.366 Y77.798 E.11166
G1 X123.449 Y81.191 E.11166
G1 X124.177 Y84.677 E.11166
G1 X124.544 Y88.225 E.11183
G1 X124.588 Y90.08 E.05818
G1 X124.544 Y91.775 E.05319
G1 X124.177 Y95.323 E.11183
G1 X123.449 Y98.809 E.11166
G1 X122.366 Y102.202 E.11166
G1 X120.94 Y105.465 E.11166
G1 X119.186 Y108.564 E.11166
G1 X117.118 Y111.472 E.11187
G1 X115.966 Y112.846 E.05622
G1 X114.775 Y114.138 E.05509
G1 X112.158 Y116.561 E.11184
G1 X109.309 Y118.698 E.11166
G1 X106.256 Y120.531 E.11166
G1 X103.031 Y122.041 E.11166
G1 X99.667 Y123.211 E.11166
G1 X96.201 Y124.029 E.11166
G1 X92.669 Y124.486 E.11166
G1 X89.109 Y124.578 E.11166
G1 X85.559 Y124.303 E.11166
G1 X82.055 Y123.665 E.11166
G1 X78.633 Y122.669 E.11175
G1 X75.337 Y121.328 E.11157
G1 X72.194 Y119.654 E.11166
G1 X69.239 Y117.666 E.11166
G1 X66.504 Y115.385 E.11165
G1 X63.92 Y112.721 E.11637
G1 X61.809 Y110.042 E.10694
G1 X59.897 Y107.037 E.11167
G1 X58.305 Y103.851 E.11166
G1 X57.049 Y100.519 E.11166
G1 X56.142 Y97.075 E.11166
G1 X55.594 Y93.557 E.11166
G1 X55.411 Y90 E.11166
G1 X55.594 Y86.443 E.11166
G1 X56.142 Y82.925 E.11166
G1 X57.049 Y79.481 E.11166
G1 X58.305 Y76.149 E.11166
G1 X59.898 Y72.962 E.1117
G1 X61.806 Y69.961 E.1115
G1 X64.019 Y67.166 E.11178
G1 X66.462 Y64.658 E.10978
M204 P1000
G1 X66.886 Y64.734 F9000
G1 E-2.24 F4200
;WIPE_START
G1 F7200
G1 X67.724 Y63.602 E-.912
;WIPE_END
G1 E-.048 F4200
G1 Z.4 F720
G1 X67.822 Y63.719 F9000
G1 X84.473 Y68.14
G1 X87.054 Y67.626
G1 X90 Y67.433
G1 X92.946 Y67.626
G1 X95.841 Y68.202
G1 X98.636 Y69.151
G1 X101.283 Y70.456
G1 X103.738 Y72.096
M73 P4 R20
G1 X105.957 Y74.043
G1 X107.904 Y76.262
G1 X109.544 Y78.717
G1 X110.849 Y81.364
G1 X111.798 Y84.159
G1 X112.192 Y86.139
G1 X116.541 Y88.501
G1 X116.464 Y88.305
G1 Z.2 F720
G1 E3.2 F2400
M204 P800
;TYPE:Perimeter
G1 F1200
G1 X116.515 Y88.28 E.00178
G1 X117.014 Y88.217 E.01577
G1 X117.468 Y88.28 E.01438
G1 X117.953 Y88.487 E.01654
G1 X118.39 Y88.875 E.0183
G1 X118.646 Y89.317 E.01603
G1 X118.78 Y89.904 E.01889
G1 X118.788 Y90.015 E.00346
G1 X118.707 Y90.519 E.01602
G1 X118.445 Y91.044 E.01838
G1 X118.015 Y91.465 E.01889
G1 X117.523 Y91.698 E.01703
G1 X117.282 Y91.76 E.00783
G1 X116.779 Y91.774 E.01577
G1 X116.284 Y91.632 E.01613
G1 X115.823 Y91.336 E.01719
G1 X115.426 Y90.832 E.0201
G1 X115.339 Y90.646 E.00646
G1 X115.217 Y90.108 E.01731
G1 X115.288 Y89.52 E.01856
G1 X115.466 Y89.096 E.01442
G1 X115.579 Y88.924 E.00646
G1 X115.959 Y88.547 E.01681
G1 X116.41 Y88.331 E.01566
M204 P1000
G1 X116.613 Y88.645 F9000
M204 P800
;TYPE:External perimeter
G1 F1200
G1 X116.982 Y88.592 E.01167
G1 X117.391 Y88.656 E.01299
G1 X117.765 Y88.818 E.01279
G1 X118.116 Y89.14 E.01493
G1 X118.338 Y89.561 E.01493
G1 X118.411 Y90.005 E.0141
G1 X118.317 Y90.499 E.01577
G1 X118.076 Y90.909 E.01493
G1 X117.711 Y91.216 E.01493
G1 X117.266 Y91.383 E.01493
G1 X116.79 Y91.393 E.01493
G1 X116.339 Y91.244 E.01486
G1 X116 Y90.987 E.01334
G1 X115.704 Y90.551 E.01654
G1 X115.594 Y90.09 E.01486
G1 X115.635 Y89.666 E.01334
G1 X115.851 Y89.185 E.01654
G1 X116.188 Y88.849 E.01493
G1 X116.559 Y88.671 E.0129
M204 P1000
G1 X116.696 Y88.282 F9000
G1 E-3.2 F4200
G1 Z.4 F720
G1 X116.095 Y81.026 F9000
G1 Z.2 F720
G1 E3.2 F2400
M204 P800
;TYPE:Perimeter
G1 F1200
G1 X115.597 Y81.332 E.01836
G1 X115.098 Y81.445 E.01602
G1 X114.571 Y81.404 E.01659
G1 X114.332 Y81.341 E.00774
G1 X113.81 Y81.042 E.01889
G1 X113.436 Y80.624 E.01758
G1 X113.198 Y80.024 E.02024
G1 X113.18 Y79.421 E.01889
G1 X113.357 Y78.855 E.01861
G1 X113.666 Y78.418 E.01678
G1 X114.094 Y78.112 E.0165
G1 X114.352 Y77.991 E.00892
G1 X114.863 Y77.889 E.01634
G1 X115.485 Y77.974 E.01969
G1 X115.697 Y78.052 E.00708
G1 X116.125 Y78.325 E.01593
G1 X116.452 Y78.716 E.01597
G1 X116.683 Y79.273 E.01889
G1 X116.715 Y79.461 E.00599
G1 X116.707 Y79.972 E.01601
G1 X116.545 Y80.452 E.01589
G1 X116.193 Y80.94 E.01887
G1 X116.14 Y80.986 E.00218
M204 P1000
G1 E-3.2 F4200
G1 Z.4 F720
G1 X115.877 Y78.608 F9000
G1 Z.2 F720
G1 E3.2 F2400
M204 P800
;TYPE:External perimeter
G1 F1200
G1 X116.19 Y79.009 E.01593
G1 X116.338 Y79.461 E.01493
G1 X116.335 Y79.907 E.01397
G1 X116.159 Y80.382 E.0159
G1 X115.851 Y80.745 E.01492
G1 X115.44 Y80.986 E.01494
G1 X114.973 Y81.076 E.01493
G1 X114.502 Y81.005 E.01493
G1 X114.082 Y80.781 E.01493
G1 X113.76 Y80.43 E.01493
G1 X113.574 Y79.992 E.01493
G1 X113.544 Y79.516 E.01493
G1 X113.675 Y79.059 E.01493
G1 X113.955 Y78.667 E.01511
G1 X114.367 Y78.383 E.0157
G1 X114.912 Y78.264 E.01746
G1 X115.416 Y78.344 E.01601
G1 X115.825 Y78.579 E.01478
M204 P1000
G1 X116.255 Y78.48 F9000
G1 E-3.2 F4200
G1 Z.4 F720
G1 X118.392 Y73.695 F9000
G1 Z.2 F720
G1 E3.2 F2400
M204 P800
;TYPE:Perimeter
G1 F1200
G1 X118.055 Y74.073 E.01589
G1 X117.494 Y74.389 E.02018
G1 X117.311 Y74.445 E.00599
G1 X116.761 Y74.508 E.01735
G1 X116.226 Y74.402 E.0171
G1 X116.029 Y74.326 E.00662
G1 X115.535 Y74.006 E.01847
G1 X115.19 Y73.586 E.01704
G1 X114.955 Y73.001 E.01978
G1 X114.919 Y72.68 E.01012
G1 X114.95 Y72.155 E.0165
G1 X115.144 Y71.636 E.01735
G1 X115.485 Y71.193 E.01752
G1 X115.634 Y71.06 E.00629
G1 X116.176 Y70.753 E.01951
G1 X116.759 Y70.639 E.01863
G1 X117.177 Y70.67 E.01315
G1 X117.792 Y70.891 E.02048
G1 X118.209 Y71.236 E.01698
;WIDTH:0.372825
G1 X118.537 Y71.703 E.01564
;WIDTH:0.389386
G1 X118.62 Y71.868 E.00532
;WIDTH:0.419999
G1 X118.752 Y72.313 E.01455
G1 X118.729 Y72.965 E.02048
G1 X118.676 Y73.161 E.00634
G1 X118.432 Y73.65 E.01715
M204 P1000
G1 E-2.24 F4200
;WIPE_START
G1 F7200
G1 X118.055 Y74.073 E-.31414
G1 X117.494 Y74.389 E-.3567
G1 X117.311 Y74.445 E-.10595
G1 X117.069 Y74.473 E-.13521
;WIPE_END
G1 E-.048 F4200
G1 Z.4 F720
G1 X117.056 Y74.275 F9000
G1 X117.34 Y74.214
G1 X117.611 Y74.105
G1 X117.859 Y73.953
G1 X118.074 Y73.763
G1 X118.217 Y73.592
G1 X118.27 Y73.517
G1 X118.403 Y73.279
G1 X118.5 Y73.004
G1 X118.549 Y72.717
G1 X118.549 Y72.426
G1 X118.5 Y72.139
G1 X118.403 Y71.864
G1 X118.261 Y71.61
G1 X118.078 Y71.383
G1 X117.859 Y71.19
G1 X117.611 Y71.038
G1 X117.34 Y70.929
G1 X117.056 Y70.868
G1 X116.765 Y70.855
G1 X116.731 Y70.86
G1 X116.751 Y71.016
G1 Z.2 F720
G1 E3.2 F2400
M204 P800
;TYPE:External perimeter
G1 F1200
G1 X117.067 Y71.03 E.00992
G1 X117.567 Y71.195 E.01652
G1 X117.982 Y71.513 E.01638
G1 X118.26 Y71.93 E.01574
G1 X118.387 Y72.408 E.01549
G1 X118.353 Y72.933 E.01652
G1 X118.115 Y73.463 E.01821
G1 X117.738 Y73.843 E.01678
G1 X117.28 Y74.068 E.01601
G1 X116.773 Y74.131 E.01601
G1 X116.253 Y74.019 E.01668
G1 X115.825 Y73.758 E.01573
G1 X115.502 Y73.374 E.01572
G1 X115.308 Y72.869 E.01695
G1 X115.296 Y72.34 E.01661
G1 X115.456 Y71.851 E.01611
G1 X115.782 Y71.425 E.01682
G1 X116.227 Y71.138 E.01661
G1 X116.692 Y71.03 E.01498
M204 P1000
G1 X116.88 Y70.727 F9000
G1 E-3.2 F4200
G1 Z.4 F720
G1 X109.483 Y69.177 F9000
G1 Z.2 F720
G1 E3.2 F2400
M204 P800
;TYPE:Perimeter
G1 F1200
G1 X109.56 Y69.188 E.00245
G1 X110.106 Y69.443 E.0189
G1 X110.526 Y69.846 E.01824
G1 X110.769 Y70.289 E.01584
G1 X110.872 Y70.813 E.01673
G1 X110.879 Y70.935 E.00385
G1 X110.788 Y71.471 E.01704
G1 X110.537 Y71.952 E.01701
G1 X110.257 Y72.241 E.01259
G1 X109.944 Y72.474 E.01226
G1 X109.445 Y72.661 E.01671
G1 X108.961 Y72.686 E.01519
G1 X108.376 Y72.54 E.01889
G1 X107.873 Y72.209 E.01889
G1 X107.741 Y72.071 E.00599
G1 X107.431 Y71.554 E.01889
G1 X107.31 Y70.964 E.01889
G1 X107.394 Y70.367 E.01889
G1 X107.611 Y69.907 E.01595
G1 X107.958 Y69.533 E.016
G1 X108.111 Y69.42 E.00599
G1 X108.571 Y69.198 E.016
G1 X109.149 Y69.126 E.01827
G1 X109.423 Y69.168 E.00869
M204 P1000
G1 X109.113 Y69.501 F9000
M204 P800
;TYPE:External perimeter
G1 F1200
G1 X109.419 Y69.538 E.00966
G1 X109.857 Y69.726 E.01494
G1 X110.207 Y70.048 E.01493
G1 X110.43 Y70.469 E.01493
G1 X110.502 Y70.917 E.01423
G1 X110.409 Y71.407 E.01565
G1 X110.167 Y71.817 E.01493
G1 X109.803 Y72.124 E.01493
G1 X109.357 Y72.291 E.01493
G1 X108.881 Y72.301 E.01493
G1 X108.43 Y72.151 E.01493
G1 X108.053 Y71.859 E.01493
G1 X107.796 Y71.459 E.01493
G1 X107.686 Y70.996 E.01493
G1 X107.737 Y70.522 E.01493
G1 X107.943 Y70.093 E.01493
G1 X108.281 Y69.757 E.01495
G1 X108.708 Y69.553 E.01483
G1 X109.054 Y69.509 E.01094
M204 P1000
G1 X109.262 Y69.232 F9000
G1 E-3.2 F4200
G1 Z.4 F720
G1 X101.262 Y66.571 F9000
G1 Z.2 F720
G1 E3.2 F2400
M204 P800
;TYPE:Perimeter
G1 F1200
G1 X101.184 Y66.621 E.0029
G1 X100.614 Y66.815 E.01889
G1 X100.018 Y66.81 E.01867
G1 X99.446 Y66.601 E.01911
G1 X98.981 Y66.218 E.01889
G1 X98.671 Y65.701 E.01889
G1 X98.551 Y65.111 E.01888
G1 X98.602 Y64.608 E.01585
G1 X98.804 Y64.139 E.01603
G1 X99.004 Y63.883 E.01018
G1 X99.351 Y63.568 E.0147
G1 X99.896 Y63.326 E.0187
G1 X100.39 Y63.273 E.01556
G1 X100.8 Y63.335 E.01302
G1 X101.298 Y63.551 E.017
G1 X101.774 Y64.006 E.02064
G1 X102.02 Y64.494 E.01713
G1 X102.12 Y65.077 E.01856
G1 X102.029 Y65.616 E.01712
G1 X101.787 Y66.087 E.01661
G1 X101.313 Y66.539 E.02055
M204 P1000
G1 E-2.24 F4200
;WIPE_START
G1 F7200
G1 X101.184 Y66.621 E-.08453
G1 X100.614 Y66.815 E-.33384
G1 X100.018 Y66.81 E-.33003
G1 X99.741 Y66.709 E-.1636
;WIPE_END
G1 E-.048 F4200
G1 Z.4 F720
G1 X99.813 Y66.53 F9000
G1 X99.627 Y66.455
G1 X99.4 Y66.316
G1 X99.201 Y66.14
G1 X99.034 Y65.933
G1 X98.904 Y65.701
G1 X98.815 Y65.45
G1 X98.77 Y65.188
G1 X98.77 Y64.922
G1 X98.815 Y64.665
G1 X98.866 Y64.512
G1 X98.884 Y64.46
G1 X98.913 Y64.392
G1 X99.034 Y64.177
G1 X99.201 Y63.97
G1 X99.4 Y63.795
