; generated by PrusaSlicer 2.5.2+win64 on 2023-04-24 at 08:40:23 UTC


;
;

;
;
; 

; external perimeters extrusion width = 0.45mm
; perimeters extrusion width = 0.45mm
; infill extrusion width = 0.45mm
; solid infill extrusion width = 0.45mm
; top infill extrusion width = 0.40mm
; first layer extrusion width = 0.42mm

M73 P0 R17
M201 X2500 Y2500 Z400 E5000 ; sets maximum accelerations, mm/sec^2
M203 X180 Y180 Z12 E80 ; sets maximum feedrates, mm / sec
M204 P1250 R1250 T2500 ; sets acceleration (P, T) and retract acceleration (R), mm/sec^2
M205 X8.00 Y8.00 Z2.00 E10.00 ; sets the jerk limits, mm/sec
M205 S0 T0 ; sets the minimum extruding and travel feed rate, mm/sec
M107
;TYPE:Custom
M862.3 P "MINI" ; printer model check
G90 ; use absolute coordinates
M83 ; extruder relative mode
M104 S170 ; set extruder temp for bed leveling
M140 S60 ; set bed temp
M109 R170 ; wait for bed leveling temp
M190 S60 ; wait for bed temp
M204 T1250 ; set travel acceleration
G28 ; home all without mesh bed level
G29 ; mesh bed leveling 
M204 T2500 ; restore travel acceleration
M104 S215 ; set extruder temp
G92 E0
G1 Y-2 X179 F2400
G1 Z3 F720
M109 S215 ; wait for extruder temp

; intro line
G1 X170 F1000
G1 Z0.2 F720
G1 X110 E8 F900
G1 X40 E10 F700
G92 E0

M221 S95 ; set flow
G21 ; set units to millimeters
G90 ; use absolute coordinates
M83 ; use relative distances for extrusion
M900 K0.2 ; Filament gcode LA 1.5
; ; Filament gcode LA 1.0
M107
;LAYER_CHANGE
;Z:0.2
;HEIGHT:0.2
;BEFORE_LAYER_CHANGE
G92 E0.0
;0.2


G1 E-3.2 F4200
M73 P1 R17
G1 Z.2 F720
;AFTER_LAYER_CHANGE
;0.2
G1 Z.4
G1 X80.389 Y80.583 F9000
G1 Z.2 F720
G1 E3.2 F2400
M204 P800
;TYPE:Skirt/Brim
;WIDTH:0.42
G1 F1200
G1 X81.455 Y79.569 E.04612
G1 X82.75 Y79.246 E.04186
G1 X97.25 Y79.246 E.45464
G1 X98.667 Y79.639 E.04612
G1 X99.681 Y80.705 E.04612
G1 X100.004 Y82 E.04186
G1 X100.004 Y98 E.50167
G1 X99.611 Y99.417 E.04612
G1 X98.545 Y100.431 E.04612
G1 X97.25 Y100.754 E.04186
G1 X82.75 Y100.754 E.45464
G1 X81.333 Y100.361 E.04612
G1 X80.319 Y99.295 E.04612
G1 X79.996 Y98 E.04186
G1 X79.996 Y82 E.50167
G1 X80.373 Y80.64 E.04424
M204 P1000
G1 X80.747 Y80.752 F9000
M204 P800
G1 F1200
G1 X80.765 Y80.693 E.00195
G1 X81.81 Y79.817 E.04278
G1 X82.75 Y79.623 E.03008
G1 X97.25 Y79.623 E.45464
G1 X98.557 Y80.015 E.04278
M73 P2 R17
G1 X99.433 Y81.06 E.04278
G1 X99.627 Y82 E.03008
G1 X99.627 Y98 E.50167
G1 X99.235 Y99.307 E.04278
G1 X98.19 Y100.183 E.04278
G1 X97.25 Y100.377 E.03008
G1 X82.75 Y100.377 E.45464
G1 X81.443 Y99.985 E.04278
G1 X80.567 Y98.94 E.04278
G1 X80.373 Y98 E.03008
G1 X80.373 Y82 E.50167
G1 X80.729 Y80.81 E.03895
M204 P1000
; printing object A00020-PART-40-REV-P1.STL id:0 copy 0
G1 E-2.24 F4200
;WIPE_START
G1 F7200
G1 X80.765 Y80.693 E-.06768
G1 X81.81 Y79.817 E-.75612
G1 X81.966 Y79.784 E-.0882
;WIPE_END
G1 E-.048 F4200
G1 Z.4 F720
G1 X85.051 Y87.498 F9000
G1 X85.034 Y87.509
G1 X84.895 Y87.642
G1 X84.78 Y87.798
G1 X84.693 Y87.97
G1 X84.636 Y88.155
G1 X84.612 Y88.347
G1 X84.62 Y88.54
G1 X84.661 Y88.729
G1 X84.733 Y88.908
G1 X84.834 Y89.073
G1 X84.962 Y89.218
G1 X85.112 Y89.339
G1 X85.281 Y89.433
G1 X85.463 Y89.498
G1 X85.653 Y89.53
G1 X85.777 Y89.53
G1 X89.165 Y96.77
G1 X88.783 Y97.218
G1 Z.2 F720
G1 E3.2 F2400
M204 P800
;TYPE:Perimeter
;WIDTH:0.419999
G1 F1200
G1 X83.537 Y97.213 E.16448
G1 X83.537 Y89.494 E.24204
;WIDTH:0.449924
G1 X83.552 Y89.089 E.0137
;WIDTH:0.479849
G1 X83.567 Y88.685 E.01471
;WIDTH:0.482505
G1 X83.553 Y87.775 E.03325
;WIDTH:0.451252
G1 X83.537 Y87.437 E.01151
;WIDTH:0.419999
G1 X83.537 Y84.374 E.09601
G1 X84.029 Y84.787 E.02012
G1 X95.971 Y84.787 E.37446
G1 X96.463 Y84.374 E.02012
G1 X96.463 Y87.083 E.08493
;WIDTH:0.420222
G1 X96.463 Y87.778 E.0218
;WIDTH:0.469508
G1 X96.438 Y88.345 E.02015
;WIDTH:0.500953
G1 X96.422 Y88.883 E.02047
G1 X96.443 Y89.206 E.01233
;WIDTH:0.460476
G1 X96.463 Y89.529 E.01124
;WIDTH:0.419999
G1 X96.463 Y97.213 E.24094
G1 X91.249 Y97.217 E.16348
G1 X91.488 Y96.877 E.01305
G1 X91.702 Y96.318 E.01877
G1 X91.711 Y95.73 E.01844
G1 X91.523 Y95.175 E.01838
G1 X91.348 Y94.927 E.0095
G1 X91.012 Y94.594 E.01483
G1 X90.542 Y94.35 E.01661
G1 X90.062 Y94.271 E.01526
G1 X89.538 Y94.333 E.01654
G1 X89.246 Y94.45 E.00986
G1 X88.839 Y94.714 E.01522
G1 X88.477 Y95.175 E.01836
G1 X88.289 Y95.73 E.01838
G1 X88.298 Y96.318 E.01844
G1 X88.512 Y96.877 E.01876
G1 X88.746 Y97.171 E.01179
M204 P1000
G1 X89.536 Y97.239 F9000
M204 P800
;TYPE:External perimeter
;WIDTH:0.436745
G1 F1200
G1 X89.061 Y96.964 E.01795
;WIDTH:0.419999
G1 X88.776 Y96.583 E.01492
G1 X88.649 Y96.141 E.01441
G1 X88.679 Y95.683 E.0144
G1 X88.86 Y95.261 E.0144
G1 X89.193 Y94.911 E.01513
G1 X89.604 Y94.704 E.01443
G1 X90.004 Y94.644 E.01268
G1 X90.441 Y94.713 E.01388
G1 X90.878 Y94.963 E.01579
G1 X91.173 Y95.315 E.0144
G1 X91.334 Y95.745 E.0144
G1 X91.342 Y96.205 E.01442
G1 X91.192 Y96.643 E.01452
G1 X90.897 Y96.998 E.01446
;WIDTH:0.440258
G1 X90.497 Y97.232 E.01532
G1 X90.074 Y97.283 E.01407
;WIDTH:0.436745
G1 X89.595 Y97.244 E.01573
M204 P1000
G1 E-2.24 F4200
;WIPE_START
G1 F7200
G1 X89.061 Y96.964 E-.33417
G1 X88.776 Y96.583 E-.26371
G1 X88.649 Y96.141 E-.25474
G1 X88.656 Y96.034 E-.05938
;WIPE_END
G1 E-.048 F4200
G1 Z.4 F720
G1 X92.679 Y89.105 F9000
G1 Z.2 F720
G1 E3.2 F2400
M204 P800
;TYPE:Perimeter
;WIDTH:0.419999
G1 F1200
G1 X92.546 Y88.71 E.01307
G1 X92.522 Y88.52 E.00599
G1 X92.553 Y88.019 E.01574
G1 X92.727 Y87.57 E.0151
G1 X93.089 Y87.109 E.01837
G1 X93.584 Y86.796 E.01836
G1 X94.126 Y86.668 E.01747
G1 X94.485 Y86.675 E.01126
G1 X95.01 Y86.838 E.01724
G1 X95.485 Y87.181 E.01836
G1 X95.819 Y87.662 E.01836
;WIDTH:0.449314
G1 X95.911 Y87.941 E.00993
;WIDTH:0.478629
G1 X96.003 Y88.22 E.01065
G1 X96.012 Y88.345 E.00455
;WIDTH:0.500953
G1 X95.968 Y88.843 E.01903
G1 X95.833 Y89.095 E.01089
;WIDTH:0.460476
G1 X95.698 Y89.347 E.00992
;WIDTH:0.419999
G1 X95.298 Y89.775 E.01836
G1 X94.778 Y90.045 E.01836
G1 X94.199 Y90.127 E.01836
G1 X93.625 Y90.011 E.01836
G1 X93.428 Y89.917 E.00685
G1 X93.02 Y89.621 E.01578
G1 X92.698 Y89.162 E.01759
M204 P1000
G1 E-2.24 F4200
;WIPE_START
G1 F7200
G1 X92.546 Y88.71 E-.26418
G1 X92.522 Y88.52 E-.10595
G1 X92.553 Y88.019 E-.27819
G1 X92.725 Y87.575 E-.26368
;WIPE_END
G1 E-.048 F4200
G1 Z.4 F720
G1 X94.511 Y87.062 F9000
G1 Z.2 F720
G1 E3.2 F2400
M204 P800
;TYPE:External perimeter
G1 F1200
G1 X94.94 Y87.225 E.0144
G1 X95.291 Y87.522 E.0144
G1 X95.522 Y87.918 E.0144
G1 X95.61 Y88.345 E.01367
G1 X95.539 Y88.823 E.01515
G1 X95.323 Y89.228 E.0144
G1 X94.984 Y89.538 E.0144
G1 X94.561 Y89.717 E.0144
G1 X94.092 Y89.743 E.01473
G1 X93.639 Y89.604 E.01488
G1 X93.287 Y89.354 E.01353
G1 X93.023 Y88.978 E.0144
G1 X92.899 Y88.536 E.0144
G1 X92.929 Y88.078 E.0144
G1 X93.11 Y87.656 E.01439
G1 X93.422 Y87.319 E.0144
G1 X93.827 Y87.104 E.01436
G1 X94.237 Y87.037 E.01305
G1 X94.451 Y87.057 E.00673
M204 P1000
G1 X94.782 Y86.768 F9000
G1 E-3.2 F4200
G1 Z.4 F720
G1 X96.037 Y84.374 F9000
G1 Z.2 F720
G1 E3.2 F2400
M204 P800
;WIDTH:0.497732
G1 F1200
G1 X96.103 Y84.339 E.00282
;WIDTH:0.536598
G1 X96.168 Y84.303 E.00306
;WIDTH:0.575464
G1 X96.234 Y84.267 E.0033
G1 X96.236 Y84.221 E.00204
;WIDTH:0.57146
G1 X96.236 Y82.486 E.07628
G1 X96.764 Y82.486 E.02323
G1 X96.764 Y82.75 E.01161
G1 X96.764 Y84.221 E.06467
;WIDTH:0.575464
G1 X96.782 Y84.555 E.01478
;WIDTH:0.536598
G1 X96.801 Y84.796 E.00994
;WIDTH:0.497732
G1 X96.821 Y85.037 E.00915
;WIDTH:0.458866
G1 X96.84 Y85.279 E.00837
;WIDTH:0.419999
G1 X96.84 Y97.59 E.38602
G1 X91.084 Y97.604 E.18046
;WIDTH:0.442289
G1 X90.056 Y97.656 E.03421
;WIDTH:0.429482
G1 X88.751 Y97.594 E.04199
;WIDTH:0.419999
G1 X83.16 Y97.59 E.1753
G1 X83.16 Y85.279 E.38602
;WIDTH:0.457865
M73 P3 R17
G1 X83.179 Y85.014 E.00914
;WIDTH:0.49573
G1 X83.198 Y84.75 E.00998
;WIDTH:0.533595
G1 X83.217 Y84.486 E.01081
;WIDTH:0.57146
G1 X83.236 Y84.221 E.01164
G1 X83.236 Y82.486 E.07628
G1 X83.764 Y82.486 E.02323
G1 X83.764 Y84.221 E.07628
;WIDTH:0.575465
G1 X83.766 Y84.267 E.00204
G1 X83.832 Y84.303 E.0033
;WIDTH:0.536599
G1 X83.897 Y84.339 E.00306
;WIDTH:0.497732
G1 X83.963 Y84.374 E.00282
;WIDTH:0.458866
G1 X84.029 Y84.41 E.00258
;WIDTH:0.419999
G1 X95.971 Y84.41 E.37446
;WIDTH:0.458866
G1 X95.984 Y84.403 E.00051
M204 P1000
G1 E-3.2 F4200
G1 Z.4 F720
G1 X84.893 Y86.917 F9000
G1 Z.2 F720
G1 E3.2 F2400
M204 P800
;TYPE:Perimeter
;WIDTH:0.419999
G1 F1200
G1 X85.084 Y86.796 E.00708
G1 X85.626 Y86.668 E.01747
G1 X85.985 Y86.675 E.01126
G1 X86.51 Y86.838 E.01724
G1 X86.985 Y87.181 E.01836
G1 X87.319 Y87.662 E.01836
G1 X87.474 Y88.226 E.01836
G1 X87.482 Y88.417 E.00599
G1 X87.401 Y88.935 E.01644
G1 X87.156 Y89.417 E.01696
G1 X86.798 Y89.775 E.01586
G1 X86.357 Y90.009 E.01565
G1 X86.093 Y90.093 E.00869
G1 X85.511 Y90.111 E.01826
G1 X84.981 Y89.945 E.01741
G1 X84.484 Y89.578 E.01938
G1 X84.162 Y89.089 E.01836
;WIDTH:0.449924
G1 X84.082 Y88.868 E.00796
;WIDTH:0.479849
G1 X84.001 Y88.647 E.00854
;WIDTH:0.482505
G1 X84.008 Y88.123 E.01916
G1 X84.117 Y87.846 E.01087
;WIDTH:0.451252
G1 X84.227 Y87.57 E.0101
;WIDTH:0.419999
G1 X84.589 Y87.109 E.01837
G1 X84.842 Y86.949 E.00939
M204 P1000
G1 X84.872 Y87.359 F9000
M204 P800
;TYPE:External perimeter
G1 F1200
G1 X85.327 Y87.104 E.01633
G1 X85.737 Y87.037 E.01305
G1 X86.011 Y87.062 E.00861
G1 X86.44 Y87.225 E.0144
G1 X86.791 Y87.522 E.0144
G1 X87.022 Y87.918 E.0144
M73 P3 R16
G1 X87.108 Y88.369 E.0144
G1 X87.039 Y88.823 E.0144
G1 X86.803 Y89.248 E.01523
G1 X86.462 Y89.548 E.01427
G1 X86.061 Y89.717 E.01362
G1 X85.604 Y89.746 E.01436
G1 X85.188 Y89.63 E.01355
G1 X84.787 Y89.354 E.01525
G1 X84.523 Y88.978 E.0144
G1 X84.399 Y88.536 E.0144
G1 X84.429 Y88.078 E.0144
G1 X84.61 Y87.656 E.01439
G1 X84.832 Y87.404 E.01055
M204 P1000
G1 X84.81 Y86.963 F9000
G1 E-2.24 F4200
;WIPE_START
G1 F7200
G1 X85.327 Y87.104 E-.32017
G1 X85.737 Y87.037 E-.2306
G1 X86.011 Y87.062 E-.15222
G1 X86.363 Y87.196 E-.20901
;WIPE_END
G1 E-.048 F4200
G1 Z.4 F720
G1 X86.432 Y87.044 F9000
G1 X93.625 Y89.778
G1 X93.867 Y89.864
G1 X94.121 Y89.907
G1 X94.379 Y89.907
G1 X94.632 Y89.864
G1 X94.875 Y89.778
G1 X95.1 Y89.653
G1 X95.3 Y89.491
G1 X95.47 Y89.298
G1 X95.605 Y89.079
G1 X95.61 Y89.068
G1 X95.921 Y89.193
G1 Z.2 F720
G1 E3.2 F2400
M204 P800
;TYPE:Solid infill
;WIDTH:0.42412
G1 F1200
G1 X96.174 Y89.445 E.01133
G1 X96.18 Y89.991 E.0173
G1 X95.829 Y89.64 E.01573
G1 X95.563 Y89.913 E.01208
G1 X96.18 Y90.53 E.02768
G1 X96.18 Y91.069 E.01709
G1 X95.252 Y90.141 E.0416
G1 X94.88 Y90.308 E.01293
G1 X96.18 Y91.608 E.05828
G1 X96.18 Y92.147 E.01709
G1 X94.267 Y90.234 E.08575
M204 P1000
G1 E-2.24 F4200
;WIPE_START
G1 F7200
G1 X95.431 Y91.398 E-.912
;WIPE_END
G1 E-.048 F4200
G1 Z.4 F720
G1 X95.941 Y84.9 F9000
G1 Z.2 F720
G1 E3.2 F2400
M204 P800
G1 F1200
G1 X96.18 Y85.139 E.01071
G1 X96.18 Y85.678 E.01709
G1 X95.572 Y85.07 E.02726
G1 X95.033 Y85.07 E.01709
G1 X96.18 Y86.217 E.05143
G1 X96.18 Y86.756 E.01709
G1 X94.494 Y85.07 E.07559
G1 X93.955 Y85.07 E.01709
G1 X96.18 Y87.295 E.09976
G1 X96.18 Y87.734 E.0139
G1 X96.149 Y87.739 E.00099
G1 X96.065 Y87.521 E.00743
G1 X95.848 Y87.169 E.01309
G1 X95.669 Y86.966 E.00859
G1 X95.349 Y86.707 E.01305
G1 X95.129 Y86.581 E.00803
G1 X94.815 Y86.47 E.01055
G1 X93.415 Y85.07 E.06275
G1 X92.876 Y85.07 E.01709
G1 X94.188 Y86.381 E.05878
G1 X93.72 Y86.453 E.01498
G1 X92.337 Y85.07 E.062
G1 X91.798 Y85.07 E.01709
G1 X93.338 Y86.61 E.06902
G1 X93.093 Y86.746 E.00889
G1 X93.006 Y86.817 E.00354
G1 X91.259 Y85.07 E.0783
G1 X90.72 Y85.07 E.01709
G1 X92.734 Y87.084 E.0903
G1 X92.609 Y87.226 E.00599
G1 X92.506 Y87.395 E.00627
G1 X90.181 Y85.07 E.10422
G1 X89.642 Y85.07 E.01709
G1 X92.346 Y87.774 E.12122
G1 X92.277 Y87.956 E.00616
G1 X92.259 Y88.226 E.00858
G1 X89.103 Y85.07 E.14147
G1 X88.564 Y85.07 E.01709
G1 X92.273 Y88.779 E.16628
G1 X92.424 Y89.261 E.016
G1 X92.518 Y89.423 E.00595
G1 X92.811 Y89.813 E.01544
G1 X92.959 Y89.942 E.00624
G1 X93.376 Y90.217 E.01583
G1 X93.548 Y90.283 E.00585
G1 X93.855 Y90.361 E.01003
G1 X96.18 Y92.686 E.10423
G1 X96.18 Y93.226 E.01709
G1 X88.024 Y85.07 E.36559
G1 X87.485 Y85.07 E.01709
G1 X96.18 Y93.765 E.38975
G1 X96.18 Y94.304 E.01709
G1 X86.946 Y85.07 E.41392
G1 X86.407 Y85.07 E.01709
G1 X96.18 Y94.843 E.43808
G1 X96.18 Y95.382 E.01709
G1 X85.868 Y85.07 E.46225
G1 X85.329 Y85.07 E.01709
M73 P4 R16
G1 X96.18 Y95.921 E.48642
G1 X96.18 Y96.46 E.01709
G1 X87.713 Y87.993 E.37954
G1 X87.665 Y87.772 E.00719
G1 X87.564 Y87.52 E.00859
G1 X87.348 Y87.169 E.01307
G1 X87.169 Y86.966 E.00859
G1 X86.848 Y86.707 E.01307
G1 X86.612 Y86.575 E.00859
G1 X86.14 Y86.42 E.01572
G1 X84.79 Y85.07 E.06054
G1 X84.251 Y85.07 E.01709
G1 X85.572 Y86.391 E.0592
G1 X85.125 Y86.483 E.01446
G1 X83.82 Y85.178 E.05849
G1 X83.82 Y85.717 E.01709
G1 X84.757 Y86.655 E.04202
G1 X84.593 Y86.746 E.00597
G1 X84.436 Y86.873 E.00638
G1 X83.82 Y86.256 E.02763
G1 X83.82 Y86.795 E.01709
G1 X84.176 Y87.151 E.01595
G1 X84.109 Y87.226 E.00317
G1 X83.96 Y87.475 E.00919
G1 X83.65 Y87.165 E.01389
M204 P1000
G1 E-2.24 F4200
;WIPE_START
G1 F7200
G1 X83.96 Y87.475 E-.24281
G1 X84.109 Y87.226 E-.16062
G1 X84.176 Y87.151 E-.05548
G1 X83.82 Y86.795 E-.27879
G1 X83.82 Y86.481 E-.1743
;WIPE_END
G1 E-.048 F4200
G1 Z.4 F720
G1 X83.316 Y86.481 F9000
G1 X86.007 Y86.899
G1 X86.256 Y86.964
G1 X86.49 Y87.07
G1 X86.703 Y87.214
G1 X86.889 Y87.392
G1 X87.042 Y87.599
G1 X87.158 Y87.829
G1 X87.234 Y88.075
G1 X87.266 Y88.331
G1 X87.264 Y88.398
G1 X87.593 Y88.412
G1 Z.2 F720
G1 E3.2 F2400
M204 P800
G1 F1200
G1 X96.112 Y96.931 E.38185
G1 X95.573 Y96.931 E.01707
G1 X87.669 Y89.027 E.35433
G1 X87.491 Y89.388 E.01277
G1 X95.034 Y96.932 E.33814
G1 X94.496 Y96.932 E.01707
G1 X87.274 Y89.71 E.32373
G1 X86.996 Y89.971 E.01209
G1 X93.957 Y96.932 E.31204
G1 X93.418 Y96.933 E.01707
G1 X91.939 Y95.454 E.0663
G1 X91.783 Y95.062 E.01338
G1 X91.64 Y94.83 E.00861
G1 X91.305 Y94.457 E.01591
G1 X91.155 Y94.35 E.00584
G1 X90.799 Y94.151 E.0129
G1 X90.552 Y94.067 E.00828
G1 X86.666 Y90.18 E.17421
G1 X86.285 Y90.339 E.01307
G1 X89.934 Y93.988 E.16357
G1 X89.471 Y94.064 E.01488
G1 X85.808 Y90.4 E.1642
G1 X85.449 Y90.387 E.01137
G1 X85.19 Y90.321 E.00849
G1 X89.084 Y94.216 E.17459
G1 X88.749 Y94.42 E.01244
G1 X83.82 Y89.491 E.22093
G1 X83.82 Y90.03 E.01709
G1 X88.483 Y94.693 E.20903
G1 X88.36 Y94.83 E.00585
G1 X88.254 Y95.003 E.00642
G1 X83.82 Y90.569 E.19875
G1 X83.82 Y91.108 E.01709
G1 X88.091 Y95.379 E.19145
G1 X88.051 Y95.478 E.00337
G1 X88.002 Y95.829 E.01125
G1 X83.82 Y91.647 E.18746
G1 X83.82 Y92.186 E.01709
G1 X88.025 Y96.392 E.18851
G1 X88.149 Y96.789 E.0132
G1 X88.23 Y96.934 E.00526
G1 X88.028 Y96.934 E.0064
G1 X83.82 Y92.725 E.18865
G1 X83.82 Y93.265 E.01709
G1 X87.489 Y96.934 E.16447
G1 X86.949 Y96.933 E.0171
G1 X83.82 Y93.804 E.14028
G1 X83.82 Y94.343 E.01709
G1 X86.41 Y96.933 E.1161
G1 X85.87 Y96.932 E.0171
M73 P5 R16
G1 X83.82 Y94.882 E.09192
G1 X83.82 Y95.421 E.01709
G1 X85.331 Y96.932 E.06773
G1 X84.791 Y96.932 E.0171
G1 X83.82 Y95.96 E.04355
G1 X83.82 Y96.499 E.01709
G1 X84.422 Y97.101 E.02698
M204 P1000
G1 E-2.24 F4200
;WIPE_START
G1 F7200
G1 X83.82 Y96.499 E-.47163
G1 X83.82 Y95.96 E-.29875
G1 X84.001 Y96.141 E-.14162
;WIPE_END
G1 E-.048 F4200
G1 Z.4 F720
G1 X83.316 Y96.141 F9000
G1 X89.743 Y94.504
G1 X90 Y94.482
G1 X90.257 Y94.504
G1 X90.506 Y94.569
G1 X90.74 Y94.675
G1 X90.954 Y94.819
G1 X91.139 Y94.997
G1 X91.292 Y95.204
G1 X91.408 Y95.434
G1 X91.484 Y95.68
G1 X91.509 Y95.88
G1 X91.515 Y95.925
G1 X91.831 Y95.884
G1 Z.2 F720
G1 E3.2 F2400
M204 P800
G1 F1200
G1 X92.88 Y96.933 E.04702
G1 X92.341 Y96.934 E.01707
G1 X91.933 Y96.526 E.01828
G1 X91.851 Y96.79 E.00875
G1 X91.781 Y96.913 E.0045
G1 X91.972 Y97.104 E.00854
M204 P1000
; stop printing object A00020-PART-40-REV-P1.STL id:0 copy 0
M106 S84.15
;LAYER_CHANGE
;Z:0.4
;HEIGHT:0.2
;BEFORE_LAYER_CHANGE
G92 E0.0
;0.4


G1 E-2.24 F4200
;WIPE_START
G1 F7200
G1 X91.781 Y96.913 E-.14926
G1 X91.851 Y96.79 E-.0786
G1 X91.933 Y96.526 E-.15303
G1 X92.341 Y96.934 E-.31955
G1 X92.723 Y96.933 E-.21156
;WIPE_END
G1 E-.048 F4200
G1 Z.4 F720
;AFTER_LAYER_CHANGE
;0.4
; printing object A00020-PART-40-REV-P1.STL id:0 copy 0
G1 Z.6
G1 X92.723 Y97.389 F9000
G1 X96.639 Y97.389
G1 X96.347 Y84.597
G1 X95.876 Y84.604
G1 X95.876 Y84.597
G1 Z.4 F720
