; generated by PrusaSlicer 2.5.0+win64 on 2023-04-12 at 06:11:10 UTC


;
;

;
;
; 

; external perimeters extrusion width = 0.45mm
; perimeters extrusion width = 0.45mm
; infill extrusion width = 0.45mm
; solid infill extrusion width = 0.45mm
; top infill extrusion width = 0.40mm
; first layer extrusion width = 0.42mm

M73 P0 R19
M201 X2500 Y2500 Z400 E5000 ; sets maximum accelerations, mm/sec^2
M203 X180 Y180 Z12 E80 ; sets maximum feedrates, mm / sec
M204 P1250 R1250 T2500 ; sets acceleration (P, T) and retract acceleration (R), mm/sec^2
M205 X8.00 Y8.00 Z2.00 E10.00 ; sets the jerk limits, mm/sec
M205 S0 T0 ; sets the minimum extruding and travel feed rate, mm/sec
M107
;TYPE:Custom
M862.3 P "MINI" ; printer model check
G90 ; use absolute coordinates
M83 ; extruder relative mode
M104 S170 ; set extruder temp for bed leveling
M140 S60 ; set bed temp
M109 R170 ; wait for bed leveling temp
M190 S60 ; wait for bed temp
M204 T1250 ; set travel acceleration
G28 ; home all without mesh bed level
G29 ; mesh bed leveling 
M204 T2500 ; restore travel acceleration
M104 S215 ; set extruder temp
G92 E0
G1 Y-2 X179 F2400
G1 Z3 F720
M109 S215 ; wait for extruder temp

; intro line
G1 X170 F1000
G1 Z0.2 F720
G1 X110 E8 F900
G1 X40 E10 F700
G92 E0

M221 S95 ; set flow
G21 ; set units to millimeters
G90 ; use absolute coordinates
M83 ; use relative distances for extrusion
M900 K0.2 ; Filament gcode LA 1.5
; ; Filament gcode LA 1.0
M107
;LAYER_CHANGE
;Z:0.2
;HEIGHT:0.2
;BEFORE_LAYER_CHANGE
G92 E0.0
;0.2


G1 E-3.2 F4200
M73 P1 R19
G1 Z.2 F720
;AFTER_LAYER_CHANGE
;0.2
G1 Z.4
G1 X64.211 Y62.99 F9000
G1 Z.2 F720
G1 E3.2 F2400
M204 P800
;TYPE:Skirt/Brim
;WIDTH:0.42
G1 F1200
G1 X64.703 Y62.489 E.02201
G1 X67.666 Y60.033 E.12065
G1 X70.865 Y57.896 E.12065
G1 X74.267 Y56.098 E.12065
G1 X77.837 Y54.661 E.12065
G1 X81.535 Y53.597 E.12065
G1 X85.323 Y52.92 E.12065
G1 X88.915 Y52.642 E.11299
G1 X92.762 Y52.728 E.12065
G1 X96.58 Y53.21 E.12065
G1 X100.047 Y54.015 E.11161
G1 X104.193 Y55.426 E.13731
G1 X107.673 Y57.068 E.12065
G1 X110.965 Y59.06 E.12065
G1 X114.035 Y61.38 E.12065
G1 X116.851 Y64.003 E.12065
G1 X119.382 Y66.901 E.12065
G1 X121.601 Y70.045 E.12065
G1 X123.485 Y73.4 E.12065
G1 X125.015 Y76.931 E.12065
G1 X126.173 Y80.6 E.12065
G1 X126.948 Y84.369 E.12065
G1 X127.33 Y88.137 E.11874
G1 X127.33 Y91.863 E.11682
G1 X126.948 Y95.631 E.11874
G1 X126.173 Y99.4 E.12065
G1 X125.015 Y103.069 E.12065
G1 X123.485 Y106.6 E.12065
G1 X121.601 Y109.955 E.12065
G1 X119.272 Y113.241 E.12626
G1 X116.796 Y116.058 E.11762
G1 X114.035 Y118.62 E.11809
G1 X110.965 Y120.94 E.12065
G1 X107.673 Y122.932 E.12065
G1 X104.193 Y124.574 E.12065
G1 X100.563 Y125.85 E.12065
G1 X96.821 Y126.746 E.12065
G1 X93.006 Y127.253 E.12065
G1 X88.915 Y127.358 E.12831
G1 X85.08 Y127.049 E.12065
G1 X81.297 Y126.347 E.12065
G1 X77.673 Y125.285 E.11837
M73 P2 R19
G1 X74.046 Y123.798 E.12293
G1 X70.655 Y121.978 E.12065
G1 X67.47 Y119.82 E.12065
G1 X64.523 Y117.345 E.12065
G1 X61.921 Y114.67 E.117
G1 X59.607 Y111.75 E.11682
G1 X57.534 Y108.515 E.12047
G1 X55.803 Y105.079 E.12065
G1 X54.433 Y101.483 E.12065
G1 X53.441 Y97.765 E.12065
G1 X52.837 Y93.965 E.12065
G1 X52.626 Y90.122 E.12065
G1 X52.812 Y86.279 E.12065
G1 X53.391 Y82.475 E.12065
G1 X54.359 Y78.751 E.12065
G1 X55.705 Y75.146 E.12065
G1 X57.414 Y71.698 E.12065
G1 X59.61 Y68.245 E.12831
G1 X62.008 Y65.236 E.12065
G1 X64.169 Y63.033 E.09676
M204 P1000
; printing object A00020-PART-12-REV-P2.STL id:0 copy 0
G1 E-2.24 F4200
;WIPE_START
G1 F7200
G1 X64.703 Y62.489 E-.42222
G1 X65.383 Y61.925 E-.48978
;WIPE_END
G1 E-.048 F4200
G1 Z.4 F720
G1 X66.761 Y64.892 F9000
G1 Z.2 F720
G1 E3.2 F2400
M204 P800
;TYPE:Perimeter
;WIDTH:0.419999
G1 F1200
G1 X69.466 Y62.636 E.11044
G1 X72.388 Y60.67 E.11044
G1 X75.497 Y59.014 E.11044
G1 X78.76 Y57.687 E.11044
G1 X80.415 Y57.206 E.05403
;WIDTH:0.453127
G1 X81.587 Y56.876 E.04155
;WIDTH:0.443137
G1 X82.142 Y56.703 E.01933
;WIDTH:0.419999
G1 X85.607 Y56.071 E.11044
G1 X89.119 Y55.799 E.11044
G1 X92.64 Y55.89 E.11044
G1 X96.134 Y56.342 E.11044
G1 X99.562 Y57.151 E.11044
G1 X102.889 Y58.309 E.11044
G1 X106.079 Y59.802 E.11044
G1 X109.099 Y61.615 E.11044
G1 X111.916 Y63.729 E.11044
G1 X114.501 Y66.122 E.11044
G1 X116.826 Y68.768 E.11044
G1 X118.15 Y70.63 E.07164
;WIDTH:0.466232
G1 X118.516 Y71.185 E.02341
;WIDTH:0.482601
G1 X118.98 Y71.869 E.03022
;WIDTH:0.4513
G1 X119.119 Y72.084 E.00867
;WIDTH:0.419999
G1 X120.602 Y74.704 E.09441
G1 X122.013 Y77.932 E.11044
G1 X123.084 Y81.287 E.11044
G1 X123.804 Y84.735 E.11044
G1 X124.168 Y88.249 E.11076
G1 X124.211 Y90.07 E.05712
G1 X124.168 Y91.751 E.05273
G1 X123.804 Y95.265 E.11076
G1 X123.084 Y98.713 E.11044
G1 X122.013 Y102.068 E.11044
G1 X120.602 Y105.296 E.11044
G1 X118.867 Y108.361 E.11044
G1 X117.425 Y110.389 E.07802
;WIDTH:0.42026
G1 X117.022 Y110.956 E.02182
;WIDTH:0.46817
G1 X116.621 Y111.443 E.02234
;WIDTH:0.488378
G1 X116.269 Y111.85 E.01991
G1 X116.068 Y112.119 E.01244
;WIDTH:0.454189
G1 X115.867 Y112.388 E.01148
;WIDTH:0.419999
G1 X115.238 Y113.097 E.02971
G1 X114.511 Y113.869 E.03326
G1 X111.916 Y116.271 E.11087
G1 X109.099 Y118.385 E.11044
G1 X106.079 Y120.198 E.11044
G1 X102.889 Y121.691 E.11044
G1 X99.562 Y122.849 E.11044
G1 X96.134 Y123.658 E.11044
G1 X92.64 Y124.11 E.11044
G1 X89.119 Y124.201 E.11044
G1 X85.607 Y123.929 E.11044
G1 X82.142 Y123.297 E.11044
G1 X78.739 Y122.304 E.11115
;WIDTH:0.454772
G1 X78.482 Y122.181 E.00976
;WIDTH:0.489545
G1 X78.225 Y122.058 E.01059
G1 X77.724 Y121.876 E.01981
;WIDTH:0.487205
G1 X77.244 Y121.66 E.01944
G1 X76.921 Y121.547 E.01262
;WIDTH:0.453602
G1 X76.599 Y121.434 E.01166
;WIDTH:0.419999
G1 X75.497 Y120.986 E.0373
G1 X72.388 Y119.33 E.11044
G1 X69.466 Y117.364 E.11044
M73 P3 R19
G1 X66.761 Y115.108 E.11042
G1 X64.204 Y112.473 E.11514
G1 X62.117 Y109.824 E.10573
G1 X60.226 Y106.851 E.11047
G1 X58.651 Y103.7 E.11044
G1 X57.409 Y100.404 E.11044
G1 X56.512 Y96.998 E.11044
G1 X55.969 Y93.518 E.11044
G1 X55.788 Y90 E.11044
G1 X55.828 Y89.225 E.02434
;WIDTH:0.466098
G1 X55.883 Y88.61 E.02171
G1 X55.902 Y88.076 E.01879
;WIDTH:0.449881
G1 X55.919 Y87.453 E.02111
;WIDTH:0.419999
G1 X55.969 Y86.482 E.03046
G1 X56.512 Y83.002 E.11044
G1 X57.409 Y79.596 E.11044
G1 X58.651 Y76.3 E.11044
G1 X60.226 Y73.148 E.11048
G1 X62.114 Y70.18 E.11028
G1 X64.302 Y67.415 E.11057
G1 X66.719 Y64.935 E.10856
M204 P1000
G1 X66.504 Y64.615 F9000
M204 P800
;TYPE:External perimeter
G1 F1200
G1 X69.239 Y62.334 E.11166
G1 X72.194 Y60.346 E.11166
G1 X75.337 Y58.672 E.11166
G1 X78.636 Y57.331 E.11166
G1 X82.055 Y56.335 E.11166
G1 X85.559 Y55.697 E.11166
G1 X89.109 Y55.422 E.11166
G1 X92.669 Y55.514 E.11166
G1 X96.201 Y55.971 E.11166
G1 X99.667 Y56.789 E.11166
G1 X103.031 Y57.959 E.11166
G1 X106.256 Y59.469 E.11166
G1 X109.309 Y61.302 E.11166
G1 X112.158 Y63.439 E.11166
G1 X114.771 Y65.859 E.11166
G1 X117.122 Y68.533 E.11166
G1 X119.186 Y71.436 E.11166
G1 X120.94 Y74.535 E.11166
G1 X122.366 Y77.798 E.11166
G1 X123.449 Y81.191 E.11166
G1 X124.177 Y84.677 E.11166
G1 X124.544 Y88.225 E.11183
G1 X124.588 Y90.08 E.05818
G1 X124.544 Y91.775 E.05318
G1 X124.177 Y95.323 E.11183
G1 X123.449 Y98.809 E.11166
G1 X122.366 Y102.202 E.11166
G1 X120.94 Y105.465 E.11166
G1 X119.186 Y108.564 E.11166
G1 X117.119 Y111.471 E.11184
G1 X116.153 Y112.634 E.04738
G1 X115.517 Y113.351 E.03007
G1 X114.776 Y114.137 E.03384
G1 X112.158 Y116.561 E.11188
G1 X109.309 Y118.698 E.11166
G1 X106.256 Y120.531 E.11166
G1 X103.031 Y122.041 E.11166
G1 X99.667 Y123.211 E.11166
G1 X96.201 Y124.029 E.11166
G1 X92.669 Y124.486 E.11166
G1 X89.109 Y124.578 E.11166
G1 X85.559 Y124.303 E.11166
G1 X82.055 Y123.665 E.11166
G1 X78.633 Y122.669 E.11176
G1 X75.337 Y121.328 E.11156
G1 X72.194 Y119.654 E.11166
G1 X69.239 Y117.666 E.11166
G1 X66.504 Y115.385 E.11165
G1 X63.92 Y112.721 E.11637
G1 X61.809 Y110.042 E.10694
G1 X59.897 Y107.037 E.11167
G1 X58.305 Y103.851 E.11166
G1 X57.049 Y100.519 E.11166
M73 P4 R19
G1 X56.142 Y97.075 E.11166
G1 X55.594 Y93.557 E.11166
G1 X55.411 Y90 E.11166
G1 X55.594 Y86.443 E.11166
G1 X56.142 Y82.925 E.11166
G1 X57.049 Y79.481 E.11166
G1 X58.305 Y76.149 E.11166
G1 X59.898 Y72.962 E.11169
G1 X61.806 Y69.961 E.1115
G1 X64.019 Y67.166 E.11179
G1 X66.462 Y64.658 E.10978
M204 P1000
G1 X66.886 Y64.734 F9000
G1 E-2.24 F4200
;WIPE_START
G1 F7200
G1 X67.724 Y63.602 E-.912
;WIPE_END
G1 E-.048 F4200
G1 Z.4 F720
G1 X67.822 Y63.719 F9000
G1 X84.473 Y68.14
G1 X87.054 Y67.626
G1 X90 Y67.433
G1 X92.946 Y67.626
G1 X95.841 Y68.202
G1 X98.636 Y69.151
G1 X101.283 Y70.456
G1 X103.738 Y72.096
G1 X105.957 Y74.043
G1 X107.904 Y76.262
G1 X109.544 Y78.717
G1 X110.849 Y81.364
G1 X111.798 Y84.159
G1 X112.374 Y87.054
G1 X112.416 Y87.7
G1 X115.568 Y89.363
G1 X115.371 Y89.293
G1 Z.2 F720
G1 E3.2 F2400
M204 P800
;TYPE:Perimeter
G1 F1200
G1 X115.392 Y89.221 E.00235
G1 X115.579 Y88.924 E.011
G1 X115.959 Y88.547 E.01681
G1 X116.514 Y88.28 E.0193
G1 X116.978 Y88.218 E.01468
G1 X117.501 Y88.288 E.01655
G1 X117.752 Y88.384 E.00842
G1 X118.179 Y88.656 E.01585
G1 X118.507 Y89.049 E.01605
G1 X118.738 Y89.605 E.01889
G1 X118.77 Y90.207 E.01889
G1 X118.759 Y90.319 E.00353
G1 X118.6 Y90.785 E.01543
G1 X118.248 Y91.273 E.01889
G1 X117.752 Y91.616 E.01889
G1 X117.171 Y91.774 E.01889
G1 X116.855 Y91.766 E.0099
G1 X116.387 Y91.674 E.01496
G1 X115.928 Y91.431 E.01629
G1 X115.579 Y91.076 E.01562
G1 X115.302 Y90.541 E.01889
G1 X115.224 Y90.013 E.01672
G1 X115.235 Y89.754 E.00814
G1 X115.354 Y89.351 E.01318
M204 P1000
G1 X115.721 Y89.405 F9000
M204 P800
;TYPE:External perimeter
G1 F1200
G1 X115.851 Y89.185 E.00801
G1 X116.188 Y88.849 E.01493
G1 X116.612 Y88.645 E.01473
G1 X116.951 Y88.594 E.01077
G1 X117.391 Y88.649 E.0139
G1 X117.555 Y88.705 E.00542
G1 X117.954 Y88.964 E.01493
G1 X118.245 Y89.341 E.01493
G1 X118.393 Y89.793 E.01493
G1 X118.389 Y90.244 E.01412
G1 X118.214 Y90.715 E.01575
G1 X117.906 Y91.078 E.01493
G1 X117.495 Y91.318 E.01493
G1 X117.028 Y91.408 E.01493
G1 X116.557 Y91.337 E.01493
G1 X116.137 Y91.113 E.01493
G1 X115.816 Y90.762 E.01493
G1 X115.629 Y90.324 E.01493
G1 X115.6 Y89.849 E.01492
G1 X115.706 Y89.463 E.01255
M204 P1000
G1 X115.565 Y89.203 F9000
G1 E-3.2 F4200
G1 Z.4 F720
G1 X114.943 Y98.563 F9000
G1 Z.2 F720
G1 E3.2 F2400
M204 P800
;TYPE:Perimeter
G1 F1200
G1 X115.331 Y98.587 E.01217
G1 X115.847 Y98.79 E.0174
G1 X116.256 Y99.129 E.01666
G1 X116.39 Y99.289 E.00653
G1 X116.63 Y99.734 E.01587
G1 X116.724 Y100.237 E.01604
G1 X116.655 Y100.835 E.01889
G1 X116.39 Y101.376 E.01889
G1 X116.006 Y101.757 E.01695
G1 X115.796 Y101.898 E.00792
G1 X115.285 Y102.087 E.01709
G1 X114.732 Y102.108 E.01734
G1 X114.229 Y101.965 E.01641
G1 X113.904 Y101.764 E.01198
G1 X113.594 Y101.495 E.01287
G1 X113.284 Y100.978 E.01889
G1 X113.163 Y100.388 E.01889
G1 X113.219 Y99.866 E.01647
G1 X113.417 Y99.415 E.01543
G1 X113.81 Y98.958 E.01889
G1 X114.332 Y98.659 E.01889
G1 X114.827 Y98.556 E.01585
G1 X114.883 Y98.559 E.00177
M204 P1000
G1 X114.926 Y98.927 F9000
M204 P800
;TYPE:External perimeter
G1 F1200
G1 X115.272 Y98.963 E.01091
G1 X115.711 Y99.15 E.01496
G1 X116.06 Y99.473 E.01491
G1 X116.283 Y99.893 E.01493
G1 X116.353 Y100.301 E.01295
G1 X116.27 Y100.815 E.01634
G1 X116.02 Y101.242 E.0155
G1 X115.656 Y101.548 E.01493
G1 X115.21 Y101.716 E.01493
G1 X114.734 Y101.725 E.01493
G1 X114.282 Y101.575 E.01493
G1 X113.906 Y101.284 E.01493
G1 X113.649 Y100.883 E.01493
G1 X113.539 Y100.42 E.01493
G1 X113.613 Y99.897 E.01656
G1 X113.796 Y99.518 E.01322
G1 X114.133 Y99.181 E.01493
G1 X114.559 Y98.977 E.0148
G1 X114.866 Y98.935 E.00974
M204 P1000
G1 X115.089 Y98.62 F9000
G1 E-2.24 F4200
;WIPE_START
G1 F7200
G1 X115.272 Y98.963 E-.2253
G1 X115.711 Y99.15 E-.26436
G1 X116.06 Y99.473 E-.26355
G1 X116.194 Y99.726 E-.1588
;WIPE_END
G1 E-.048 F4200
G1 Z.4 F720
G1 X116.573 Y110.256 F9000
G1 Z.2 F720
G1 E3.2 F2400
M204 P800
;TYPE:Perimeter
G1 F1200
G1 X116.567 Y110.482 E.00708
;WIDTH:0.446961
G1 X116.485 Y110.735 E.00893
;WIDTH:0.473923
G1 X116.403 Y110.988 E.00953
G1 X116.266 Y111.203 E.00915
;WIDTH:0.488378
G1 X115.954 Y111.538 E.01696
G1 X115.71 Y111.651 E.00995
;WIDTH:0.454189
G1 X115.467 Y111.764 E.00919
;WIDTH:0.419999
G1 X114.891 Y111.87 E.01836
G1 X114.306 Y111.776 E.01857
G1 X113.797 Y111.5 E.01816
G1 X113.405 Y111.065 E.01834
G1 X113.18 Y110.525 E.01836
G1 X113.148 Y109.94 E.01836
G1 X113.199 Y109.699 E.00773
G1 X113.405 Y109.211 E.01661
G1 X113.738 Y108.819 E.01611
G1 X114.179 Y108.545 E.01629
G1 X114.666 Y108.419 E.01579
G1 X115.128 Y108.421 E.01448
G1 X115.573 Y108.554 E.01457
G1 X116.051 Y108.872 E.01802
G1 X116.405 Y109.339 E.01836
G1 X116.584 Y109.896 E.01836
G1 X116.575 Y110.196 E.00939
M204 P1000
G1 X116.219 Y109.991 F9000
M204 P800
;TYPE:External perimeter
G1 F1200
G1 X116.175 Y110.511 E.01636
G1 X115.976 Y110.925 E.0144
G1 X115.651 Y111.249 E.0144
G1 X115.236 Y111.446 E.0144
G1 X114.779 Y111.494 E.01441
G1 X114.328 Y111.384 E.01454
G1 X113.948 Y111.137 E.01423
G1 X113.658 Y110.747 E.01521
G1 X113.525 Y110.297 E.01471
G1 X113.554 Y109.825 E.01485
G1 X113.699 Y109.448 E.01265
G1 X113.995 Y109.098 E.0144
G1 X114.391 Y108.866 E.01436
G1 X114.877 Y108.784 E.01546
G1 X115.073 Y108.795 E.00615
G1 X115.509 Y108.94 E.0144
G1 X115.871 Y109.222 E.0144
G1 X116.119 Y109.608 E.0144
G1 X116.204 Y109.933 E.01054
M204 P1000
G1 X116.581 Y110.161 F9000
G1 E-2.24 F4200
;WIPE_START
G1 F7200
G1 X116.175 Y110.511 E-.32074
G1 X115.976 Y110.925 E-.25445
G1 X115.651 Y111.249 E-.25445
G1 X115.516 Y111.313 E-.08236
;WIPE_END
G1 E-.048 F4200
G1 Z.4 F720
G1 X115.607 Y111.46 F9000
G1 X115.552 Y111.494
G1 X115.313 Y111.589
G1 X115.061 Y111.644
G1 X114.804 Y111.655
G1 X114.559 Y111.623
G1 X114.405 Y111.582
G1 X114.29 Y111.54
G1 X114.073 Y111.431
G1 X113.866 Y111.278
G1 X110.116 Y107.906
G1 X109.914 Y107.757
G1 X109.676 Y107.637
G1 X109.422 Y107.559
G1 X109.158 Y107.526
G1 X109.129 Y107.527
G1 X109.12 Y107.321
G1 Z.2 F720
G1 E3.2 F2400
M204 P800
;TYPE:Perimeter
G1 F1200
G1 X109.393 Y107.333 E.00854
G1 X109.713 Y107.417 E.01039
G1 X110.243 Y107.735 E.01938
G1 X110.605 Y108.148 E.01723
G1 X110.83 Y108.697 E.01859
G1 X110.862 Y109.298 E.01889
G1 X110.811 Y109.54 E.00773
G1 X110.599 Y110.043 E.01714
G1 X110.261 Y110.444 E.01644
G1 X109.844 Y110.708 E.01546
G1 X109.277 Y110.863 E.01843
G1 X109.072 Y110.874 E.00645
G1 X108.574 Y110.803 E.01577
G1 X108.11 Y110.58 E.01613
G1 X107.94 Y110.449 E.00672
M73 P4 R18
G1 X107.59 Y110.06 E.0164
G1 X107.356 Y109.52 E.01846
G1 X107.31 Y109.036 E.01523
G1 X107.431 Y108.446 E.01889
G1 X107.74 Y107.93 E.01887
G1 X107.991 Y107.685 E.01101
G1 X108.479 Y107.418 E.01743
G1 X108.974 Y107.315 E.01585
G1 X109.061 Y107.319 E.00271
M204 P1000
G1 X109.363 Y107.709 F9000
M204 P800
;TYPE:External perimeter
G1 F1200
G1 X109.71 Y107.838 E.01158
G1 X110.112 Y108.128 E.01555
G1 X110.337 Y108.433 E.01187
G1 X110.485 Y108.885 E.01493
G1 X110.456 Y109.414 E.0166
G1 X110.278 Y109.841 E.01449
G1 X109.968 Y110.189 E.01462
G1 X109.587 Y110.41 E.01381
G1 X109.12 Y110.5 E.01493
G1 X108.649 Y110.429 E.01493
G1 X108.213 Y110.188 E.01563
G1 X107.907 Y109.854 E.01419
G1 X107.721 Y109.411 E.01508
G1 X107.692 Y108.941 E.01476
G1 X107.822 Y108.483 E.01492
G1 X108.107 Y108.085 E.01533
G1 X108.28 Y107.941 E.00708
G1 X108.706 Y107.737 E.0148
G1 X109.073 Y107.686 E.01162
G1 X109.304 Y107.704 E.00725
M204 P1000
G1 X109.615 Y107.438 F9000
G1 E-3.2 F4200
G1 Z.4 F720
G1 X100.276 Y113.171 F9000
G1 Z.2 F720
G1 E3.2 F2400
M204 P800
;TYPE:Perimeter
G1 F1200
G1 X100.343 Y113.163 E.00211
G1 X100.755 Y113.209 E.01301
G1 X101.085 Y113.329 E.011
G1 X101.448 Y113.553 E.0134
G1 X101.838 Y113.991 E.01836
G1 X101.939 Y114.179 E.0067
G1 X102.1 Y114.685 E.01664
G1 X102.095 Y115.243 E.01751
G1 X101.933 Y115.729 E.01605
G1 X101.752 Y116.029 E.01101
G1 X101.347 Y116.41 E.01743
G1 X100.849 Y116.645 E.01728
G1 X100.614 Y116.705 E.00759
G1 X100.103 Y116.718 E.01601
G1 X99.617 Y116.577 E.01589
G1 X99.114 Y116.245 E.01889
G1 X98.981 Y116.107 E.00599
G1 X98.705 Y115.685 E.01582
G1 X98.567 Y115.191 E.01608
G1 X98.586 Y114.589 E.01889
G1 X98.634 Y114.404 E.00599
G1 X98.911 Y113.869 E.01889
G1 X99.334 Y113.466 E.01831
G1 X99.89 Y113.217 E.01911
