; generated by PrusaSlicer 2.5.2+win64 on 2023-04-24 at 11:46:39 UTC


;
;

;
;
; 

; external perimeters extrusion width = 0.45mm
; perimeters extrusion width = 0.45mm
; infill extrusion width = 0.45mm
; solid infill extrusion width = 0.45mm
; top infill extrusion width = 0.40mm
; first layer extrusion width = 0.42mm

M73 P0 R14
M201 X2500 Y2500 Z400 E5000 ; sets maximum accelerations, mm/sec^2
M203 X180 Y180 Z12 E80 ; sets maximum feedrates, mm / sec
M204 P1250 R1250 T2500 ; sets acceleration (P, T) and retract acceleration (R), mm/sec^2
M205 X8.00 Y8.00 Z2.00 E10.00 ; sets the jerk limits, mm/sec
M205 S0 T0 ; sets the minimum extruding and travel feed rate, mm/sec
M107
;TYPE:Custom
M862.3 P "MINI" ; printer model check
G90 ; use absolute coordinates
M83 ; extruder relative mode
M104 S170 ; set extruder temp for bed leveling
M140 S60 ; set bed temp
M109 R170 ; wait for bed leveling temp
M190 S60 ; wait for bed temp
M204 T1250 ; set travel acceleration
G28 ; home all without mesh bed level
G29 ; mesh bed leveling 
M204 T2500 ; restore travel acceleration
M104 S215 ; set extruder temp
G92 E0
G1 Y-2 X179 F2400
G1 Z3 F720
M109 S215 ; wait for extruder temp

; intro line
G1 X170 F1000
G1 Z0.2 F720
G1 X110 E8 F900
G1 X40 E10 F700
G92 E0

M221 S95 ; set flow
G21 ; set units to millimeters
G90 ; use absolute coordinates
M83 ; use relative distances for extrusion
M900 K0.2 ; Filament gcode LA 1.5
; ; Filament gcode LA 1.0
M107
;LAYER_CHANGE
;Z:0.2
;HEIGHT:0.2
;BEFORE_LAYER_CHANGE
G92 E0.0
;0.2


M73 P1 R14
G1 E-3.2 F4200
G1 Z.2 F720
;AFTER_LAYER_CHANGE
;0.2
G1 Z.4
G1 X85.459 Y84.445 F9000
G1 Z.2 F720
G1 E3.2 F2400
M204 P800
;TYPE:Skirt/Brim
;WIDTH:0.42
G1 F900
G1 X86.467 Y83.755 E.03829
G1 X87.569 Y83.25 E.03803
G1 X88.226 Y83.048 E.02154
G1 X89.429 Y82.848 E.03823
G1 X90.645 Y82.854 E.03814
G1 X91.842 Y83.066 E.0381
G1 X92.989 Y83.478 E.03823
G1 X94.048 Y84.076 E.03814
G1 X95.357 Y85.228 E.05467
G1 X96.087 Y86.202 E.03816
G1 X96.423 Y86.803 E.02161
G1 X96.871 Y87.934 E.03814
G1 X97.121 Y89.123 E.0381
G1 X97.164 Y90.476 E.04245
G1 X96.873 Y92.06 E.05047
G1 X96.424 Y93.195 E.03829
M73 P2 R14
G1 X95.792 Y94.235 E.03816
G1 X94.996 Y95.15 E.03803
G1 X94.478 Y95.606 E.02161
G1 X92.995 Y96.52 E.05465
G1 X91.846 Y96.933 E.03829
G1 X90.647 Y97.146 E.03816
G1 X89.43 Y97.152 E.03816
G1 X88.234 Y96.954 E.03803
G1 X87.08 Y96.554 E.03829
G1 X86.015 Y95.966 E.03816
G1 X85.067 Y95.21 E.03803
G1 X84.591 Y94.714 E.02154
G1 X83.871 Y93.73 E.03823
G1 X83.329 Y92.641 E.03814
G1 X82.889 Y90.954 E.05467
G1 X82.83 Y89.734 E.03829
G1 X82.977 Y88.531 E.03803
G1 X83.151 Y87.864 E.02161
G1 X83.61 Y86.737 E.03814
G1 X84.254 Y85.704 E.03817
G1 X85.418 Y84.488 E.05277
M204 P1000
G1 X85.684 Y84.748 F9000
M204 P800
G1 F900
G1 X86.637 Y84.092 E.03628
G1 X87.68 Y83.61 E.03603
G1 X88.336 Y83.409 E.02154
G1 X89.477 Y83.222 E.03623
G1 X90.629 Y83.231 E.03613
G1 X91.762 Y83.434 E.0361
G1 X92.849 Y83.827 E.03623
G1 X93.85 Y84.397 E.03613
G1 X95.064 Y85.465 E.05068
G1 X95.758 Y86.386 E.03615
G1 X96.094 Y86.987 E.02161
G1 X96.515 Y88.06 E.03613
G1 X96.749 Y89.187 E.0361
G1 X96.787 Y90.46 E.03994
G1 X96.517 Y91.934 E.04698
G1 X96.095 Y93.011 E.03628
G1 X95.498 Y93.998 E.03615
G1 X94.746 Y94.867 E.03603
G1 X94.229 Y95.323 E.02161
G1 X92.854 Y96.17 E.05065
G1 X91.766 Y96.565 E.03628
G1 X90.631 Y96.769 E.03615
G1 X89.478 Y96.778 E.03615
G1 X88.344 Y96.593 E.03603
G1 X87.25 Y96.217 E.03628
G1 X86.239 Y95.663 E.03615
G1 X85.339 Y94.948 E.03603
G1 X84.863 Y94.453 E.02154
G1 X84.183 Y93.519 E.03623
G1 X83.673 Y92.486 E.03613
G1 X83.265 Y90.922 E.05068
G1 X83.206 Y89.766 E.03628
G1 X83.342 Y88.625 E.03603
G1 X83.516 Y87.958 E.02161
G1 X83.954 Y86.893 E.03613
G1 X84.566 Y85.915 E.03618
G1 X85.642 Y84.791 E.04877
M204 P1000
G1 X85.908 Y85.051 F9000
M204 P800
G1 F900
G1 X86.806 Y84.429 E.03427
G1 X87.79 Y83.971 E.03403
G1 X88.447 Y83.769 E.02154
G1 X89.525 Y83.596 E.03422
G1 X90.613 Y83.608 E.03412
G1 X91.683 Y83.803 E.03411
G1 X92.708 Y84.177 E.03422
G1 X93.653 Y84.718 E.03412
G1 X94.771 Y85.702 E.04669
G1 X95.429 Y86.57 E.03415
G1 X95.765 Y87.171 E.02161
G1 X96.16 Y88.185 E.03412
G1 X96.378 Y89.251 E.03411
G1 X96.41 Y90.444 E.03743
G1 X96.161 Y91.809 E.04349
G1 X95.766 Y92.827 E.03427
G1 X95.205 Y93.761 E.03415
G1 X94.497 Y94.584 E.03403
G1 X93.98 Y95.04 E.02161
G1 X92.713 Y95.82 E.04666
G1 X91.687 Y96.196 E.03427
G1 X90.615 Y96.392 E.03415
G1 X89.526 Y96.404 E.03415
G1 X88.454 Y96.233 E.03403
G1 X87.42 Y95.881 E.03427
G1 X86.463 Y95.36 E.03415
G1 X85.611 Y94.687 E.03403
G1 X85.135 Y94.192 E.02154
G1 X84.496 Y93.307 E.03422
G1 X84.016 Y92.33 E.03412
G1 X83.64 Y90.89 E.04669
G1 X83.581 Y89.798 E.03427
G1 X83.707 Y88.72 E.03403
G1 X83.881 Y88.053 E.02161
G1 X84.297 Y87.048 E.03412
G1 X84.879 Y86.126 E.03418
G1 X85.867 Y85.094 E.04477
M204 P1000
; printing object A00020-PART-35-REV-P3.STL id:0 copy 0
G1 E-2.24 F4200
;WIPE_START
G1 F7200
G1 X86.806 Y84.429 E-.63827
G1 X87.254 Y84.22 E-.27373
;WIPE_END
G1 E-.048 F4200
G1 Z.4 F720
G1 X87.662 Y87.22 F9000
G1 Z.2 F720
G1 E3.2 F2400
M204 P800
;TYPE:External perimeter
;WIDTH:0.419999
G1 F900
G1 X88.165 Y86.865 E.01932
G1 X88.722 Y86.6 E.01932
G1 X89.315 Y86.433 E.01932
G1 X89.927 Y86.368 E.01932
G1 X90.542 Y86.408 E.01932
G1 X91.141 Y86.552 E.01932
G1 X91.708 Y86.794 E.01932
G1 X92.225 Y87.129 E.01932
G1 X92.678 Y87.546 E.01932
G1 X93.055 Y88.034 E.01932
G1 X93.343 Y88.579 E.01932
G1 X93.539 Y89.189 E.02009
G1 X93.626 Y89.73 E.01719
G1 X93.62 Y90.337 E.01904
G1 X93.494 Y90.994 E.02097
G1 X93.276 Y91.57 E.01932
G1 X92.963 Y92.101 E.01932
G1 X92.565 Y92.572 E.01932
G1 X92.094 Y92.968 E.01932
G1 X91.562 Y93.279 E.01932
G1 X90.985 Y93.496 E.01932
G1 X90.38 Y93.613 E.01932
G1 X89.764 Y93.625 E.01932
G1 X89.155 Y93.533 E.01932
G1 X88.57 Y93.339 E.01932
G1 X88.026 Y93.05 E.01932
G1 X87.539 Y92.672 E.01932
G1 X87.123 Y92.218 E.01932
G1 X86.79 Y91.7 E.01932
M73 P3 R14
G1 X86.549 Y91.133 E.01932
G1 X86.407 Y90.533 E.01932
G1 X86.368 Y89.918 E.01932
G1 X86.434 Y89.306 E.01932
G1 X86.603 Y88.713 E.01932
G1 X86.869 Y88.158 E.01932
G1 X87.226 Y87.655 E.01932
G1 X87.62 Y87.262 E.01744
M204 P1000
G1 X88.038 Y87.356 F9000
G1 X88.122 Y87.842
M204 P800
G1 F900
G1 X88.514 Y87.556 E.01521
G1 X88.948 Y87.34 E.01521
G1 X89.413 Y87.201 E.01521
G1 X89.895 Y87.142 E.01521
G1 X90.379 Y87.165 E.01521
G1 X90.853 Y87.27 E.01521
G1 X91.302 Y87.453 E.01521
G1 X91.714 Y87.71 E.01521
G1 X92.076 Y88.033 E.01521
G1 X92.379 Y88.412 E.01521
G1 X92.613 Y88.836 E.01521
G1 X92.773 Y89.303 E.01546
G1 X92.86 Y90 E.02203
G1 X92.773 Y90.697 E.02203
G1 X92.607 Y91.178 E.01596
G1 X92.361 Y91.615 E.01571
G1 X92.054 Y91.991 E.01521
G1 X91.688 Y92.309 E.01521
G1 X91.273 Y92.561 E.01521
G1 X90.822 Y92.739 E.01521
G1 X90.347 Y92.839 E.01521
G1 X89.863 Y92.857 E.01521
G1 X89.382 Y92.793 E.01521
G1 X88.919 Y92.648 E.01521
G1 X88.487 Y92.427 E.01521
G1 X88.098 Y92.136 E.01521
G1 X87.765 Y91.784 E.01521
G1 X87.495 Y91.381 E.01521
G1 X87.298 Y90.938 E.01521
G1 X87.178 Y90.468 E.01521
G1 X87.14 Y89.984 E.01521
G1 X87.184 Y89.501 E.01521
G1 X87.309 Y89.032 E.01521
G1 X87.511 Y88.591 E.01521
G1 X87.785 Y88.191 E.01521
G1 X88.081 Y87.886 E.01333
M204 P1000
G1 X88.046 Y87.45 F9000
G1 X87.892 Y87.531
M204 P800
;TYPE:Perimeter
;WIDTH:0.440076
G1 F900
G1 X88.34 Y87.21 E.01818
G1 X88.835 Y86.97 E.01818
G1 X89.364 Y86.817 E.01818
G1 X89.911 Y86.755 E.01818
G1 X90.461 Y86.787 E.01818
G1 X90.997 Y86.911 E.01818
G1 X91.505 Y87.124 E.01818
G1 X91.969 Y87.419 E.01818
G1 X92.377 Y87.789 E.01818
G1 X92.717 Y88.223 E.01818
G1 X92.978 Y88.708 E.01818
G1 X93.153 Y89.229 E.01818
;WIDTH:0.461472
G1 X93.228 Y89.73 E.01762
G1 X93.228 Y90.27 E.0188
G1 X93.129 Y90.865 E.021
;WIDTH:0.440076
G1 X92.938 Y91.381 E.01818
G1 X92.662 Y91.858 E.01818
G1 X92.31 Y92.281 E.01818
G1 X91.891 Y92.639 E.01818
G1 X91.418 Y92.92 E.01818
G1 X90.904 Y93.118 E.01818
G1 X90.364 Y93.226 E.01818
G1 X89.813 Y93.241 E.01818
G1 X89.268 Y93.163 E.01818
G1 X88.744 Y92.994 E.01818
G1 X88.257 Y92.738 E.01818
G1 X87.819 Y92.404 E.01818
G1 X87.444 Y92.001 E.01818
G1 X87.143 Y91.54 E.01818
G1 X86.923 Y91.035 E.01818
G1 X86.793 Y90.5 E.01818
G1 X86.754 Y89.951 E.01818
G1 X86.809 Y89.403 E.01818
G1 X86.956 Y88.873 E.01818
G1 X87.19 Y88.374 E.01818
G1 X87.505 Y87.923 E.01818
G1 X87.85 Y87.574 E.0162
M204 P1000
; stop printing object A00020-PART-35-REV-P3.STL id:0 copy 0
M106 S84.15
;LAYER_CHANGE
;Z:0.4
;HEIGHT:0.2
;BEFORE_LAYER_CHANGE
G92 E0.0
;0.4


G1 E-2.24 F4200
;WIPE_START
G1 F7200
G1 X88.34 Y87.21 E-.33794
G1 X88.835 Y86.97 E-.30512
G1 X89.301 Y86.835 E-.26894
;WIPE_END
G1 E-.048 F4200
G1 Z.4 F720
;AFTER_LAYER_CHANGE
;0.4
; printing object A00020-PART-35-REV-P3.STL id:0 copy 0
G1 X89.357 Y86.632 F9000
G1 E3.2 F2400
M204 P800
;WIDTH:0.411537
G1 F900
G1 X89.936 Y86.572 E.01783
G1 X90.516 Y86.611 E.01781
G1 X91.082 Y86.746 E.01784
G1 X91.616 Y86.976 E.01783
G1 X92.104 Y87.292 E.01783
G1 X92.531 Y87.687 E.01783
G1 X92.886 Y88.148 E.01783
G1 X93.157 Y88.662 E.01783
G1 X93.338 Y89.215 E.01783
;WIDTH:0.412917
G1 X93.422 Y89.725 E.0159
G1 X93.423 Y89.79 E.00201
;WIDTH:0.411537
G1 X93.409 Y90.372 E.01783
G1 X93.297 Y90.943 E.01783
G1 X93.09 Y91.486 E.01783
G1 X92.795 Y91.987 E.01783
G1 X92.419 Y92.431 E.01783
G1 X91.973 Y92.804 E.01781
G1 X91.471 Y93.098 E.01784
G1 X90.926 Y93.302 E.01783
G1 X90.355 Y93.411 E.01783
G1 X89.773 Y93.421 E.01783
G1 X89.198 Y93.334 E.01783
G1 X88.646 Y93.15 E.01783
G1 X88.133 Y92.876 E.01783
G1 X87.675 Y92.519 E.01781
G1 X87.282 Y92.09 E.01784
G1 X86.968 Y91.601 E.01783
G1 X86.741 Y91.065 E.01783
G1 X86.608 Y90.499 E.01783
G1 X86.572 Y89.919 E.01783
G1 X86.635 Y89.34 E.01783
G1 X86.795 Y88.781 E.01783
G1 X87.047 Y88.258 E.01781
G1 X87.384 Y87.783 E.01784
G1 X87.796 Y87.373 E.01783
G1 X88.272 Y87.038 E.01783
G1 X88.797 Y86.789 E.01783
G1 X89.3 Y86.648 E.01599
M204 P1000
G1 E-3.2 F4200
G1 Z.6 F720
G1 X88.013 Y87.673 F9000
G1 Z.4 F720
G1 E3.2 F2400
M204 P800
;WIDTH:0.412918
G1 F900
G1 X88.394 Y87.391 E.01455
G1 X88.858 Y87.157 E.01599
G1 X89.355 Y87.005 E.01599
G1 X89.87 Y86.939 E.01599
G1 X90.384 Y86.961 E.01584
G1 X90.898 Y87.071 E.01615
G1 X91.379 Y87.264 E.01597
G1 X91.822 Y87.537 E.01599
G1 X92.212 Y87.88 E.01599
G1 X92.538 Y88.284 E.01599
G1 X92.792 Y88.738 E.01599
G1 X92.965 Y89.228 E.01599
G1 X93.053 Y89.741 E.016
G1 X93.053 Y90.259 E.01597
G1 X92.965 Y90.772 E.016
G1 X92.792 Y91.262 E.01599
G1 X92.538 Y91.716 E.01599
G1 X92.212 Y92.12 E.01599
G1 X91.826 Y92.46 E.01584
G1 X91.379 Y92.736 E.01615
G1 X90.897 Y92.929 E.01597
G1 X90.389 Y93.039 E.01599
G1 X89.87 Y93.061 E.01599
G1 X89.355 Y92.995 E.01599
G1 X88.858 Y92.843 E.01599
G1 X88.394 Y92.609 E.01599
G1 X87.98 Y92.303 E.01584
G1 X87.616 Y91.924 E.01615
G1 X87.325 Y91.494 E.01597
G1 X87.111 Y91.021 E.01599
G1 X86.98 Y90.518 E.01599
G1 X86.936 Y90 E.01599
G1 X86.98 Y89.482 E.01599
G1 X87.111 Y88.979 E.01599
G1 X87.323 Y88.51 E.01584
G1 X87.617 Y88.075 E.01615
G1 X87.967 Y87.71 E.01556
M204 P1000
G1 X88.246 Y87.981 F9000
M204 P800
;TYPE:External perimeter
;WIDTH:0.449999
G1 F900
G1 X88.613 Y87.714 E.01535
G1 X89.019 Y87.512 E.01535
G1 X89.453 Y87.382 E.01535
G1 X89.904 Y87.327 E.01535
G1 X90.357 Y87.35 E.01535
G1 X90.8 Y87.448 E.01535
G1 X91.219 Y87.62 E.01535
G1 X91.604 Y87.86 E.01535
G1 X91.943 Y88.162 E.01535
G1 X92.225 Y88.517 E.01535
G1 X92.444 Y88.914 E.01535
G1 X92.592 Y89.343 E.01535
G1 X92.665 Y89.773 E.01478
G1 X92.663 Y90.244 E.01593
G1 X92.584 Y90.691 E.01535
G1 X92.43 Y91.117 E.01535
G1 X92.206 Y91.512 E.01535
G1 X91.919 Y91.863 E.01535
G1 X91.576 Y92.16 E.01535
G1 X91.189 Y92.396 E.01535
G1 X90.767 Y92.562 E.01535
G1 X90.323 Y92.655 E.01535
G1 X89.869 Y92.671 E.01535
G1 X89.42 Y92.611 E.01535
G1 X88.987 Y92.475 E.01535
G1 X88.583 Y92.268 E.01535
G1 X88.22 Y91.996 E.01535
G1 X87.908 Y91.667 E.01535
G1 X87.657 Y91.289 E.01535
G1 X87.473 Y90.875 E.01535
G1 X87.361 Y90.435 E.01535
G1 X87.326 Y89.983 E.01535
G1 X87.367 Y89.531 E.01535
G1 X87.484 Y89.093 E.01535
G1 X87.674 Y88.681 E.01535
G1 X87.93 Y88.306 E.01535
G1 X88.204 Y88.024 E.01332
M204 P1000
G1 X88.17 Y87.588 F9000
G1 X87.104 Y87.515
M204 P800
G1 F900
G1 X87.566 Y87.061 E.02191
G1 X88.097 Y86.692 E.02191
G1 X88.684 Y86.418 E.02191
G1 X89.308 Y86.247 E.02191
G1 X89.952 Y86.184 E.02191
G1 X90.597 Y86.232 E.02187
G1 X91.226 Y86.386 E.02194
G1 X91.819 Y86.645 E.02191
G1 X92.36 Y87.001 E.02191
G1 X92.833 Y87.443 E.02191
G1 X93.224 Y87.959 E.02191
G1 X93.523 Y88.533 E.02191
G1 X93.72 Y89.149 E.02191
G1 X93.81 Y89.725 E.01972
G1 X93.791 Y90.437 E.02412
G1 X93.663 Y91.072 E.02191
G1 X93.429 Y91.675 E.02191
G1 X93.096 Y92.231 E.02191
G1 X92.675 Y92.722 E.02191
G1 X92.177 Y93.133 E.02187
G1 X91.615 Y93.457 E.02194
G1 X91.008 Y93.681 E.02191
G1 X90.371 Y93.798 E.02191
G1 X89.724 Y93.806 E.02191
G1 X89.085 Y93.705 E.02191
G1 X88.472 Y93.497 E.02191
G1 X87.903 Y93.188 E.02191
G1 X87.395 Y92.788 E.02187
G1 X86.96 Y92.307 E.02194
G1 X86.614 Y91.761 E.02191
G1 X86.365 Y91.163 E.02191
G1 X86.221 Y90.532 E.02191
M73 P4 R14
G1 X86.186 Y89.886 E.02191
G1 X86.26 Y89.243 E.02191
G1 X86.442 Y88.621 E.02191
G1 X86.726 Y88.041 E.02187
G1 X87.069 Y87.563 E.01991
M204 P1000
G1 X87.497 Y87.589 F9000
; stop printing object A00020-PART-35-REV-P3.STL id:0 copy 0
M106 S170.85
;LAYER_CHANGE
;Z:0.6
;HEIGHT:0.2
;BEFORE_LAYER_CHANGE
G92 E0.0
;0.6


G1 E-2.24 F4200
;WIPE_START
G1 F7200
G1 X87.566 Y87.061 E-.39149
G1 X88.097 Y86.692 E-.3587
G1 X88.362 Y86.568 E-.1618
;WIPE_END
G1 E-.048 F4200
G1 Z.6 F720
;AFTER_LAYER_CHANGE
;0.6
; printing object A00020-PART-35-REV-P3.STL id:0 copy 0
G1 X88.272 Y87.038 F9000
G1 E3.2 F2400
M204 P800
;TYPE:Perimeter
;WIDTH:0.411499
G1 F900
G1 X88.797 Y86.789 E.01782
G1 X89.357 Y86.632 E.01782
;WIDTH:0.412108
G1 X89.927 Y86.572 E.01757
G1 X90.515 Y86.611 E.01812
;WIDTH:0.411498
G1 X91.082 Y86.746 E.01784
G1 X91.616 Y86.976 E.01782
G1 X92.104 Y87.292 E.01782
G1 X92.531 Y87.687 E.01782
;WIDTH:0.412106
G1 X92.881 Y88.14 E.01757
G1 X93.157 Y88.662 E.01814
;WIDTH:0.411499
G1 X93.338 Y89.215 E.01783
;WIDTH:0.412918
G1 X93.422 Y89.725 E.0159
G1 X93.423 Y89.79 E.00201
;WIDTH:0.411537
G1 X93.409 Y90.372 E.01783
G1 X93.297 Y90.943 E.01783
G1 X93.09 Y91.486 E.01783
G1 X92.795 Y91.987 E.01783
G1 X92.419 Y92.431 E.01783
G1 X91.973 Y92.805 E.01783
G1 X91.471 Y93.098 E.01783
G1 X90.926 Y93.3 E.0178
G1 X90.355 Y93.411 E.01784
G1 X89.773 Y93.421 E.01783
G1 X89.198 Y93.334 E.01783
G1 X88.646 Y93.15 E.01783
G1 X88.133 Y92.876 E.01783
;WIDTH:0.412108
G1 X87.681 Y92.526 E.01757
G1 X87.283 Y92.09 E.01812
;WIDTH:0.411499
G1 X86.968 Y91.601 E.01784
G1 X86.741 Y91.065 E.01782
G1 X86.608 Y90.499 E.01782
G1 X86.572 Y89.919 E.01782
G1 X86.635 Y89.34 E.01782
G1 X86.795 Y88.781 E.01782
G1 X87.048 Y88.258 E.0178
G1 X87.384 Y87.783 E.01784
G1 X87.796 Y87.373 E.01782
G1 X88.223 Y87.073 E.01599
M204 P1000
G1 X88.097 Y86.692 F9000
M204 P800
;TYPE:External perimeter
;WIDTH:0.449999
G1 F900
G1 X88.684 Y86.418 E.02191
G1 X89.308 Y86.247 E.02191
G1 X89.943 Y86.184 E.0216
G1 X90.596 Y86.232 E.02216
G1 X91.226 Y86.386 E.02196
G1 X91.819 Y86.645 E.02191
G1 X92.36 Y87.001 E.02191
G1 X92.833 Y87.443 E.02191
G1 X93.22 Y87.951 E.0216
G1 X93.523 Y88.533 E.02222
G1 X93.72 Y89.149 E.02191
G1 X93.81 Y89.725 E.01972
G1 X93.791 Y90.437 E.02412
G1 X93.663 Y91.072 E.02191
G1 X93.429 Y91.675 E.02191
G1 X93.096 Y92.231 E.02191
G1 X92.675 Y92.722 E.02191
G1 X92.176 Y93.135 E.02191
G1 X91.615 Y93.457 E.02191
G1 X91.009 Y93.679 E.02185
G1 X90.371 Y93.798 E.02196
G1 X89.724 Y93.806 E.02191
G1 X89.085 Y93.705 E.02191
G1 X88.472 Y93.497 E.02191
G1 X87.903 Y93.188 E.02191
G1 X87.401 Y92.795 E.0216
G1 X86.963 Y92.308 E.02216
G1 X86.614 Y91.761 E.02196
G1 X86.365 Y91.163 E.02191
G1 X86.221 Y90.532 E.02191
G1 X86.186 Y89.886 E.02191
G1 X86.26 Y89.243 E.02191
G1 X86.442 Y88.621 E.02191
G1 X86.726 Y88.042 E.02185
G1 X87.104 Y87.515 E.02196
G1 X87.566 Y87.061 E.02191
G1 X88.048 Y86.726 E.01988
M204 P1000
G1 X88.443 Y86.893 F9000
G1 X88.012 Y87.68
M204 P800
;TYPE:Perimeter
;WIDTH:0.411498
G1 F900
G1 X88.353 Y87.42 E.01313
G1 X88.812 Y87.179 E.01591
G1 X89.306 Y87.018 E.01591
G1 X89.813 Y86.945 E.01569
G1 X90.337 Y86.958 E.01608
