; generated by PrusaSlicer 2.5.2+win64 on 2023-05-23 at 04:49:28 UTC


;
;

;
;
; 

; external perimeters extrusion width = 0.45mm
; perimeters extrusion width = 0.45mm
; infill extrusion width = 0.45mm
; solid infill extrusion width = 0.45mm
; top infill extrusion width = 0.40mm
; first layer extrusion width = 0.42mm

M73 P0 R6
M201 X2500 Y2500 Z400 E5000 ; sets maximum accelerations, mm/sec^2
M203 X180 Y180 Z12 E80 ; sets maximum feedrates, mm / sec
M204 P1250 R1250 T2500 ; sets acceleration (P, T) and retract acceleration (R), mm/sec^2
M205 X8.00 Y8.00 Z2.00 E10.00 ; sets the jerk limits, mm/sec
M205 S0 T0 ; sets the minimum extruding and travel feed rate, mm/sec
M107
;TYPE:Custom
M862.3 P "MINI" ; printer model check
G90 ; use absolute coordinates
M83 ; extruder relative mode
M104 S170 ; set extruder temp for bed leveling
M140 S60 ; set bed temp
M109 R170 ; wait for bed leveling temp
M190 S60 ; wait for bed temp
M204 T1250 ; set travel acceleration
G28 ; home all without mesh bed level
G29 ; mesh bed leveling 
M204 T2500 ; restore travel acceleration
M104 S215 ; set extruder temp
G92 E0
G1 Y-2 X179 F2400
G1 Z3 F720
M109 S215 ; wait for extruder temp

; intro line
M73 P1 R6
G1 X170 F1000
G1 Z0.2 F720
G1 X110 E8 F900
G1 X40 E10 F700
G92 E0

M221 S95 ; set flow
G21 ; set units to millimeters
G90 ; use absolute coordinates
M83 ; use relative distances for extrusion
M900 K0.2 ; Filament gcode LA 1.5
; ; Filament gcode LA 1.0
M107
;LAYER_CHANGE
;Z:0.2
;HEIGHT:0.2
;BEFORE_LAYER_CHANGE
G92 E0.0
;0.2


M73 P2 R6
G1 E-3.2 F4200
M73 P3 R6
G1 Z.2 F720
;AFTER_LAYER_CHANGE
;0.2
G1 Z.4
G1 X73.705 Y77.569 F9000
G1 Z.2 F720
G1 E3.2 F2400
M204 P800
;TYPE:Skirt/Brim
;WIDTH:0.42
G1 F1200
G1 X75 Y77.246 E.04186
G1 X105 Y77.246 E.94063
G1 X106.417 Y77.639 E.04612
M73 P4 R6
G1 X107.431 Y78.705 E.04612
G1 X107.754 Y80 E.04186
G1 X107.754 Y100 E.62709
G1 X107.361 Y101.417 E.04612
G1 X106.295 Y102.431 E.04612
G1 X105 Y102.754 E.04186
G1 X75 Y102.754 E.94063
G1 X73.583 Y102.361 E.04612
M73 P5 R6
G1 X72.569 Y101.295 E.04612
G1 X72.246 Y100 E.04186
G1 X72.246 Y80 E.62709
G1 X72.639 Y78.583 E.04612
G1 X73.661 Y77.611 E.04424
M204 P1000
G1 X73.927 Y77.928 F9000
M204 P800
G1 F1200
G1 X74.06 Y77.817 E.00544
G1 X75 Y77.623 E.03008
G1 X105 Y77.623 E.94063
G1 X106.307 Y78.015 E.04278
G1 X107.183 Y79.06 E.04278
G1 X107.377 Y80 E.03008
G1 X107.377 Y100 E.62709
G1 X106.985 Y101.307 E.04278
M73 P6 R6
G1 X105.94 Y102.183 E.04278
G1 X105 Y102.377 E.03008
G1 X75 Y102.377 E.94063
G1 X73.693 Y101.985 E.04278
G1 X72.817 Y100.94 E.04278
G1 X72.623 Y100 E.03008
G1 X72.623 Y80 E.62709
G1 X73.015 Y78.693 E.04278
G1 X73.881 Y77.967 E.03546
M204 P1000
; printing object PopRivetTestingPrint.STL id:0 copy 0
G1 E-2.24 F4200
;WIPE_START
G1 F7200
G1 X74.06 Y77.817 E-.12943
G1 X75 Y77.623 E-.53172
G1 X75.453 Y77.623 E-.25085
;WIPE_END
G1 E-.048 F4200
G1 Z.4 F720
G1 X75.787 Y80.787 F9000
G1 Z.2 F720
G1 E3.2 F2400
M204 P800
;TYPE:Perimeter
;WIDTH:0.419999
G1 F1200
G1 X104.213 Y80.787 E.89127
G1 X104.213 Y99.213 E.57773
M73 P7 R6
G1 X75.787 Y99.213 E.89127
G1 X75.787 Y80.847 E.57585
M204 P1000
G1 X75.41 Y80.41 F9000
M204 P800
;TYPE:External perimeter
G1 F1200
G1 X104.59 Y80.41 E.91492
G1 X104.59 Y99.59 E.60137
M73 P8 R6
G1 X75.41 Y99.59 E.91492
G1 X75.41 Y80.47 E.59949
M204 P1000
G1 X75.803 Y80.487 F9000
M73 P9 R6
G1 E-3.2 F4200
G1 Z.4 F720
G1 X87.489 Y90.327 F9000
G1 Z.2 F720
G1 E3.2 F2400
M204 P800
;TYPE:Perimeter
G1 F1200
G1 X87.468 Y89.844 E.01514
G1 X87.531 Y89.419 E.01349
G1 X87.665 Y89.01 E.01349
G1 X87.866 Y88.63 E.01349
G1 X88.128 Y88.289 E.01349
G1 X88.444 Y87.997 E.01349
G1 X88.805 Y87.763 E.01349
G1 X89.2 Y87.593 E.01349
G1 X89.619 Y87.493 E.01349
G1 X90.008 Y87.466 E.01222
G1 X90.476 Y87.509 E.01473
G1 X90.89 Y87.625 E.01349
G1 X91.279 Y87.81 E.01349
G1 X91.63 Y88.057 E.01349
G1 X91.935 Y88.361 E.01349
G1 X92.184 Y88.711 E.01349
G1 X92.371 Y89.099 E.01349
G1 X92.479 Y89.474 E.01222
G1 X92.536 Y89.916 E.01399
G1 X92.509 Y90.37 E.01425
G1 X92.404 Y90.804 E.01401
G1 X92.259 Y91.148 E.0117
G1 X92.01 Y91.546 E.01473
G1 X91.72 Y91.864 E.01349
G1 X91.38 Y92.128 E.01349
G1 X91.001 Y92.33 E.01349
G1 X90.593 Y92.466 E.01349
G1 X90.167 Y92.531 E.01349
G1 X89.737 Y92.523 E.01349
G1 X89.315 Y92.442 E.01349
G1 X88.912 Y92.291 E.01349
G1 X88.54 Y92.074 E.01349
G1 X88.211 Y91.798 E.01349
G1 X87.933 Y91.469 E.01349
G1 X87.714 Y91.099 E.01349
G1 X87.561 Y90.697 E.01349
G1 X87.5 Y90.386 E.00993
M204 P1000
G1 X87.93 Y90.617 F9000
M204 P800
;TYPE:External perimeter
G1 F1200
G1 X87.855 Y90.259 E.01149
G1 X87.843 Y89.892 E.01149
G1 X87.892 Y89.529 E.01149
G1 X88.002 Y89.18 E.01149
G1 X88.169 Y88.854 E.01149
G1 X88.389 Y88.561 E.01149
G1 X88.655 Y88.309 E.01149
G1 X88.96 Y88.106 E.01149
G1 X89.295 Y87.958 E.01149
G1 X89.651 Y87.868 E.01149
G1 X89.981 Y87.842 E.0104
G1 X90.381 Y87.874 E.01256
G1 X90.735 Y87.969 E.01149
G1 X91.067 Y88.122 E.01149
G1 X91.369 Y88.329 E.01149
G1 X91.632 Y88.585 E.01149
G1 X91.848 Y88.881 E.01149
G1 X92.01 Y89.209 E.01149
G1 X92.105 Y89.527 E.0104
G1 X92.159 Y89.916 E.01231
G1 X92.141 Y90.29 E.01174
G1 X92.054 Y90.663 E.01201
G1 X91.935 Y90.955 E.00987
G1 X91.727 Y91.297 E.01256
G1 X91.483 Y91.571 E.01149
G1 X91.196 Y91.799 E.01149
G1 X90.875 Y91.975 E.01149
G1 X90.529 Y92.094 E.01149
G1 X90.167 Y92.154 E.01149
G1 X89.801 Y92.151 E.01149
G1 X89.44 Y92.086 E.01149
G1 X89.096 Y91.962 E.01149
G1 X88.777 Y91.781 E.01149
G1 X88.494 Y91.548 E.01149
G1 X88.254 Y91.272 E.01149
G1 X88.064 Y90.958 E.01149
G1 X87.952 Y90.673 E.00961
M204 P1000
G1 X87.573 Y90.532 F9000
G1 E-2.24 F4200
;WIPE_START
G1 F7200
G1 X87.855 Y90.259 E-.23588
G1 X87.843 Y89.892 E-.20304
G1 X87.892 Y89.529 E-.20305
G1 X88.002 Y89.18 E-.20304
G1 X88.057 Y89.072 E-.06699
;WIPE_END
G1 E-.048 F4200
G1 Z.4 F720
G1 X87.917 Y89.002 F9000
G1 X88.026 Y88.785
G1 X88.26 Y88.469
G1 X88.544 Y88.197
G1 X88.87 Y87.977
G1 X89.228 Y87.815
G1 X89.608 Y87.716
G1 X90 Y87.682
G1 X90.392 Y87.716
G1 X90.527 Y87.751
G1 X103.336 Y80.566
G1 X103.336 Y80.9
G1 Z.2 F720
G1 E3.2 F2400
M204 P800
;TYPE:Solid infill
;WIDTH:0.42065
G1 F1200
G1 X103.93 Y81.494 E.02638
G1 X103.93 Y82.028 E.01678
G1 X102.972 Y81.07 E.04257
G1 X102.437 Y81.07 E.01678
G1 X103.93 Y82.563 E.0663
G1 X103.93 Y83.097 E.01678
G1 X101.903 Y81.07 E.09003
G1 X101.369 Y81.07 E.01678
G1 X103.93 Y83.631 E.11376
G1 X103.93 Y84.165 E.01678
G1 X100.835 Y81.07 E.13748
G1 X100.301 Y81.07 E.01678
G1 X103.93 Y84.699 E.16121
G1 X103.93 Y85.233 E.01678
M73 P10 R6
G1 X99.767 Y81.07 E.18494
G1 X99.232 Y81.07 E.01678
G1 X103.93 Y85.768 E.20867
G1 X103.93 Y86.302 E.01678
G1 X98.698 Y81.07 E.2324
G1 X98.164 Y81.07 E.01678
G1 X103.93 Y86.836 E.25612
G1 X103.93 Y87.37 E.01678
G1 X97.63 Y81.07 E.27985
G1 X97.096 Y81.07 E.01678
G1 X103.93 Y87.904 E.30358
G1 X103.93 Y88.439 E.01678
G1 X96.561 Y81.07 E.32731
G1 X96.027 Y81.07 E.01678
G1 X103.93 Y88.973 E.35103
G1 X103.93 Y89.507 E.01678
G1 X95.493 Y81.07 E.37476
G1 X94.959 Y81.07 E.01678
M73 P11 R6
G1 X103.93 Y90.041 E.39849
G1 X103.93 Y90.575 E.01678
G1 X94.425 Y81.07 E.42222
G1 X93.89 Y81.07 E.01678
G1 X103.93 Y91.11 E.44595
G1 X103.93 Y91.644 E.01678
G1 X93.356 Y81.07 E.46967
G1 X92.822 Y81.07 E.01678
G1 X103.93 Y92.178 E.4934
G1 X103.93 Y92.712 E.01678
G1 X92.288 Y81.07 E.51713
G1 X91.754 Y81.07 E.01678
M73 P12 R6
G1 X103.93 Y93.246 E.54086
G1 X103.93 Y93.781 E.01678
G1 X91.219 Y81.07 E.56458
G1 X90.685 Y81.07 E.01678
G1 X103.93 Y94.315 E.58831
G1 X103.93 Y94.849 E.01678
G1 X90.151 Y81.07 E.61204
G1 X89.617 Y81.07 E.01678
M73 P13 R6
G1 X103.93 Y95.383 E.63577
G1 X103.93 Y95.917 E.01678
G1 X89.083 Y81.07 E.6595
G1 X88.549 Y81.07 E.01678
G1 X103.93 Y96.452 E.68322
G1 X103.93 Y96.986 E.01678
M73 P13 R5
G1 X88.014 Y81.07 E.70695
G1 X87.48 Y81.07 E.01678
M73 P14 R5
G1 X103.93 Y97.52 E.73068
G1 X103.93 Y98.054 E.01678
G1 X86.946 Y81.07 E.75441
G1 X86.412 Y81.07 E.01678
G1 X103.93 Y98.588 E.77813
G1 X103.93 Y98.93 E.01074
M73 P15 R5
G1 X103.738 Y98.93 E.00604
G1 X85.878 Y81.07 E.79332
G1 X85.343 Y81.07 E.01678
G1 X103.204 Y98.93 E.79332
G1 X102.669 Y98.93 E.01678
G1 X92.548 Y88.809 E.44956
G1 X92.365 Y88.466 E.01221
G1 X92.073 Y88.089 E.01498
G1 X91.821 Y87.848 E.01094
G1 X91.431 Y87.571 E.01502
G1 X91.211 Y87.472 E.0076
G1 X84.809 Y81.07 E.28435
G1 X84.275 Y81.07 E.01678
M73 P16 R5
G1 X90.42 Y87.215 E.27295
G1 X89.859 Y87.189 E.01763
G1 X83.741 Y81.07 E.27178
G1 X83.207 Y81.07 E.01678
G1 X89.39 Y87.253 E.27465
G1 X89.123 Y87.321 E.00866
G1 X88.983 Y87.38 E.00477
G1 X82.672 Y81.07 E.2803
G1 X82.138 Y81.07 E.01678
G1 X88.619 Y87.551 E.28786
G1 X88.3 Y87.766 E.01208
G1 X81.604 Y81.07 E.29743
G1 X81.07 Y81.07 E.01678
G1 X88.014 Y88.014 E.30844
G1 X87.841 Y88.188 E.00771
G1 X87.763 Y88.298 E.00422
G1 X80.536 Y81.07 E.32104
G1 X80.001 Y81.07 E.01678
G1 X87.548 Y88.616 E.33519
G1 X87.376 Y88.978 E.01259
M73 P17 R5
G1 X79.467 Y81.07 E.35128
G1 X78.933 Y81.07 E.01678
G1 X87.254 Y89.39 E.36958
G1 X87.187 Y89.858 E.01484
G1 X78.399 Y81.07 E.39036
G1 X77.865 Y81.07 E.01678
G1 X87.435 Y90.641 E.42512
M204 P1000
G1 E-2.24 F4200
;WIPE_START
G1 F7200
G1 X86.272 Y89.477 E-.912
;WIPE_END
G1 E-.048 F4200
G1 Z.4 F720
G1 X88.87 Y87.977 F9000
G1 X89.228 Y87.815
G1 X89.608 Y87.716
G1 X90 Y87.682
G1 X90.392 Y87.716
G1 X90.772 Y87.815
G1 X91.13 Y87.977
G1 X91.456 Y88.197
G1 X91.74 Y88.469
G1 X91.974 Y88.785
G1 X92.151 Y89.136
G1 X92.246 Y89.447
G1 X92.557 Y89.352
G1 Z.2 F720
G1 E3.2 F2400
M204 P800
G1 F1200
G1 X102.135 Y98.93 E.42546
G1 X101.601 Y98.93 E.01678
G1 X92.807 Y90.136 E.39062
M73 P18 R5
G1 X92.793 Y90.394 E.00813
G1 X92.743 Y90.606 E.00683
G1 X101.067 Y98.93 E.36975
G1 X100.533 Y98.93 E.01678
G1 X92.62 Y91.018 E.35146
G1 X92.449 Y91.381 E.01261
G1 X99.998 Y98.93 E.33532
G1 X99.464 Y98.93 E.01678
G1 X92.237 Y91.702 E.32104
G1 X91.993 Y91.993 E.01191
G1 X98.93 Y98.93 E.30813
G1 X98.396 Y98.93 E.01678
G1 X91.704 Y92.238 E.29725
G1 X91.379 Y92.448 E.01214
G1 X97.862 Y98.93 E.28794
G1 X97.328 Y98.93 E.01678
M73 P19 R5
G1 X91.012 Y92.615 E.28051
G1 X90.612 Y92.749 E.01326
G1 X96.793 Y98.93 E.27456
G1 X96.259 Y98.93 E.01678
G1 X90.142 Y92.813 E.27171
G1 X89.696 Y92.803 E.01401
G1 X89.577 Y92.782 E.0038
G1 X95.725 Y98.93 E.27308
G1 X95.191 Y98.93 E.01678
G1 X88.807 Y92.547 E.28354
G1 X88.477 Y92.372 E.01174
G1 X88.098 Y92.08 E.01502
G1 X87.773 Y91.728 E.01505
G1 X87.444 Y91.183 E.02
G1 X77.33 Y81.07 E.44921
G1 X76.796 Y81.07 E.01678
G1 X94.657 Y98.93 E.79332
G1 X94.122 Y98.93 E.01678
M73 P20 R5
G1 X76.262 Y81.07 E.79332
G1 X76.07 Y81.07 E.00604
G1 X76.07 Y81.412 E.01074
G1 X93.588 Y98.93 E.77813
G1 X93.054 Y98.93 E.01678
G1 X76.07 Y81.946 E.7544
G1 X76.07 Y82.48 E.01678
M73 P21 R5
G1 X92.52 Y98.93 E.73067
G1 X91.986 Y98.93 E.01678
G1 X76.07 Y83.014 E.70695
G1 X76.07 Y83.549 E.01678
G1 X91.451 Y98.93 E.68322
G1 X90.917 Y98.93 E.01678
G1 X76.07 Y84.083 E.65949
G1 X76.07 Y84.617 E.01678
M73 P22 R5
G1 X90.383 Y98.93 E.63576
G1 X89.849 Y98.93 E.01678
G1 X76.07 Y85.151 E.61204
G1 X76.07 Y85.685 E.01678
G1 X89.315 Y98.93 E.58831
G1 X88.78 Y98.93 E.01678
G1 X76.07 Y86.22 E.56458
G1 X76.07 Y86.754 E.01678
M73 P23 R5
G1 X88.246 Y98.93 E.54085
G1 X87.712 Y98.93 E.01678
G1 X76.07 Y87.288 E.51712
G1 X76.07 Y87.822 E.01678
G1 X87.178 Y98.93 E.4934
G1 X86.644 Y98.93 E.01678
G1 X76.07 Y88.356 E.46967
G1 X76.07 Y88.891 E.01678
G1 X86.109 Y98.93 E.44594
G1 X85.575 Y98.93 E.01678
M73 P24 R5
G1 X76.07 Y89.425 E.42221
G1 X76.07 Y89.959 E.01678
G1 X85.041 Y98.93 E.39849
G1 X84.507 Y98.93 E.01678
G1 X76.07 Y90.493 E.37476
G1 X76.07 Y91.027 E.01678
G1 X83.973 Y98.93 E.35103
G1 X83.439 Y98.93 E.01678
G1 X76.07 Y91.561 E.3273
G1 X76.07 Y92.096 E.01678
G1 X82.904 Y98.93 E.30357
G1 X82.37 Y98.93 E.01678
M73 P25 R5
G1 X76.07 Y92.63 E.27985
G1 X76.07 Y93.164 E.01678
G1 X81.836 Y98.93 E.25612
G1 X81.302 Y98.93 E.01678
G1 X76.07 Y93.698 E.23239
G1 X76.07 Y94.232 E.01678
G1 X80.768 Y98.93 E.20866
G1 X80.233 Y98.93 E.01678
G1 X76.07 Y94.767 E.18494
G1 X76.07 Y95.301 E.01678
G1 X79.699 Y98.93 E.16121
G1 X79.165 Y98.93 E.01678
G1 X76.07 Y95.835 E.13748
G1 X76.07 Y96.369 E.01678
G1 X78.631 Y98.93 E.11375
G1 X78.097 Y98.93 E.01678
G1 X76.07 Y96.903 E.09002
G1 X76.07 Y97.438 E.01678
G1 X77.562 Y98.93 E.0663
G1 X77.028 Y98.93 E.01678
G1 X76.07 Y97.972 E.04257
G1 X76.07 Y98.506 E.01678
G1 X76.664 Y99.1 E.02638
M204 P1000
; stop printing object PopRivetTestingPrint.STL id:0 copy 0
M106 S84.15
;LAYER_CHANGE
;Z:0.4
;HEIGHT:0.2
;BEFORE_LAYER_CHANGE
G92 E0.0
;0.4


G1 E-2.24 F4200
;WIPE_START
G1 F7200
G1 X76.07 Y98.506 E-.46542
G1 X76.07 Y97.972 E-.29603
G1 X76.262 Y98.164 E-.15055
;WIPE_END
G1 E-.048 F4200
G1 Z.4 F720
;AFTER_LAYER_CHANGE
;0.4
; printing object PopRivetTestingPrint.STL id:0 copy 0
G1 X75.632 Y99.368 F9000
G1 E3.2 F2400
M204 P800
;TYPE:Perimeter
;WIDTH:0.449999
G1 X75.632 Y80.632 E.63419
G1 X104.368 Y80.632 E.97267
M73 P26 R5
G1 X104.368 Y99.368 E.63419
G1 X75.692 Y99.368 E.97064
M204 P1000
G1 X75.225 Y99.775 F9000
M204 P800
;TYPE:External perimeter
G1 F1800
G1 X75.225 Y80.225 E.66174
G1 X104.775 Y80.225 E1.00023
G1 X104.775 Y99.775 E.66174
G1 X75.285 Y99.775 E.9982
M204 P1000
M73 P27 R5
G1 X75.354 Y99.396 F9000
G1 E-3.2 F4200
G1 Z.6 F720
G1 X87.729 Y90.7 F9000
G1 Z.4 F720
G1 E3.2 F2400
M204 P800
;TYPE:Perimeter
G1 F1500
G1 X87.633 Y90.251 E.01556
G1 X87.619 Y89.925 E.01105
G1 X87.684 Y89.448 E.01629
G1 X87.811 Y89.065 E.01367
G1 X88.001 Y88.708 E.01367
G1 X88.248 Y88.389 E.01367
G1 X88.545 Y88.116 E.01367
G1 X88.885 Y87.897 E.01367
G1 X89.303 Y87.729 E.01525
G1 X89.85 Y87.631 E.01882
G1 X90.453 Y87.663 E.02044
G1 X90.842 Y87.773 E.01367
G1 X91.206 Y87.948 E.01367
G1 X91.535 Y88.181 E.01367
G1 X91.821 Y88.466 E.01367
G1 X92.054 Y88.796 E.01367
G1 X92.228 Y89.161 E.01367
G1 X92.337 Y89.549 E.01367
G1 X92.38 Y89.951 E.01367
G1 X92.354 Y90.354 E.01367
G1 X92.26 Y90.746 E.01367
G1 X92.102 Y91.118 E.01367
G1 X91.883 Y91.457 E.01367
G1 X91.609 Y91.754 E.01367
G1 X91.29 Y92.001 E.01367
G1 X90.933 Y92.19 E.01367
G1 X90.55 Y92.316 E.01367
G1 X90.15 Y92.376 E.01367
G1 X89.747 Y92.367 E.01367
G1 X89.35 Y92.29 E.01367
G1 X88.973 Y92.147 E.01367
G1 X88.624 Y91.943 E.01367
G1 X88.316 Y91.682 E.01367
G1 X88.056 Y91.374 E.01367
G1 X87.852 Y91.025 E.01367
G1 X87.75 Y90.756 E.00972
M204 P1000
G1 X88.107 Y90.562 F9000
M204 P800
;TYPE:External perimeter
G1 F1500
G1 X88.039 Y90.234 E.01134
G1 X88.027 Y89.925 E.01046
G1 X88.074 Y89.567 E.01221
G1 X88.174 Y89.248 E.01134
G1 X88.328 Y88.95 E.01134
G1 X88.529 Y88.683 E.01134
G1 X88.773 Y88.453 E.01134
G1 X89.052 Y88.268 E.01134
G1 X89.374 Y88.129 E.01186
G1 X89.92 Y88.032 E.01878
G1 X90.35 Y88.057 E.01459
G1 X90.674 Y88.144 E.01134
G1 X90.978 Y88.285 E.01134
G1 X91.254 Y88.475 E.01134
G1 X91.493 Y88.709 E.01134
G1 X91.69 Y88.98 E.01134
G1 X91.838 Y89.28 E.01134
G1 X91.934 Y89.601 E.01134
G1 X91.973 Y89.933 E.01134
G1 X91.956 Y90.268 E.01134
G1 X91.883 Y90.595 E.01134
G1 X91.755 Y90.904 E.01134
G1 X91.577 Y91.188 E.01134
G1 X91.354 Y91.437 E.01134
G1 X91.091 Y91.645 E.01134
G1 X90.798 Y91.806 E.01134
G1 X90.481 Y91.915 E.01134
G1 X90.15 Y91.969 E.01134
G1 X89.815 Y91.966 E.01134
G1 X89.486 Y91.906 E.01134
G1 X89.171 Y91.792 E.01134
G1 X88.88 Y91.626 E.01134
G1 X88.621 Y91.413 E.01134
G1 X88.402 Y91.16 E.01134
G1 X88.229 Y90.873 E.01134
G1 X88.129 Y90.617 E.0093
M204 P1000
G1 X87.781 Y90.484 F9000
G1 E-2.24 F4200
;WIPE_START
G1 F7200
G1 X88.039 Y90.234 E-.21843
G1 X88.027 Y89.925 E-.1713
G1 X88.074 Y89.567 E-.19991
G1 X88.174 Y89.248 E-.18558
G1 X88.288 Y89.028 E-.13679
;WIPE_END
G1 E-.048 F4200
G1 Z.6 F720
G1 X87.941 Y88.854 F9000
G1 X87.988 Y88.761
G1 X88.226 Y88.439
G1 X88.516 Y88.162
G1 X88.848 Y87.937
G1 X89.213 Y87.772
G1 X89.601 Y87.671
G1 X90 Y87.637
G1 X90.399 Y87.671
G1 X90.787 Y87.772
G1 X91.152 Y87.937
G1 X91.484 Y88.162
G1 X91.774 Y88.439
G1 X92.012 Y88.761
G1 X92.193 Y89.119
G1 X92.31 Y89.502
G1 X92.361 Y89.9
G1 X92.344 Y90.3
G1 X92.259 Y90.692
G1 X92.11 Y91.064
G1 X92.014 Y91.22
G1 X104.389 Y98.415
G1 X104.246 Y98.415
G1 Z.4 F720
G1 E3.2 F2400
;TYPE:Solid infill
;WIDTH:0.45378
G1 F4800
G1 X103.598 Y99.063 E.0313
G1 X103.017 Y99.063 E.01985
G1 X104.063 Y98.017 E.05052
G1 X104.063 Y97.436 E.01985
