; generated by PrusaSlicer 2.5.2+win64 on 2023-06-10 at 06:25:54 UTC


;
;

;
;
; 

; external perimeters extrusion width = 0.45mm
; perimeters extrusion width = 0.45mm
; infill extrusion width = 0.45mm
; solid infill extrusion width = 0.45mm
; top infill extrusion width = 0.40mm
; support material extrusion width = 0.35mm
; first layer extrusion width = 0.42mm

M73 P0 R23
M201 X2500 Y2500 Z400 E5000 ; sets maximum accelerations, mm/sec^2
M203 X180 Y180 Z12 E80 ; sets maximum feedrates, mm / sec
M204 P1250 R1250 T2500 ; sets acceleration (P, T) and retract acceleration (R), mm/sec^2
M205 X8.00 Y8.00 Z2.00 E10.00 ; sets the jerk limits, mm/sec
M205 S0 T0 ; sets the minimum extruding and travel feed rate, mm/sec
M107
;TYPE:Custom
M862.3 P "MINI" ; printer model check
G90 ; use absolute coordinates
M83 ; extruder relative mode
M104 S170 ; set extruder temp for bed leveling
M140 S60 ; set bed temp
M109 R170 ; wait for bed leveling temp
M190 S60 ; wait for bed temp
M204 T1250 ; set travel acceleration
G28 ; home all without mesh bed level
G29 ; mesh bed leveling 
M204 T2500 ; restore travel acceleration
M104 S215 ; set extruder temp
G92 E0
G1 Y-2 X179 F2400
G1 Z3 F720
M109 S215 ; wait for extruder temp

; intro line
G1 X170 F1000
G1 Z0.2 F720
G1 X110 E8 F900
G1 X40 E10 F700
G92 E0

M221 S95 ; set flow
G21 ; set units to millimeters
G90 ; use absolute coordinates
M83 ; use relative distances for extrusion
M900 K0.2 ; Filament gcode LA 1.5
; ; Filament gcode LA 1.0
M107
;LAYER_CHANGE
;Z:0.2
;HEIGHT:0.2
;BEFORE_LAYER_CHANGE
G92 E0.0
;0.2


G1 E-3.2 F4200
M73 P1 R23
G1 Z.2 F720
;AFTER_LAYER_CHANGE
;0.2
G1 Z.4
G1 X69.015 Y55.743 F9000
G1 Z.2 F720
G1 E3.2 F2400
M204 P800
;TYPE:Skirt/Brim
;WIDTH:0.42
G1 F1200
G1 X70.06 Y54.867 E.04278
G1 X71 Y54.673 E.03008
G1 X109 Y54.673 E1.19146
G1 X110.307 Y55.065 E.04278
G1 X111.183 Y56.11 E.04278
G1 X111.377 Y57.05 E.03008
G1 X111.377 Y122.95 E2.06625
G1 X110.985 Y124.257 E.04278
G1 X109.94 Y125.133 E.04278
G1 X109 Y125.327 E.03008
G1 X71 Y125.327 E1.19146
G1 X69.693 Y124.935 E.04278
G1 X68.817 Y123.89 E.04278
G1 X68.623 Y122.95 E.03008
G1 X68.623 Y57.05 E2.06625
G1 X68.997 Y55.8 E.0409
M204 P1000
; printing object Shell-Lid-REV-P1.6.STL id:0 copy 0
G1 E-2.24 F4200
;WIPE_START
G1 F7200
G1 X70.06 Y54.867 E-.78411
G1 X70.286 Y54.82 E-.12789
;WIPE_END
G1 E-.048 F4200
G1 Z.4 F720
G1 X71.879 Y57.929 F9000
G1 Z.2 F720
G1 E3.2 F2400
M204 P800
;TYPE:Perimeter
;WIDTH:0.603511
G1 F1200
G1 X72.812 Y57.929 E.04351
G1 X72.402 Y58.356 E.0276
G1 X72.36 Y58.457 E.0051
;WIDTH:0.568799
G1 X72.318 Y58.558 E.00479
;WIDTH:0.534086
G1 X72.267 Y58.763 E.00862
;WIDTH:0.496517
G1 X72.217 Y58.968 E.00796
;WIDTH:0.458948
G1 X72.166 Y59.173 E.0073
;WIDTH:0.421378
G1 X72.173 Y59.8 E.01975
;WIDTH:0.419999
G1 X72.387 Y60.39 E.01968
G1 X72.786 Y60.875 E.01968
G1 X73.323 Y61.199 E.01968
G1 X73.938 Y61.326 E.01968
G1 X74.48 Y61.27 E.01708
G1 X74.959 Y61.06 E.01642
G1 X75.118 Y60.953 E.00599
G1 X75.508 Y60.564 E.01727
G1 X75.745 Y60.105 E.01623
G1 X75.801 Y59.922 E.00599
M73 P2 R23
G1 X75.849 Y59.296 E.01968
G1 X75.685 Y58.69 E.01968
G1 X75.329 Y58.173 E.01968
G1 X74.88 Y57.837 E.01758
G1 X105.142 Y57.837 E.94883
G1 X104.909 Y57.967 E.00835
M73 P2 R22
G1 X104.471 Y58.416 E.01968
G1 X104.207 Y58.986 E.01968
G1 X104.148 Y59.611 E.01968
G1 X104.301 Y60.22 E.01968
G1 X104.393 Y60.399 E.00632
G1 X104.817 Y60.9 E.02057
G1 X105.323 Y61.199 E.01845
G1 X105.938 Y61.326 E.01968
G1 X106.56 Y61.241 E.01968
G1 X107.118 Y60.953 E.01969
G1 X107.548 Y60.496 E.01967
;WIDTH:0.438037
G1 X107.81 Y59.923 E.02071
G1 X107.847 Y59.296 E.02063
;WIDTH:0.419999
G1 X107.685 Y58.69 E.01967
G1 X107.329 Y58.173 E.01968
G1 X106.88 Y57.837 E.01758
G1 X108.213 Y57.837 E.04179
G1 X108.213 Y58.214 E.01183
G1 X108.219 Y59.415 E.03764
;WIDTH:0.440739
G1 X108.203 Y59.984 E.01883
G1 X108.213 Y60.654 E.02218
;WIDTH:0.419999
G1 X108.213 Y122.163 E1.92856
G1 X71.787 Y122.163 E1.1421
G1 X71.786 Y59.765 E1.95645
;WIDTH:0.421378
G1 X71.788 Y59.165 E.01888
;WIDTH:0.458948
G1 X71.807 Y58.932 E.00808
;WIDTH:0.496517
G1 X71.825 Y58.699 E.00881
;WIDTH:0.534086
G1 X71.844 Y58.466 E.00954
;WIDTH:0.568799
G1 X71.861 Y58.197 E.01177
;WIDTH:0.603511
G1 X71.875 Y57.989 E.00975
M204 P1000
G1 X71.41 Y57.46 F9000
M204 P800
;TYPE:External perimeter
;WIDTH:0.419999
G1 F1200
G1 X73.481 Y57.46 E.06494
;WIDTH:0.461643
G1 X73.864 Y57.481 E.01335
;WIDTH:0.503287
G1 X74.247 Y57.502 E.01468
G1 X74.531 Y57.481 E.01091
;WIDTH:0.461643
G1 X74.815 Y57.46 E.00992
;WIDTH:0.419999
G1 X105.481 Y57.46 E.9615
;WIDTH:0.461643
G1 X105.864 Y57.481 E.01335
;WIDTH:0.503287
G1 X106.247 Y57.502 E.01468
G1 X106.531 Y57.481 E.01091
;WIDTH:0.461643
G1 X106.815 Y57.46 E.00992
;WIDTH:0.419999
G1 X108.59 Y57.46 E.05564
G1 X108.59 Y58.214 E.02365
G1 X108.59 Y122.54 E2.01688
G1 X71.41 Y122.54 E1.16575
M73 P3 R22
G1 X71.41 Y57.52 E2.03865
M204 P1000
G1 X71.786 Y57.597 F9000
G1 E-3.2 F4200
G1 Z.4 F720
G1 X105.978 Y57.95 F9000
G1 Z.2 F720
G1 E3.2 F2400
M204 P800
;WIDTH:0.495488
G1 F1200
G1 X106.291 Y57.987 E.01185
;WIDTH:0.476175
G1 X106.521 Y58.089 E.00906
;WIDTH:0.448087
G1 X106.751 Y58.191 E.00847
;WIDTH:0.419999
G1 X107.134 Y58.514 E.01572
G1 X107.388 Y58.947 E.01572
G1 X107.485 Y59.415 E.01499
G1 X107.409 Y59.935 E.01648
G1 X107.173 Y60.377 E.01572
G1 X106.804 Y60.716 E.01571
G1 X106.343 Y60.913 E.01573
G1 X105.842 Y60.945 E.01572
G1 X105.361 Y60.809 E.01568
G1 X104.981 Y60.544 E.01455
G1 X104.676 Y60.145 E.01573
G1 X104.525 Y59.627 E.01693
G1 X104.557 Y59.126 E.01572
G1 X104.754 Y58.665 E.01572
G1 X105.093 Y58.296 E.01572
G1 X105.535 Y58.061 E.01568
;WIDTH:0.457744
G1 X105.757 Y58.006 E.00789
;WIDTH:0.495488
G1 X105.92 Y57.964 E.00635
M204 P1000
G1 E-3.2 F4200
G1 Z.4 F720
G1 X73.965 Y57.95 F9000
G1 Z.2 F720
G1 E3.2 F2400
M204 P800
;WIDTH:0.495064
G1 F1200
G1 X74.291 Y57.987 E.01236
;WIDTH:0.476175
G1 X74.521 Y58.089 E.00906
;WIDTH:0.448087
G1 X74.751 Y58.191 E.00847
;WIDTH:0.419999
G1 X75.134 Y58.514 E.01572
G1 X75.388 Y58.947 E.01572
G1 X75.483 Y59.439 E.01572
G1 X75.409 Y59.935 E.01572
G1 X75.211 Y60.326 E.01375
G1 X74.857 Y60.681 E.01572
G1 X74.405 Y60.897 E.01572
G1 X73.906 Y60.95 E.01572
G1 X73.418 Y60.835 E.01572
G1 X72.997 Y60.563 E.01572
G1 X72.69 Y60.166 E.01572
G1 X72.533 Y59.69 E.01572
G1 X72.543 Y59.189 E.01572
G1 X72.72 Y58.72 E.01572
G1 X73.044 Y58.336 E.01572
G1 X73.476 Y58.082 E.01572
;WIDTH:0.457532
G1 X73.72 Y58.016 E.00873
;WIDTH:0.495064
G1 X73.907 Y57.965 E.00726
M204 P1000
G1 E-2.24 F4200
;WIPE_START
G1 F7200
G1 X74.291 Y57.987 E-.21338
G1 X74.521 Y58.089 E-.13939
G1 X74.751 Y58.191 E-.13939
G1 X75.134 Y58.514 E-.27786
G1 X75.264 Y58.735 E-.14198
;WIPE_END
G1 E-.048 F4200
G1 Z.4 F720
G1 X75.422 Y58.655 F9000
G1 X105.861 Y61.107
G1 X106.139 Y61.107
G1 X106.414 Y61.06
G1 X106.677 Y60.967
G1 X106.92 Y60.831
G1 X107.137 Y60.656
G1 X107.321 Y60.447
G1 X107.33 Y60.432
G1 X107.607 Y60.602
G1 Z.2 F720
G1 E3.2 F2400
M204 P800
;TYPE:Solid infill
;WIDTH:0.421571
G1 F1200
G1 X107.93 Y60.925 E.01439
G1 X107.93 Y61.461 E.01686
G1 X107.473 Y61.004 E.02034
G1 X107.308 Y61.163 E.00721
G1 X107.182 Y61.248 E.0048
G1 X107.93 Y61.996 E.03332
G1 X107.93 Y62.532 E.01686
G1 X106.828 Y61.43 E.04906
G1 X106.669 Y61.502 E.0055
G1 X106.428 Y61.565 E.00786
G1 X107.93 Y63.067 E.0669
G1 X107.93 Y63.603 E.01686
G1 X105.748 Y61.421 E.09715
M204 P1000
G1 E-2.24 F4200
;WIPE_START
G1 F7200
G1 X106.912 Y62.585 E-.912
;WIPE_END
G1 E-.048 F4200
G1 Z.4 F720
G1 X104.863 Y60.656 F9000
G1 X104.679 Y60.447
G1 X104.533 Y60.21
G1 X104.429 Y59.951
G1 X104.371 Y59.679
G1 X104.359 Y59.4
G1 X104.394 Y59.124
G1 X104.476 Y58.857
G1 X104.601 Y58.609
G1 X104.605 Y58.603
G1 X104.345 Y58.411
G1 Z.2 F720
G1 E3.2 F2400
M204 P800
G1 F1200
G1 X104.054 Y58.12 E.01295
G1 X103.518 Y58.12 E.01686
G1 X104.04 Y58.642 E.02325
G1 X103.942 Y58.888 E.00834
G1 X103.908 Y59.045 E.00506
G1 X102.983 Y58.12 E.04119
G1 X102.447 Y58.12 E.01686
G1 X104.051 Y59.724 E.07142
M204 P1000
G1 E-3.2 F4200
G1 Z.4 F720
G1 X101.742 Y57.95 F9000
G1 Z.2 F720
G1 E3.2 F2400
M204 P800
G1 F1200
G1 X104.002 Y60.21 E.10064
G1 X104.033 Y60.311 E.0033
G1 X104.164 Y60.565 E.00903
G1 X104.548 Y61.047 E.01939
G1 X105.001 Y61.362 E.01739
G1 X105.27 Y61.478 E.00919
G1 X107.93 Y64.138 E.11846
G1 X107.93 Y64.674 E.01686
G1 X101.376 Y58.12 E.29182
G1 X100.841 Y58.12 E.01686
G1 X107.93 Y65.209 E.31566
G1 X107.93 Y65.745 E.01686
G1 X100.305 Y58.12 E.33951
G1 X99.77 Y58.12 E.01686
G1 X107.93 Y66.28 E.36335
G1 X107.93 Y66.816 E.01686
G1 X99.234 Y58.12 E.3872
G1 X98.699 Y58.12 E.01686
M73 P4 R22
G1 X107.93 Y67.351 E.41104
G1 X107.93 Y67.887 E.01686
G1 X98.163 Y58.12 E.43488
G1 X97.628 Y58.12 E.01686
G1 X107.93 Y68.422 E.45873
G1 X107.93 Y68.958 E.01686
G1 X97.092 Y58.12 E.48257
G1 X96.557 Y58.12 E.01686
G1 X107.93 Y69.493 E.50641
G1 X107.93 Y70.029 E.01686
G1 X96.021 Y58.12 E.53026
G1 X95.486 Y58.12 E.01686
G1 X107.93 Y70.564 E.5541
G1 X107.93 Y71.1 E.01686
G1 X94.95 Y58.12 E.57794
G1 X94.415 Y58.12 E.01686
G1 X107.93 Y71.635 E.60179
G1 X107.93 Y72.171 E.01686
G1 X93.879 Y58.12 E.62563
G1 X93.344 Y58.12 E.01686
G1 X107.93 Y72.706 E.64947
G1 X107.93 Y73.242 E.01686
G1 X92.808 Y58.12 E.67332
G1 X92.273 Y58.12 E.01686
G1 X107.93 Y73.777 E.69716
G1 X107.93 Y74.313 E.01686
G1 X91.737 Y58.12 E.72101
G1 X91.202 Y58.12 E.01686
G1 X107.93 Y74.848 E.74485
G1 X107.93 Y75.384 E.01686
M73 P5 R22
G1 X90.666 Y58.12 E.76869
G1 X90.131 Y58.12 E.01686
G1 X107.93 Y75.919 E.79254
G1 X107.93 Y76.455 E.01686
G1 X89.595 Y58.12 E.81638
G1 X89.06 Y58.12 E.01686
G1 X107.93 Y76.99 E.84022
G1 X107.93 Y77.526 E.01686
G1 X88.524 Y58.12 E.86407
G1 X87.989 Y58.12 E.01686
G1 X107.93 Y78.061 E.88791
G1 X107.93 Y78.597 E.01686
G1 X87.453 Y58.12 E.91175
G1 X86.918 Y58.12 E.01686
G1 X107.93 Y79.132 E.9356
G1 X107.93 Y79.668 E.01686
G1 X86.382 Y58.12 E.95944
G1 X85.847 Y58.12 E.01686
G1 X107.93 Y80.203 E.98329
G1 X107.93 Y80.739 E.01686
M73 P6 R22
G1 X85.311 Y58.12 E1.00713
G1 X84.776 Y58.12 E.01686
G1 X107.93 Y81.274 E1.03097
G1 X107.93 Y81.81 E.01686
G1 X84.24 Y58.12 E1.05482
G1 X83.705 Y58.12 E.01686
M73 P6 R21
G1 X107.93 Y82.345 E1.07866
G1 X107.93 Y82.881 E.01686
G1 X83.169 Y58.12 E1.1025
G1 X82.634 Y58.12 E.01686
G1 X107.93 Y83.416 E1.12635
G1 X107.93 Y83.951 E.01686
G1 X82.099 Y58.12 E1.15019
G1 X81.563 Y58.12 E.01686
G1 X107.93 Y84.487 E1.17403
G1 X107.93 Y85.022 E.01686
M73 P7 R21
G1 X81.028 Y58.12 E1.19788
G1 X80.492 Y58.12 E.01686
G1 X107.93 Y85.558 E1.22172
G1 X107.93 Y86.093 E.01686
G1 X79.957 Y58.12 E1.24557
G1 X79.421 Y58.12 E.01686
G1 X107.93 Y86.629 E1.26941
G1 X107.93 Y87.164 E.01686
G1 X78.886 Y58.12 E1.29325
G1 X78.35 Y58.12 E.01686
G1 X107.93 Y87.7 E1.3171
G1 X107.93 Y88.235 E.01686
G1 X77.815 Y58.12 E1.34094
G1 X77.279 Y58.12 E.01686
M73 P8 R21
G1 X107.93 Y88.771 E1.36478
G1 X107.93 Y89.306 E.01686
G1 X76.744 Y58.12 E1.38863
G1 X76.208 Y58.12 E.01686
G1 X107.93 Y89.842 E1.41247
G1 X107.93 Y90.377 E.01686
G1 X75.656 Y58.12 E1.43668
G1 X75.93 Y58.548 E.01601
G1 X76.031 Y58.8 E.00853
G1 X76.09 Y59.073 E.0088
G1 X107.93 Y90.913 E1.41771
G1 X107.93 Y91.448 E.01686
G1 X76.12 Y59.638 E1.41639
G1 X76.05 Y60.103 E.01481
M73 P9 R21
G1 X107.93 Y91.984 E1.41953
G1 X107.93 Y92.519 E.01686
G1 X75.877 Y60.466 E1.42722
G1 X75.797 Y60.63 E.00573
G1 X75.673 Y60.798 E.00658
G1 X107.93 Y93.055 E1.43629
G1 X107.93 Y93.59 E.01686
G1 X75.402 Y61.062 E1.44838
G1 X75.182 Y61.262 E.00935
G1 X75.103 Y61.299 E.00275
G1 X107.93 Y94.126 E1.46168
G1 X107.93 Y94.661 E.01686
G1 X74.738 Y61.47 E1.47792
G1 X74.407 Y61.57 E.01091
M73 P10 R21
G1 X74.311 Y61.578 E.00301
G1 X107.93 Y95.197 E1.49692
G1 X107.93 Y95.732 E.01686
G1 X73.793 Y61.595 E1.52002
G1 X73.684 Y61.586 E.00344
G1 X73.244 Y61.471 E.01431
G1 X73.042 Y61.38 E.00698
G1 X107.93 Y96.268 E1.55344
G1 X107.93 Y96.803 E.01686
G1 X72.067 Y60.941 E1.59684
G1 X72.067 Y61.476 E.01686
M73 P10 R20
G1 X107.93 Y97.339 E1.59684
G1 X107.93 Y97.874 E.01686
G1 X72.067 Y62.012 E1.59684
G1 X72.067 Y62.547 E.01686
M73 P11 R20
G1 X107.93 Y98.41 E1.59684
G1 X107.93 Y98.945 E.01686
G1 X72.067 Y63.083 E1.59684
G1 X72.067 Y63.618 E.01686
G1 X107.93 Y99.481 E1.59684
G1 X107.93 Y100.016 E.01686
G1 X72.067 Y64.154 E1.59684
G1 X72.067 Y64.689 E.01686
G1 X107.93 Y100.552 E1.59684
G1 X107.93 Y101.087 E.01686
M73 P12 R20
G1 X72.067 Y65.225 E1.59684
G1 X72.068 Y65.76 E.01686
G1 X107.93 Y101.623 E1.59684
G1 X107.93 Y102.158 E.01686
G1 X72.068 Y66.296 E1.59683
G1 X72.068 Y66.831 E.01686
G1 X107.93 Y102.694 E1.59683
G1 X107.93 Y103.229 E.01686
G1 X72.068 Y67.367 E1.59683
G1 X72.068 Y67.902 E.01686
G1 X107.93 Y103.765 E1.59683
G1 X107.93 Y104.3 E.01686
M73 P13 R20
G1 X72.068 Y68.438 E1.59683
G1 X72.068 Y68.973 E.01686
G1 X107.93 Y104.836 E1.59683
G1 X107.93 Y105.371 E.01686
G1 X72.068 Y69.509 E1.59683
G1 X72.068 Y70.044 E.01686
G1 X107.93 Y105.907 E1.59683
G1 X107.93 Y106.442 E.01686
G1 X72.068 Y70.58 E1.59683
G1 X72.068 Y71.115 E.01686
M73 P14 R20
G1 X107.93 Y106.978 E1.59683
G1 X107.93 Y107.513 E.01686
G1 X72.068 Y71.651 E1.59682
G1 X72.068 Y72.186 E.01686
G1 X107.93 Y108.049 E1.59682
G1 X107.93 Y108.584 E.01686
G1 X72.068 Y72.722 E1.59682
G1 X72.068 Y73.257 E.01686
G1 X107.93 Y109.12 E1.59682
G1 X107.93 Y109.655 E.01686
M73 P14 R19
G1 X72.068 Y73.793 E1.59682
G1 X72.068 Y74.328 E.01686
M73 P15 R19
G1 X107.93 Y110.191 E1.59682
G1 X107.93 Y110.726 E.01686
G1 X72.068 Y74.864 E1.59682
G1 X72.068 Y75.399 E.01686
G1 X107.93 Y111.262 E1.59682
G1 X107.93 Y111.797 E.01686
G1 X72.068 Y75.935 E1.59682
G1 X72.068 Y76.47 E.01686
G1 X107.93 Y112.333 E1.59682
G1 X107.93 Y112.868 E.01686
M73 P16 R19
G1 X72.068 Y77.006 E1.59681
G1 X72.068 Y77.542 E.01686
G1 X107.93 Y113.404 E1.59681
G1 X107.93 Y113.939 E.01686
G1 X72.068 Y78.077 E1.59681
G1 X72.068 Y78.613 E.01686
G1 X107.93 Y114.475 E1.59681
G1 X107.93 Y115.01 E.01686
G1 X72.068 Y79.148 E1.59681
G1 X72.068 Y79.684 E.01686
G1 X107.93 Y115.546 E1.59681
G1 X107.93 Y116.081 E.01686
M73 P17 R19
G1 X72.068 Y80.219 E1.59681
G1 X72.068 Y80.755 E.01686
G1 X107.93 Y116.617 E1.59681
G1 X107.93 Y117.152 E.01686
G1 X72.068 Y81.29 E1.59681
G1 X72.068 Y81.826 E.01686
G1 X107.93 Y117.688 E1.59681
G1 X107.93 Y118.223 E.01686
G1 X72.068 Y82.361 E1.5968
G1 X72.068 Y82.897 E.01686
M73 P18 R19
G1 X107.93 Y118.759 E1.5968
G1 X107.93 Y119.294 E.01686
G1 X72.068 Y83.432 E1.5968
G1 X72.068 Y83.968 E.01686
G1 X107.93 Y119.83 E1.5968
G1 X107.93 Y120.365 E.01686
G1 X72.068 Y84.503 E1.5968
G1 X72.068 Y85.039 E.01686
G1 X107.93 Y120.901 E1.5968
G1 X107.93 Y121.436 E.01686
G1 X72.068 Y85.574 E1.5968
G1 X72.068 Y86.11 E.01686
M73 P19 R18
G1 X107.839 Y121.88 E1.59273
G1 X107.303 Y121.88 E.01686
G1 X72.068 Y86.645 E1.56888
G1 X72.068 Y87.181 E.01686
G1 X106.768 Y121.88 E1.54504
G1 X106.232 Y121.88 E.01686
G1 X72.068 Y87.716 E1.52119
G1 X72.068 Y88.252 E.01686
G1 X105.697 Y121.88 E1.49735
G1 X105.161 Y121.88 E.01686
M73 P20 R18
G1 X72.068 Y88.787 E1.47351
G1 X72.068 Y89.323 E.01686
G1 X104.626 Y121.88 E1.44966
G1 X104.09 Y121.88 E.01686
G1 X72.069 Y89.858 E1.42582
G1 X72.069 Y90.394 E.01686
G1 X103.555 Y121.88 E1.40197
G1 X103.019 Y121.88 E.01686
G1 X72.069 Y90.929 E1.37813
G1 X72.069 Y91.465 E.01686
G1 X102.484 Y121.88 E1.35428
G1 X101.948 Y121.88 E.01686
M73 P21 R18
G1 X72.069 Y92 E1.33044
G1 X72.069 Y92.536 E.01686
G1 X101.413 Y121.88 E1.30659
G1 X100.877 Y121.88 E.01686
G1 X72.069 Y93.071 E1.28275
G1 X72.069 Y93.607 E.01686
G1 X100.342 Y121.88 E1.2589
G1 X99.806 Y121.88 E.01686
G1 X72.069 Y94.142 E1.23506
G1 X72.069 Y94.678 E.01686
G1 X99.271 Y121.88 E1.21121
G1 X98.735 Y121.88 E.01686
G1 X72.069 Y95.214 E1.18737
G1 X72.069 Y95.749 E.01686
M73 P22 R18
G1 X98.2 Y121.88 E1.16353
G1 X97.664 Y121.88 E.01686
G1 X72.069 Y96.285 E1.13968
G1 X72.069 Y96.82 E.01686
G1 X97.129 Y121.88 E1.11584
G1 X96.593 Y121.88 E.01686
G1 X72.069 Y97.356 E1.09199
G1 X72.069 Y97.891 E.01686
G1 X96.058 Y121.88 E1.06815
G1 X95.522 Y121.88 E.01686
G1 X72.069 Y98.427 E1.0443
G1 X72.069 Y98.962 E.01686
G1 X94.987 Y121.88 E1.02046
G1 X94.451 Y121.88 E.01686
G1 X72.069 Y99.498 E.99661
G1 X72.069 Y100.033 E.01686
M73 P23 R18
G1 X93.916 Y121.88 E.97277
G1 X93.38 Y121.88 E.01686
G1 X72.069 Y100.569 E.94892
