; generated by PrusaSlicer 2.5.2+win64 on 2023-06-13 at 13:41:17 UTC


;
;

;
;
; 

; external perimeters extrusion width = 0.45mm
; perimeters extrusion width = 0.45mm
; infill extrusion width = 0.45mm
; solid infill extrusion width = 0.45mm
; top infill extrusion width = 0.40mm
; support material extrusion width = 0.35mm
; first layer extrusion width = 0.42mm

M73 P0 R72
M73 C63
M201 X2500 Y2500 Z400 E5000 ; sets maximum accelerations, mm/sec^2
M203 X180 Y180 Z12 E80 ; sets maximum feedrates, mm / sec
M204 P1250 R1250 T2500 ; sets acceleration (P, T) and retract acceleration (R), mm/sec^2
M205 X8.00 Y8.00 Z2.00 E10.00 ; sets the jerk limits, mm/sec
M205 S0 T0 ; sets the minimum extruding and travel feed rate, mm/sec
M107
;TYPE:Custom
M862.3 P "MINI" ; printer model check
G90 ; use absolute coordinates
M83 ; extruder relative mode
M104 S170 ; set extruder temp for bed leveling
M140 S60 ; set bed temp
M109 R170 ; wait for bed leveling temp
M190 S60 ; wait for bed temp
M204 T1250 ; set travel acceleration
G28 ; home all without mesh bed level
G29 ; mesh bed leveling 
M204 T2500 ; restore travel acceleration
M104 S215 ; set extruder temp
G92 E0
G1 Y-2 X179 F2400
G1 Z3 F720
M109 S215 ; wait for extruder temp

; intro line
G1 X170 F1000
G1 Z0.2 F720
G1 X110 E8 F900
G1 X40 E10 F700
G92 E0

M221 S95 ; set flow
G21 ; set units to millimeters
G90 ; use absolute coordinates
M83 ; use relative distances for extrusion
M900 K0.2 ; Filament gcode LA 1.5
; ; Filament gcode LA 1.0
M107
;LAYER_CHANGE
;Z:0.2
;HEIGHT:0.2
;BEFORE_LAYER_CHANGE
G92 E0.0
;0.2


G1 E-3.2 F4200
G1 Z.2 F720
;AFTER_LAYER_CHANGE
;0.2
G1 Z.4
G1 X64.307 Y55.757 F9000
G1 Z.2 F720
G1 E3.2 F2400
M204 P800
;TYPE:Skirt/Brim
;WIDTH:0.42
G1 F1200
G1 X64.882 Y55.151 E.0262
G1 X70.002 Y51.378 E.19941
G1 X70.78 Y50.953 E.0278
G1 X71.657 Y50.743 E.02827
G1 X108.186 Y50.73 E1.14535
G1 X109.219 Y50.953 E.03311
G1 X109.83 Y51.264 E.02151
G1 X115.118 Y55.151 E.20577
G1 X115.937 Y56.242 E.04278
G1 X116.084 Y57.065 E.0262
G1 X116.084 Y129.857 E2.28235
G1 X115.693 Y131.164 E.04278
M73 P0 R71
G1 X114.647 Y132.04 E.04278
G1 X113.707 Y132.234 E.03008
G1 X66.293 Y132.234 E1.48664
G1 X64.986 Y131.842 E.04278
G1 X64.109 Y130.796 E.04278
G1 X63.916 Y129.857 E.03008
G1 X63.916 Y57.065 E2.28235
G1 X64.29 Y55.815 E.0409
M204 P1000
; printing object Shell-Bottom-REV-P1.8.STL id:0 copy 0
M73 C62
G1 E-2.24 F4200
;WIPE_START
G1 F7200
G1 X64.882 Y55.151 E-.49304
G1 X65.491 Y54.703 E-.41896
;WIPE_END
G1 E-.048 F4200
G1 Z.4 F720
G1 X70.52 Y61.199 F9000
G1 Z.2 F720
G1 E3.2 F2400
M204 P800
;TYPE:Support material
G1 F1200
G1 X70.801 Y61.48 E.01247
G1 X109.199 Y61.48 E1.20393
G1 X109.48 Y61.199 E.01247
G1 X109.48 Y57.065 E.12963
G1 X113.707 Y57.065 E.13254
G1 X113.707 Y129.857 E2.28235
G1 X66.293 Y129.857 E1.48664
G1 X66.293 Y57.065 E2.28235
G1 X70.52 Y57.065 E.13254
G1 X70.52 Y61.142 E.12785
M204 P1000
G1 X95.251 Y69.873 F9000
M204 P800
G1 F1200
G1 X95.251 Y83.715 E.43402
G1 X79.101 Y83.715 E.50636
G1 X79.101 Y114.742 E.97281
M73 P1 R71
G1 X88.329 Y114.742 E.28935
G1 X88.329 Y119.356 E.14467
G1 X91.671 Y119.356 E.10477
G1 X91.671 Y114.742 E.14467
G1 X100.899 Y114.742 E.28935
G1 X100.899 Y69.873 E1.40683
G1 X95.307 Y69.873 E.17533
M204 P1000
G1 E-3.2 F4200
G1 Z.4 F720
G1 X79.101 Y67.566 F9000
G1 Z.2 F720
G1 E3.2 F2400
M204 P800
G1 F1200
G1 X79.101 Y68.6 E.03243
G1 X82.442 Y68.6 E.10477
G1 X82.442 Y67.566 E.03243
G1 X79.158 Y67.566 E.10299
M204 P1000
G1 E-3.2 F4200
G1 Z.4 F720
G1 X113.044 Y129.687 F9000
G1 Z.2 F720
G1 E3.2 F2400
M204 P800
G1 F1200
G1 X113.044 Y57.404 E2.26639
G1 X112.625 Y57.404 E.01314
G1 X112.625 Y129.517 E2.26107
G1 X112.206 Y129.517 E.01314
G1 X112.206 Y57.404 E2.26107
G1 X111.787 Y57.404 E.01314
G1 X111.787 Y129.517 E2.26107
G1 X111.368 Y129.517 E.01314
G1 X111.368 Y57.404 E2.26107
G1 X110.949 Y57.404 E.01314
G1 X110.949 Y129.517 E2.26107
G1 X110.53 Y129.517 E.01314
G1 X110.53 Y57.404 E2.26107
G1 X110.111 Y57.404 E.01314
G1 X110.111 Y129.517 E2.26107
G1 X109.692 Y129.517 E.01314
G1 X109.692 Y61.467 E2.13368
G1 X109.339 Y61.819 E.01563
M73 P1 R70
G1 X109.273 Y61.819 E.00208
G1 X109.273 Y129.517 E2.12262
G1 X108.854 Y129.517 E.01314
M73 P2 R70
M73 C61
G1 X108.854 Y61.819 E2.12262
G1 X108.435 Y61.819 E.01314
G1 X108.435 Y129.517 E2.12262
G1 X108.016 Y129.517 E.01314
G1 X108.016 Y61.819 E2.12262
G1 X107.597 Y61.819 E.01314
G1 X107.597 Y129.517 E2.12262
G1 X107.178 Y129.517 E.01314
G1 X107.178 Y61.819 E2.12262
G1 X106.759 Y61.819 E.01314
G1 X106.759 Y129.517 E2.12262
G1 X106.34 Y129.517 E.01314
G1 X106.34 Y61.819 E2.12262
G1 X105.921 Y61.819 E.01314
G1 X105.921 Y129.517 E2.12262
G1 X105.502 Y129.517 E.01314
G1 X105.502 Y61.819 E2.12262
G1 X105.083 Y61.819 E.01314
G1 X105.083 Y129.517 E2.12262
G1 X104.664 Y129.517 E.01314
G1 X104.664 Y61.819 E2.12262
G1 X104.245 Y61.819 E.01314
G1 X104.245 Y129.517 E2.12262
G1 X103.826 Y129.517 E.01314
G1 X103.826 Y61.819 E2.12262
G1 X103.407 Y61.819 E.01314
M73 P3 R70
G1 X103.407 Y129.517 E2.12262
G1 X102.988 Y129.517 E.01314
G1 X102.988 Y61.819 E2.12262
G1 X102.569 Y61.819 E.01314
G1 X102.569 Y129.517 E2.12262
G1 X102.15 Y129.517 E.01314
M73 P3 R69
G1 X102.15 Y61.819 E2.12262
G1 X101.731 Y61.819 E.01314
G1 X101.731 Y129.517 E2.12262
G1 X101.312 Y129.517 E.01314
M73 C60
G1 X101.312 Y61.819 E2.12262
G1 X100.893 Y61.819 E.01314
G1 X100.893 Y69.533 E.24186
G1 X100.474 Y69.533 E.01314
G1 X100.474 Y61.819 E.24186
G1 X100.055 Y61.819 E.01314
G1 X100.055 Y69.533 E.24186
G1 X99.636 Y69.533 E.01314
G1 X99.636 Y61.819 E.24186
G1 X99.217 Y61.819 E.01314
G1 X99.217 Y69.533 E.24186
G1 X98.799 Y69.533 E.01314
G1 X98.799 Y61.819 E.24186
G1 X98.38 Y61.819 E.01314
G1 X98.38 Y69.533 E.24186
G1 X97.961 Y69.533 E.01314
G1 X97.961 Y61.819 E.24186
G1 X97.542 Y61.819 E.01314
G1 X97.542 Y69.533 E.24186
G1 X97.123 Y69.533 E.01314
G1 X97.123 Y61.819 E.24186
G1 X96.704 Y61.819 E.01314
G1 X96.704 Y69.533 E.24186
G1 X96.285 Y69.533 E.01314
G1 X96.285 Y61.819 E.24186
G1 X95.866 Y61.819 E.01314
G1 X95.866 Y69.533 E.24186
G1 X95.447 Y69.533 E.01314
G1 X95.447 Y61.819 E.24186
G1 X95.028 Y61.819 E.01314
G1 X95.028 Y69.533 E.24186
G1 X94.911 Y69.533 E.00365
G1 X94.911 Y83.376 E.43402
G1 X94.609 Y83.376 E.00948
G1 X94.609 Y61.819 E.67589
G1 X94.19 Y61.819 E.01314
G1 X94.19 Y83.376 E.67589
G1 X93.771 Y83.376 E.01314
G1 X93.771 Y61.819 E.67589
G1 X93.352 Y61.819 E.01314
G1 X93.352 Y83.376 E.67589
G1 X92.933 Y83.376 E.01314
G1 X92.933 Y61.819 E.67589
G1 X92.514 Y61.819 E.01314
G1 X92.514 Y83.376 E.67589
G1 X92.095 Y83.376 E.01314
G1 X92.095 Y61.819 E.67589
G1 X91.676 Y61.819 E.01314
G1 X91.676 Y83.376 E.67589
G1 X91.257 Y83.376 E.01314
G1 X91.257 Y61.819 E.67589
G1 X90.838 Y61.819 E.01314
G1 X90.838 Y83.376 E.67589
G1 X90.419 Y83.376 E.01314
G1 X90.419 Y61.819 E.67589
G1 X90 Y61.819 E.01314
G1 X90 Y83.376 E.67589
G1 X89.581 Y83.376 E.01314
G1 X89.581 Y61.819 E.67589
G1 X89.162 Y61.819 E.01314
M73 P4 R69
G1 X89.162 Y83.376 E.67589
G1 X88.743 Y83.376 E.01314
G1 X88.743 Y61.819 E.67589
G1 X88.324 Y61.819 E.01314
G1 X88.324 Y83.376 E.67589
G1 X87.905 Y83.376 E.01314
G1 X87.905 Y61.819 E.67589
G1 X87.486 Y61.819 E.01314
G1 X87.486 Y83.376 E.67589
G1 X87.067 Y83.376 E.01314
G1 X87.067 Y61.819 E.67589
G1 X86.648 Y61.819 E.01314
G1 X86.648 Y83.376 E.67589
G1 X86.229 Y83.376 E.01314
G1 X86.229 Y61.819 E.67589
G1 X85.81 Y61.819 E.01314
G1 X85.81 Y83.376 E.67589
G1 X85.391 Y83.376 E.01314
G1 X85.391 Y61.819 E.67589
G1 X84.972 Y61.819 E.01314
G1 X84.972 Y83.376 E.67589
G1 X84.553 Y83.376 E.01314
G1 X84.553 Y61.819 E.67589
G1 X84.134 Y61.819 E.01314
G1 X84.134 Y83.376 E.67589
G1 X83.715 Y83.376 E.01314
G1 X83.715 Y61.819 E.67589
G1 X83.296 Y61.819 E.01314
G1 X83.296 Y83.376 E.67589
G1 X82.877 Y83.376 E.01314
G1 X82.877 Y61.819 E.67589
G1 X82.458 Y61.819 E.01314
G1 X82.458 Y67.226 E.16953
G1 X82.039 Y67.226 E.01314
G1 X82.039 Y61.819 E.16953
G1 X81.62 Y61.819 E.01314
G1 X81.62 Y67.226 E.16953
G1 X81.201 Y67.226 E.01314
G1 X81.201 Y61.819 E.16953
G1 X80.783 Y61.819 E.01314
G1 X80.783 Y67.226 E.16953
G1 X80.364 Y67.226 E.01314
G1 X80.364 Y61.819 E.16953
G1 X79.945 Y61.819 E.01314
G1 X79.945 Y67.226 E.16953
G1 X79.526 Y67.226 E.01314
G1 X79.526 Y61.819 E.16953
G1 X79.107 Y61.819 E.01314
G1 X79.107 Y67.226 E.16953
G1 X78.762 Y67.226 E.01082
G1 X78.762 Y68.939 E.05371
G1 X79.107 Y68.939 E.01082
G1 X79.107 Y83.376 E.45265
G1 X79.526 Y83.376 E.01314
G1 X79.526 Y68.939 E.45265
G1 X79.945 Y68.939 E.01314
G1 X79.945 Y83.376 E.45265
G1 X80.364 Y83.376 E.01314
G1 X80.364 Y68.939 E.45265
G1 X80.783 Y68.939 E.01314
G1 X80.783 Y83.376 E.45265
G1 X81.201 Y83.376 E.01314
G1 X81.201 Y68.939 E.45265
G1 X81.62 Y68.939 E.01314
G1 X81.62 Y83.376 E.45265
G1 X82.039 Y83.376 E.01314
G1 X82.039 Y68.939 E.45265
G1 X82.458 Y68.939 E.01314
G1 X82.458 Y83.545 E.45797
M204 P1000
G1 E-3.2 F4200
G1 Z.4 F720
G1 X100.893 Y129.687 F9000
G1 Z.2 F720
M73 P4 R68
G1 E3.2 F2400
M204 P800
G1 F1200
G1 X100.893 Y115.081 E.45797
G1 X100.474 Y115.081 E.01314
G1 X100.474 Y129.517 E.45265
G1 X100.055 Y129.517 E.01314
G1 X100.055 Y115.081 E.45265
G1 X99.636 Y115.081 E.01314
G1 X99.636 Y129.517 E.45265
G1 X99.217 Y129.517 E.01314
G1 X99.217 Y115.081 E.45265
G1 X98.799 Y115.081 E.01314
G1 X98.799 Y129.517 E.45265
G1 X98.38 Y129.517 E.01314
G1 X98.38 Y115.081 E.45265
G1 X97.961 Y115.081 E.01314
M73 C59
G1 X97.961 Y129.517 E.45265
G1 X97.542 Y129.517 E.01314
G1 X97.542 Y115.081 E.45265
G1 X97.123 Y115.081 E.01314
G1 X97.123 Y129.517 E.45265
G1 X96.704 Y129.517 E.01314
G1 X96.704 Y115.081 E.45265
G1 X96.285 Y115.081 E.01314
G1 X96.285 Y129.517 E.45265
G1 X95.866 Y129.517 E.01314
G1 X95.866 Y115.081 E.45265
G1 X95.447 Y115.081 E.01314
G1 X95.447 Y129.517 E.45265
G1 X95.028 Y129.517 E.01314
G1 X95.028 Y115.081 E.45265
G1 X94.609 Y115.081 E.01314
G1 X94.609 Y129.517 E.45265
G1 X94.19 Y129.517 E.01314
G1 X94.19 Y115.081 E.45265
G1 X93.771 Y115.081 E.01314
G1 X93.771 Y129.517 E.45265
G1 X93.352 Y129.517 E.01314
G1 X93.352 Y115.081 E.45265
G1 X92.933 Y115.081 E.01314
G1 X92.933 Y129.517 E.45265
G1 X92.514 Y129.517 E.01314
M73 P5 R68
G1 X92.514 Y115.081 E.45265
G1 X92.095 Y115.081 E.01314
G1 X92.095 Y129.517 E.45265
G1 X91.676 Y129.517 E.01314
G1 X91.676 Y119.695 E.30797
G1 X91.257 Y119.695 E.01314
G1 X91.257 Y129.517 E.30797
G1 X90.838 Y129.517 E.01314
G1 X90.838 Y119.695 E.30797
G1 X90.419 Y119.695 E.01314
G1 X90.419 Y129.517 E.30797
G1 X90 Y129.517 E.01314
G1 X90 Y119.695 E.30797
G1 X89.581 Y119.695 E.01314
G1 X89.581 Y129.517 E.30797
G1 X89.162 Y129.517 E.01314
G1 X89.162 Y119.695 E.30797
G1 X88.743 Y119.695 E.01314
G1 X88.743 Y129.517 E.30797
G1 X88.324 Y129.517 E.01314
G1 X88.324 Y119.695 E.30797
G1 X87.99 Y119.695 E.01048
G1 X87.99 Y115.081 E.14467
G1 X87.905 Y115.081 E.00266
G1 X87.905 Y129.517 E.45265
G1 X87.486 Y129.517 E.01314
G1 X87.486 Y115.081 E.45265
G1 X87.067 Y115.081 E.01314
G1 X87.067 Y129.517 E.45265
G1 X86.648 Y129.517 E.01314
G1 X86.648 Y115.081 E.45265
G1 X86.229 Y115.081 E.01314
G1 X86.229 Y129.517 E.45265
G1 X85.81 Y129.517 E.01314
G1 X85.81 Y115.081 E.45265
G1 X85.391 Y115.081 E.01314
G1 X85.391 Y129.517 E.45265
G1 X84.972 Y129.517 E.01314
G1 X84.972 Y115.081 E.45265
G1 X84.553 Y115.081 E.01314
G1 X84.553 Y129.517 E.45265
G1 X84.134 Y129.517 E.01314
G1 X84.134 Y115.081 E.45265
G1 X83.715 Y115.081 E.01314
G1 X83.715 Y129.517 E.45265
G1 X83.296 Y129.517 E.01314
G1 X83.296 Y115.081 E.45265
G1 X82.877 Y115.081 E.01314
G1 X82.877 Y129.517 E.45265
G1 X82.458 Y129.517 E.01314
G1 X82.458 Y115.081 E.45265
G1 X82.039 Y115.081 E.01314
G1 X82.039 Y129.517 E.45265
G1 X81.62 Y129.517 E.01314
G1 X81.62 Y115.081 E.45265
G1 X81.201 Y115.081 E.01314
G1 X81.201 Y129.517 E.45265
G1 X80.783 Y129.517 E.01314
G1 X80.783 Y115.081 E.45265
G1 X80.364 Y115.081 E.01314
G1 X80.364 Y129.517 E.45265
G1 X79.945 Y129.517 E.01314
G1 X79.945 Y115.081 E.45265
G1 X79.526 Y115.081 E.01314
G1 X79.526 Y129.517 E.45265
G1 X79.107 Y129.517 E.01314
G1 X79.107 Y114.911 E.45797
M204 P1000
G1 X78.688 Y129.687 F9000
M204 P800
G1 F1200
G1 X78.688 Y61.819 E2.12794
G1 X78.269 Y61.819 E.01314
G1 X78.269 Y129.517 E2.12262
G1 X77.85 Y129.517 E.01314
G1 X77.85 Y61.819 E2.12262
G1 X77.431 Y61.819 E.01314
G1 X77.431 Y129.517 E2.12262
G1 X77.012 Y129.517 E.01314
G1 X77.012 Y61.819 E2.12262
G1 X76.593 Y61.819 E.01314
G1 X76.593 Y129.517 E2.12262
G1 X76.174 Y129.517 E.01314
M73 P6 R68
G1 X76.174 Y61.819 E2.12262
G1 X75.755 Y61.819 E.01314
M73 P6 R67
G1 X75.755 Y129.517 E2.12262
G1 X75.336 Y129.517 E.01314
M73 C58
G1 X75.336 Y61.819 E2.12262
G1 X74.917 Y61.819 E.01314
G1 X74.917 Y129.517 E2.12262
G1 X74.498 Y129.517 E.01314
G1 X74.498 Y61.819 E2.12262
G1 X74.079 Y61.819 E.01314
G1 X74.079 Y129.517 E2.12262
G1 X73.66 Y129.517 E.01314
G1 X73.66 Y61.819 E2.12262
G1 X73.241 Y61.819 E.01314
G1 X73.241 Y129.517 E2.12262
G1 X72.822 Y129.517 E.01314
G1 X72.822 Y61.819 E2.12262
G1 X72.403 Y61.819 E.01314
G1 X72.403 Y129.517 E2.12262
G1 X71.984 Y129.517 E.01314
G1 X71.984 Y61.819 E2.12262
G1 X71.565 Y61.819 E.01314
G1 X71.565 Y129.517 E2.12262
G1 X71.146 Y129.517 E.01314
G1 X71.146 Y61.819 E2.12262
G1 X70.727 Y61.819 E.01314
M73 P7 R67
G1 X70.727 Y129.517 E2.12262
G1 X70.308 Y129.517 E.01314
G1 X70.308 Y61.467 E2.13368
G1 X70.181 Y61.339 E.00565
G1 X70.181 Y57.404 E.12339
G1 X69.889 Y57.404 E.00914
G1 X69.889 Y129.517 E2.26107
G1 X69.47 Y129.517 E.01314
G1 X69.47 Y57.404 E2.26107
G1 X69.051 Y57.404 E.01314
G1 X69.051 Y129.517 E2.26107
G1 X68.632 Y129.517 E.01314
M73 P7 R66
G1 X68.632 Y57.404 E2.26107
G1 X68.213 Y57.404 E.01314
M73 C57
G1 X68.213 Y129.517 E2.26107
G1 X67.794 Y129.517 E.01314
G1 X67.794 Y57.404 E2.26107
G1 X67.375 Y57.404 E.01314
G1 X67.375 Y129.517 E2.26107
G1 X66.956 Y129.517 E.01314
G1 X66.956 Y57.234 E2.26639
M204 P1000
G1 E-2.24 F4200
;WIPE_START
G1 F7200
G1 X66.956 Y58.88 E-.912
;WIPE_END
G1 E-.048 F4200
G1 Z.4 F720
G1 X71.6 Y60.161 F9000
G1 X71.6 Y60.4
G1 X71.788 Y60.4
G1 X71.788 Y60.213
G1 Z.2 F720
G1 E3.2 F2400
M204 P800
;TYPE:Perimeter
;WIDTH:0.419999
G1 F1200
G1 X71.797 Y54.1 E.19165
G1 X71.836 Y53.981 E.00394
G1 X71.968 Y53.898 E.00489
G1 X107.999 Y53.898 E1.12974
G1 X108.145 Y53.955 E.0049
G1 X108.203 Y54.1 E.0049
G1 X108.212 Y60.213 E.19165
G1 X71.848 Y60.213 E1.14017
M204 P1000
G1 X71.41 Y60.59 F9000
M204 P800
;TYPE:External perimeter
G1 F1200
G1 X71.42 Y54.1 E.2035
G1 X71.477 Y53.834 E.00854
G1 X71.659 Y53.631 E.00854
G1 X71.908 Y53.52 E.00854
G1 X108.092 Y53.52 E1.13451
G1 X108.341 Y53.631 E.00854
M73 P8 R66
G1 X108.523 Y53.834 E.00854
G1 X108.58 Y54.1 E.00853
G1 X108.59 Y60.59 E.2035
G1 X71.47 Y60.59 E1.16385
M204 P1000
G1 X71.59 Y60.233 F9000
G1 E-3.2 F4200
G1 Z.4 F720
G1 X108.091 Y54.778 F9000
G1 Z.2 F720
G1 E3.2 F2400
M204 P800
;TYPE:Solid infill
;WIDTH:0.422008
G1 F1200
G1 X107.493 Y54.18 E.02666
G1 X106.956 Y54.18 E.0169
G1 X107.921 Y55.145 E.04302
G1 X107.922 Y55.682 E.01692
G1 X106.42 Y54.18 E.06695
G1 X105.884 Y54.18 E.0169
G1 X107.923 Y56.219 E.09089
G1 X107.924 Y56.756 E.01692
G1 X105.348 Y54.18 E.11483
G1 X104.812 Y54.18 E.0169
G1 X107.925 Y57.293 E.13876
G1 X107.926 Y57.83 E.01692
G1 X104.276 Y54.18 E.1627
G1 X103.74 Y54.18 E.0169
G1 X107.926 Y58.367 E.18663
G1 X107.927 Y58.904 E.01692
G1 X103.204 Y54.18 E.21057
G1 X102.668 Y54.18 E.0169
G1 X107.928 Y59.441 E.2345
G1 X107.929 Y59.93 E.01542
G1 X107.881 Y59.93 E.0015
G1 X102.131 Y54.18 E.25631
G1 X101.595 Y54.18 E.0169
G1 X107.345 Y59.93 E.25631
G1 X106.809 Y59.93 E.0169
G1 X101.059 Y54.18 E.25631
G1 X100.523 Y54.18 E.0169
G1 X106.273 Y59.93 E.25631
G1 X105.737 Y59.93 E.0169
G1 X99.987 Y54.18 E.25631
G1 X99.451 Y54.18 E.0169
G1 X105.201 Y59.93 E.25631
G1 X104.665 Y59.93 E.0169
G1 X98.915 Y54.18 E.25631
G1 X98.379 Y54.18 E.0169
G1 X104.128 Y59.93 E.25631
G1 X103.592 Y59.93 E.0169
G1 X97.843 Y54.18 E.25631
G1 X97.306 Y54.18 E.0169
G1 X103.056 Y59.93 E.25631
G1 X102.52 Y59.93 E.0169
G1 X96.77 Y54.18 E.25631
G1 X96.234 Y54.18 E.0169
G1 X101.984 Y59.93 E.25631
G1 X101.448 Y59.93 E.0169
G1 X95.698 Y54.18 E.25631
G1 X95.162 Y54.18 E.0169
G1 X100.912 Y59.93 E.25631
G1 X100.376 Y59.93 E.0169
G1 X94.626 Y54.18 E.25631
G1 X94.09 Y54.18 E.0169
G1 X99.84 Y59.93 E.25631
G1 X99.303 Y59.93 E.0169
