; generated by PrusaSlicer 2.5.2+win64 on 2023-06-10 at 03:07:47 UTC


;
;

;
;
; 

; external perimeters extrusion width = 0.45mm
; perimeters extrusion width = 0.45mm
; infill extrusion width = 0.45mm
; solid infill extrusion width = 0.45mm
; top infill extrusion width = 0.40mm
; support material extrusion width = 0.35mm
; first layer extrusion width = 0.42mm

M73 P0 R59
M201 X2500 Y2500 Z400 E5000 ; sets maximum accelerations, mm/sec^2
M203 X180 Y180 Z12 E80 ; sets maximum feedrates, mm / sec
M204 P1250 R1250 T2500 ; sets acceleration (P, T) and retract acceleration (R), mm/sec^2
M205 X8.00 Y8.00 Z2.00 E10.00 ; sets the jerk limits, mm/sec
M205 S0 T0 ; sets the minimum extruding and travel feed rate, mm/sec
M107
;TYPE:Custom
M862.3 P "MINI" ; printer model check
G90 ; use absolute coordinates
M83 ; extruder relative mode
M104 S170 ; set extruder temp for bed leveling
M140 S60 ; set bed temp
M109 R170 ; wait for bed leveling temp
M190 S60 ; wait for bed temp
M204 T1250 ; set travel acceleration
G28 ; home all without mesh bed level
G29 ; mesh bed leveling 
M204 T2500 ; restore travel acceleration
M104 S215 ; set extruder temp
G92 E0
G1 Y-2 X179 F2400
G1 Z3 F720
M109 S215 ; wait for extruder temp

; intro line
G1 X170 F1000
G1 Z0.2 F720
G1 X110 E8 F900
G1 X40 E10 F700
G92 E0

M221 S95 ; set flow
G21 ; set units to millimeters
G90 ; use absolute coordinates
M83 ; use relative distances for extrusion
M900 K0.2 ; Filament gcode LA 1.5
; ; Filament gcode LA 1.0
M107
;LAYER_CHANGE
;Z:0.2
;HEIGHT:0.2
;BEFORE_LAYER_CHANGE
G92 E0.0
;0.2


G1 E-3.2 F4200
G1 Z.2 F720
;AFTER_LAYER_CHANGE
;0.2
G1 Z.4
G1 X64.762 Y55.246 F9000
G1 Z.2 F720
G1 E3.2 F2400
M204 P800
;TYPE:Skirt/Brim
;WIDTH:0.42
G1 F1200
G1 X69.469 Y51.282 E.19296
G1 X71 Y50.723 E.05111
G1 X109 Y50.723 E1.19146
G1 X110.531 Y51.282 E.05111
G1 X115.238 Y55.246 E.19296
G1 X116.084 Y57.065 E.06287
G1 X116.084 Y129.857 E2.28235
G1 X115.693 Y131.164 E.04278
G1 X114.647 Y132.04 E.04278
G1 X113.707 Y132.234 E.03008
G1 X66.293 Y132.234 E1.48664
G1 X64.986 Y131.842 E.04278
G1 X64.109 Y130.796 E.04278
G1 X63.916 Y129.857 E.03008
G1 X63.916 Y57.065 E2.28235
G1 X64.736 Y55.301 E.06099
M204 P1000
; printing object Shell-Bottom-REV-P1.5.STL id:0 copy 0
G1 E-2.24 F4200
;WIPE_START
G1 F7200
G1 X65.991 Y54.236 E-.912
;WIPE_END
G1 E-.048 F4200
G1 Z.4 F720
G1 X70.52 Y61.199 F9000
G1 Z.2 F720
G1 E3.2 F2400
M204 P800
;TYPE:Support material
G1 F1200
G1 X70.801 Y61.48 E.01247
G1 X109.199 Y61.48 E1.20393
G1 X109.48 Y61.199 E.01247
G1 X109.48 Y57.065 E.12963
G1 X113.707 Y57.065 E.13254
G1 X113.707 Y129.857 E2.28235
G1 X66.293 Y129.857 E1.48664
G1 X66.293 Y57.065 E2.28235
M73 P1 R59
G1 X70.52 Y57.065 E.13254
G1 X70.52 Y61.142 E.12785
M204 P1000
G1 X76.794 Y72.18 F9000
M204 P800
G1 F1200
G1 X76.794 Y114.742 E1.3345
G1 X103.206 Y114.742 E.82814
G1 X103.206 Y72.18 E1.3345
G1 X76.85 Y72.18 E.82636
M204 P1000
G1 E-3.2 F4200
G1 Z.4 F720
G1 X113.044 Y129.687 F9000
G1 Z.2 F720
G1 E3.2 F2400
M204 P800
G1 F1200
G1 X113.044 Y57.404 E2.26639
G1 X112.625 Y57.404 E.01314
M73 P1 R58
G1 X112.625 Y129.517 E2.26107
G1 X112.206 Y129.517 E.01314
G1 X112.206 Y57.404 E2.26107
G1 X111.787 Y57.404 E.01314
G1 X111.787 Y129.517 E2.26107
G1 X111.368 Y129.517 E.01314
G1 X111.368 Y57.404 E2.26107
G1 X110.949 Y57.404 E.01314
G1 X110.949 Y129.517 E2.26107
G1 X110.53 Y129.517 E.01314
G1 X110.53 Y57.404 E2.26107
G1 X110.111 Y57.404 E.01314
M73 P2 R58
G1 X110.111 Y129.517 E2.26107
G1 X109.692 Y129.517 E.01314
G1 X109.692 Y61.467 E2.13368
G1 X109.339 Y61.819 E.01563
G1 X109.273 Y61.819 E.00208
G1 X109.273 Y129.517 E2.12262
G1 X108.854 Y129.517 E.01314
G1 X108.854 Y61.819 E2.12262
G1 X108.435 Y61.819 E.01314
G1 X108.435 Y129.517 E2.12262
G1 X108.016 Y129.517 E.01314
G1 X108.016 Y61.819 E2.12262
G1 X107.597 Y61.819 E.01314
G1 X107.597 Y129.517 E2.12262
G1 X107.178 Y129.517 E.01314
G1 X107.178 Y61.819 E2.12262
G1 X106.759 Y61.819 E.01314
G1 X106.759 Y129.517 E2.12262
G1 X106.34 Y129.517 E.01314
G1 X106.34 Y61.819 E2.12262
G1 X105.921 Y61.819 E.01314
M73 P3 R58
G1 X105.921 Y129.517 E2.12262
G1 X105.502 Y129.517 E.01314
M73 P3 R57
G1 X105.502 Y61.819 E2.12262
G1 X105.083 Y61.819 E.01314
G1 X105.083 Y129.517 E2.12262
G1 X104.664 Y129.517 E.01314
G1 X104.664 Y61.819 E2.12262
G1 X104.245 Y61.819 E.01314
G1 X104.245 Y129.517 E2.12262
G1 X103.826 Y129.517 E.01314
G1 X103.826 Y61.819 E2.12262
G1 X103.407 Y61.819 E.01314
G1 X103.407 Y129.517 E2.12262
G1 X102.988 Y129.517 E.01314
G1 X102.988 Y115.081 E.45265
G1 X102.569 Y115.081 E.01314
G1 X102.569 Y129.517 E.45265
G1 X102.15 Y129.517 E.01314
G1 X102.15 Y115.081 E.45265
G1 X101.731 Y115.081 E.01314
G1 X101.731 Y129.517 E.45265
G1 X101.312 Y129.517 E.01314
G1 X101.312 Y115.081 E.45265
G1 X100.893 Y115.081 E.01314
G1 X100.893 Y129.517 E.45265
G1 X100.474 Y129.517 E.01314
G1 X100.474 Y115.081 E.45265
G1 X100.055 Y115.081 E.01314
G1 X100.055 Y129.517 E.45265
G1 X99.636 Y129.517 E.01314
G1 X99.636 Y115.081 E.45265
G1 X99.217 Y115.081 E.01314
G1 X99.217 Y129.517 E.45265
G1 X98.799 Y129.517 E.01314
G1 X98.799 Y115.081 E.45265
G1 X98.38 Y115.081 E.01314
G1 X98.38 Y129.517 E.45265
G1 X97.961 Y129.517 E.01314
G1 X97.961 Y115.081 E.45265
G1 X97.542 Y115.081 E.01314
M73 P4 R57
G1 X97.542 Y129.517 E.45265
G1 X97.123 Y129.517 E.01314
G1 X97.123 Y115.081 E.45265
G1 X96.704 Y115.081 E.01314
G1 X96.704 Y129.517 E.45265
G1 X96.285 Y129.517 E.01314
G1 X96.285 Y115.081 E.45265
G1 X95.866 Y115.081 E.01314
G1 X95.866 Y129.517 E.45265
G1 X95.447 Y129.517 E.01314
G1 X95.447 Y115.081 E.45265
G1 X95.028 Y115.081 E.01314
G1 X95.028 Y129.517 E.45265
G1 X94.609 Y129.517 E.01314
G1 X94.609 Y115.081 E.45265
G1 X94.19 Y115.081 E.01314
G1 X94.19 Y129.517 E.45265
G1 X93.771 Y129.517 E.01314
G1 X93.771 Y115.081 E.45265
G1 X93.352 Y115.081 E.01314
G1 X93.352 Y129.517 E.45265
G1 X92.933 Y129.517 E.01314
G1 X92.933 Y115.081 E.45265
G1 X92.514 Y115.081 E.01314
G1 X92.514 Y129.517 E.45265
G1 X92.095 Y129.517 E.01314
G1 X92.095 Y115.081 E.45265
G1 X91.676 Y115.081 E.01314
G1 X91.676 Y129.517 E.45265
G1 X91.257 Y129.517 E.01314
G1 X91.257 Y115.081 E.45265
G1 X90.838 Y115.081 E.01314
G1 X90.838 Y129.517 E.45265
G1 X90.419 Y129.517 E.01314
G1 X90.419 Y115.081 E.45265
G1 X90 Y115.081 E.01314
G1 X90 Y129.517 E.45265
G1 X89.581 Y129.517 E.01314
G1 X89.581 Y115.081 E.45265
G1 X89.162 Y115.081 E.01314
G1 X89.162 Y129.517 E.45265
G1 X88.743 Y129.517 E.01314
G1 X88.743 Y115.081 E.45265
G1 X88.324 Y115.081 E.01314
G1 X88.324 Y129.517 E.45265
G1 X87.905 Y129.517 E.01314
G1 X87.905 Y115.081 E.45265
G1 X87.486 Y115.081 E.01314
G1 X87.486 Y129.517 E.45265
G1 X87.067 Y129.517 E.01314
G1 X87.067 Y115.081 E.45265
G1 X86.648 Y115.081 E.01314
G1 X86.648 Y129.517 E.45265
G1 X86.229 Y129.517 E.01314
G1 X86.229 Y115.081 E.45265
G1 X85.81 Y115.081 E.01314
G1 X85.81 Y129.517 E.45265
G1 X85.391 Y129.517 E.01314
G1 X85.391 Y115.081 E.45265
G1 X84.972 Y115.081 E.01314
G1 X84.972 Y129.517 E.45265
G1 X84.553 Y129.517 E.01314
G1 X84.553 Y115.081 E.45265
G1 X84.134 Y115.081 E.01314
G1 X84.134 Y129.517 E.45265
G1 X83.715 Y129.517 E.01314
G1 X83.715 Y115.081 E.45265
G1 X83.296 Y115.081 E.01314
G1 X83.296 Y129.517 E.45265
G1 X82.877 Y129.517 E.01314
M73 P4 R56
G1 X82.877 Y115.081 E.45265
G1 X82.458 Y115.081 E.01314
G1 X82.458 Y129.517 E.45265
G1 X82.039 Y129.517 E.01314
G1 X82.039 Y115.081 E.45265
G1 X81.62 Y115.081 E.01314
G1 X81.62 Y129.517 E.45265
G1 X81.201 Y129.517 E.01314
G1 X81.201 Y115.081 E.45265
G1 X80.783 Y115.081 E.01314
G1 X80.783 Y129.517 E.45265
G1 X80.364 Y129.517 E.01314
G1 X80.364 Y115.081 E.45265
G1 X79.945 Y115.081 E.01314
G1 X79.945 Y129.517 E.45265
G1 X79.526 Y129.517 E.01314
G1 X79.526 Y115.081 E.45265
G1 X79.107 Y115.081 E.01314
G1 X79.107 Y129.517 E.45265
G1 X78.688 Y129.517 E.01314
G1 X78.688 Y115.081 E.45265
G1 X78.269 Y115.081 E.01314
G1 X78.269 Y129.517 E.45265
G1 X77.85 Y129.517 E.01314
M73 P5 R56
G1 X77.85 Y115.081 E.45265
G1 X77.431 Y115.081 E.01314
G1 X77.431 Y129.517 E.45265
G1 X77.012 Y129.517 E.01314
G1 X77.012 Y114.911 E.45797
M204 P1000
G1 E-3.2 F4200
G1 Z.4 F720
G1 X102.988 Y72.01 F9000
G1 Z.2 F720
G1 E3.2 F2400
M204 P800
G1 F1200
G1 X102.988 Y61.819 E.31952
G1 X102.569 Y61.819 E.01314
G1 X102.569 Y71.84 E.3142
G1 X102.15 Y71.84 E.01314
G1 X102.15 Y61.819 E.3142
G1 X101.731 Y61.819 E.01314
G1 X101.731 Y71.84 E.3142
G1 X101.312 Y71.84 E.01314
G1 X101.312 Y61.819 E.3142
G1 X100.893 Y61.819 E.01314
G1 X100.893 Y71.84 E.3142
G1 X100.474 Y71.84 E.01314
G1 X100.474 Y61.819 E.3142
G1 X100.055 Y61.819 E.01314
G1 X100.055 Y71.84 E.3142
G1 X99.636 Y71.84 E.01314
G1 X99.636 Y61.819 E.3142
G1 X99.217 Y61.819 E.01314
G1 X99.217 Y71.84 E.3142
G1 X98.799 Y71.84 E.01314
G1 X98.799 Y61.819 E.3142
G1 X98.38 Y61.819 E.01314
G1 X98.38 Y71.84 E.3142
G1 X97.961 Y71.84 E.01314
G1 X97.961 Y61.819 E.3142
G1 X97.542 Y61.819 E.01314
G1 X97.542 Y71.84 E.3142
G1 X97.123 Y71.84 E.01314
G1 X97.123 Y61.819 E.3142
G1 X96.704 Y61.819 E.01314
G1 X96.704 Y71.84 E.3142
G1 X96.285 Y71.84 E.01314
G1 X96.285 Y61.819 E.3142
G1 X95.866 Y61.819 E.01314
G1 X95.866 Y71.84 E.3142
G1 X95.447 Y71.84 E.01314
G1 X95.447 Y61.819 E.3142
G1 X95.028 Y61.819 E.01314
G1 X95.028 Y71.84 E.3142
G1 X94.609 Y71.84 E.01314
G1 X94.609 Y61.819 E.3142
G1 X94.19 Y61.819 E.01314
G1 X94.19 Y71.84 E.3142
G1 X93.771 Y71.84 E.01314
G1 X93.771 Y61.819 E.3142
G1 X93.352 Y61.819 E.01314
G1 X93.352 Y71.84 E.3142
G1 X92.933 Y71.84 E.01314
G1 X92.933 Y61.819 E.3142
G1 X92.514 Y61.819 E.01314
G1 X92.514 Y71.84 E.3142
G1 X92.095 Y71.84 E.01314
G1 X92.095 Y61.819 E.3142
G1 X91.676 Y61.819 E.01314
G1 X91.676 Y71.84 E.3142
G1 X91.257 Y71.84 E.01314
G1 X91.257 Y61.819 E.3142
G1 X90.838 Y61.819 E.01314
G1 X90.838 Y71.84 E.3142
G1 X90.419 Y71.84 E.01314
G1 X90.419 Y61.819 E.3142
G1 X90 Y61.819 E.01314
G1 X90 Y71.84 E.3142
G1 X89.581 Y71.84 E.01314
G1 X89.581 Y61.819 E.3142
G1 X89.162 Y61.819 E.01314
G1 X89.162 Y71.84 E.3142
G1 X88.743 Y71.84 E.01314
G1 X88.743 Y61.819 E.3142
G1 X88.324 Y61.819 E.01314
G1 X88.324 Y71.84 E.3142
G1 X87.905 Y71.84 E.01314
G1 X87.905 Y61.819 E.3142
G1 X87.486 Y61.819 E.01314
G1 X87.486 Y71.84 E.3142
G1 X87.067 Y71.84 E.01314
G1 X87.067 Y61.819 E.3142
G1 X86.648 Y61.819 E.01314
G1 X86.648 Y71.84 E.3142
G1 X86.229 Y71.84 E.01314
G1 X86.229 Y61.819 E.3142
G1 X85.81 Y61.819 E.01314
G1 X85.81 Y71.84 E.3142
G1 X85.391 Y71.84 E.01314
G1 X85.391 Y61.819 E.3142
G1 X84.972 Y61.819 E.01314
G1 X84.972 Y71.84 E.3142
G1 X84.553 Y71.84 E.01314
G1 X84.553 Y61.819 E.3142
G1 X84.134 Y61.819 E.01314
G1 X84.134 Y71.84 E.3142
G1 X83.715 Y71.84 E.01314
G1 X83.715 Y61.819 E.3142
G1 X83.296 Y61.819 E.01314
G1 X83.296 Y71.84 E.3142
G1 X82.877 Y71.84 E.01314
G1 X82.877 Y61.819 E.3142
G1 X82.458 Y61.819 E.01314
G1 X82.458 Y71.84 E.3142
G1 X82.039 Y71.84 E.01314
G1 X82.039 Y61.819 E.3142
G1 X81.62 Y61.819 E.01314
G1 X81.62 Y71.84 E.3142
G1 X81.201 Y71.84 E.01314
G1 X81.201 Y61.819 E.3142
G1 X80.783 Y61.819 E.01314
G1 X80.783 Y71.84 E.3142
G1 X80.364 Y71.84 E.01314
G1 X80.364 Y61.819 E.3142
G1 X79.945 Y61.819 E.01314
G1 X79.945 Y71.84 E.3142
G1 X79.526 Y71.84 E.01314
G1 X79.526 Y61.819 E.3142
G1 X79.107 Y61.819 E.01314
G1 X79.107 Y71.84 E.3142
G1 X78.688 Y71.84 E.01314
G1 X78.688 Y61.819 E.3142
G1 X78.269 Y61.819 E.01314
G1 X78.269 Y71.84 E.3142
G1 X77.85 Y71.84 E.01314
G1 X77.85 Y61.819 E.3142
G1 X77.431 Y61.819 E.01314
G1 X77.431 Y71.84 E.3142
G1 X77.012 Y71.84 E.01314
M73 P6 R56
G1 X77.012 Y61.819 E.3142
G1 X76.593 Y61.819 E.01314
G1 X76.593 Y129.517 E2.12262
G1 X76.174 Y129.517 E.01314
G1 X76.174 Y61.819 E2.12262
G1 X75.755 Y61.819 E.01314
G1 X75.755 Y129.517 E2.12262
G1 X75.336 Y129.517 E.01314
G1 X75.336 Y61.819 E2.12262
G1 X74.917 Y61.819 E.01314
G1 X74.917 Y129.517 E2.12262
G1 X74.498 Y129.517 E.01314
M73 P6 R55
G1 X74.498 Y61.819 E2.12262
G1 X74.079 Y61.819 E.01314
G1 X74.079 Y129.517 E2.12262
G1 X73.66 Y129.517 E.01314
G1 X73.66 Y61.819 E2.12262
G1 X73.241 Y61.819 E.01314
G1 X73.241 Y129.517 E2.12262
G1 X72.822 Y129.517 E.01314
G1 X72.822 Y61.819 E2.12262
G1 X72.403 Y61.819 E.01314
G1 X72.403 Y129.517 E2.12262
G1 X71.984 Y129.517 E.01314
M73 P7 R55
G1 X71.984 Y61.819 E2.12262
G1 X71.565 Y61.819 E.01314
G1 X71.565 Y129.517 E2.12262
G1 X71.146 Y129.517 E.01314
G1 X71.146 Y61.819 E2.12262
G1 X70.727 Y61.819 E.01314
G1 X70.727 Y129.517 E2.12262
G1 X70.308 Y129.517 E.01314
G1 X70.308 Y61.467 E2.13368
G1 X70.181 Y61.339 E.00565
G1 X70.181 Y57.404 E.12339
G1 X69.889 Y57.404 E.00914
G1 X69.889 Y129.517 E2.26107
G1 X69.47 Y129.517 E.01314
G1 X69.47 Y57.404 E2.26107
G1 X69.051 Y57.404 E.01314
G1 X69.051 Y129.517 E2.26107
G1 X68.632 Y129.517 E.01314
G1 X68.632 Y57.404 E2.26107
G1 X68.213 Y57.404 E.01314
G1 X68.213 Y129.517 E2.26107
G1 X67.794 Y129.517 E.01314
M73 P8 R55
G1 X67.794 Y57.404 E2.26107
G1 X67.375 Y57.404 E.01314
M73 P8 R54
G1 X67.375 Y129.517 E2.26107
G1 X66.956 Y129.517 E.01314
G1 X66.956 Y57.234 E2.26639
M204 P1000
G1 E-2.24 F4200
;WIPE_START
G1 F7200
G1 X66.956 Y58.88 E-.912
;WIPE_END
G1 E-.048 F4200
G1 Z.4 F720
G1 X71.6 Y60.161 F9000
G1 X71.6 Y60.213
G1 X71.787 Y60.213
G1 Z.2 F720
G1 E3.2 F2400
M204 P800
;TYPE:Perimeter
;WIDTH:0.419999
G1 F1200
G1 X71.787 Y53.887 E.19834
G1 X108.213 Y53.887 E1.1421
G1 X108.213 Y60.213 E.19834
G1 X71.847 Y60.213 E1.14022
M204 P1000
G1 X71.41 Y60.59 F9000
M204 P800
;TYPE:External perimeter
G1 F1200
G1 X71.41 Y53.51 E.22199
G1 X108.59 Y53.51 E1.16575
G1 X108.59 Y60.59 E.22199
G1 X71.47 Y60.59 E1.16387
M204 P1000
G1 X71.588 Y60.232 F9000
G1 E-3.2 F4200
G1 Z.4 F720
G1 X107.333 Y54 F9000
G1 Z.2 F720
G1 E3.2 F2400
M204 P800
;TYPE:Solid infill
;WIDTH:0.422203
G1 F1200
G1 X107.93 Y54.597 E.02664
G1 X107.93 Y55.134 E.01692
G1 X106.966 Y54.17 E.04299
G1 X106.43 Y54.17 E.01692
G1 X107.93 Y55.67 E.06692
G1 X107.93 Y56.207 E.01692
G1 X105.893 Y54.17 E.09084
G1 X105.357 Y54.17 E.01692
G1 X107.93 Y56.743 E.11476
G1 X107.93 Y57.279 E.01692
G1 X104.821 Y54.17 E.13869
G1 X104.284 Y54.17 E.01692
G1 X107.93 Y57.816 E.16261
G1 X107.93 Y58.352 E.01692
G1 X103.748 Y54.17 E.18653
G1 X103.211 Y54.17 E.01692
G1 X107.93 Y58.889 E.21046
G1 X107.93 Y59.425 E.01692
G1 X102.675 Y54.17 E.23438
G1 X102.139 Y54.17 E.01692
G1 X107.899 Y59.93 E.25691
G1 X107.363 Y59.93 E.01692
G1 X101.602 Y54.17 E.25691
G1 X101.066 Y54.17 E.01692
G1 X106.826 Y59.93 E.25691
G1 X106.29 Y59.93 E.01692
G1 X100.53 Y54.17 E.25691
G1 X99.993 Y54.17 E.01692
G1 X105.753 Y59.93 E.25691
G1 X105.217 Y59.93 E.01692
G1 X99.457 Y54.17 E.25691
G1 X98.92 Y54.17 E.01692
G1 X104.681 Y59.93 E.25691
G1 X104.144 Y59.93 E.01692
G1 X98.384 Y54.17 E.25691
G1 X97.848 Y54.17 E.01692
G1 X103.608 Y59.93 E.25691
G1 X103.071 Y59.93 E.01692
G1 X97.311 Y54.17 E.25691
G1 X96.775 Y54.17 E.01692
G1 X102.535 Y59.93 E.25691
G1 X101.999 Y59.93 E.01692
G1 X96.238 Y54.17 E.25691
G1 X95.702 Y54.17 E.01692
G1 X101.462 Y59.93 E.25691
G1 X100.926 Y59.93 E.01692
G1 X95.166 Y54.17 E.25691
G1 X94.629 Y54.17 E.01692
G1 X100.389 Y59.93 E.25691
G1 X99.853 Y59.93 E.01692
G1 X94.093 Y54.17 E.25691
G1 X93.556 Y54.17 E.01692
G1 X99.317 Y59.93 E.25691
G1 X98.78 Y59.93 E.01692
G1 X93.02 Y54.17 E.25691
G1 X92.484 Y54.17 E.01692
G1 X98.244 Y59.93 E.25691
G1 X97.708 Y59.93 E.01692
G1 X91.947 Y54.17 E.25691
G1 X91.411 Y54.17 E.01692
G1 X97.171 Y59.93 E.25691
G1 X96.635 Y59.93 E.01692
G1 X90.875 Y54.17 E.25691
G1 X90.338 Y54.17 E.01692
G1 X96.098 Y59.93 E.25691
G1 X95.562 Y59.93 E.01692
G1 X89.802 Y54.17 E.25691
G1 X89.265 Y54.17 E.01692
M73 P9 R54
G1 X95.026 Y59.93 E.25691
G1 X94.489 Y59.93 E.01692
G1 X88.729 Y54.17 E.25691
G1 X88.193 Y54.17 E.01692
G1 X93.953 Y59.93 E.25691
G1 X93.416 Y59.93 E.01692
G1 X87.656 Y54.17 E.25691
G1 X87.12 Y54.17 E.01692
G1 X92.88 Y59.93 E.25691
G1 X92.344 Y59.93 E.01692
G1 X86.583 Y54.17 E.25691
G1 X86.047 Y54.17 E.01692
G1 X91.807 Y59.93 E.25691
G1 X91.271 Y59.93 E.01692
G1 X85.511 Y54.17 E.25691
G1 X84.974 Y54.17 E.01692
G1 X90.735 Y59.93 E.25691
G1 X90.198 Y59.93 E.01692
G1 X84.438 Y54.17 E.25691
G1 X83.902 Y54.17 E.01692
G1 X89.662 Y59.93 E.25691
G1 X89.125 Y59.93 E.01692
G1 X83.365 Y54.17 E.25691
G1 X82.829 Y54.17 E.01692
G1 X88.589 Y59.93 E.25691
G1 X88.053 Y59.93 E.01692
G1 X82.292 Y54.17 E.25691
