; generated by PrusaSlicer 2.5.2+win64 on 2023-06-13 at 22:13:41 UTC


;
;

;
;
; 

; external perimeters extrusion width = 0.45mm
; perimeters extrusion width = 0.45mm
; infill extrusion width = 0.45mm
; solid infill extrusion width = 0.45mm
; top infill extrusion width = 0.40mm
; first layer extrusion width = 0.42mm

M73 P0 R32
M201 X2500 Y2500 Z400 E5000 ; sets maximum accelerations, mm/sec^2
M203 X180 Y180 Z12 E80 ; sets maximum feedrates, mm / sec
M204 P1250 R1250 T2500 ; sets acceleration (P, T) and retract acceleration (R), mm/sec^2
M205 X8.00 Y8.00 Z2.00 E10.00 ; sets the jerk limits, mm/sec
M205 S0 T0 ; sets the minimum extruding and travel feed rate, mm/sec
M107
;TYPE:Custom
M862.3 P "MINI" ; printer model check
G90 ; use absolute coordinates
M83 ; extruder relative mode
M104 S170 ; set extruder temp for bed leveling
M140 S60 ; set bed temp
M109 R170 ; wait for bed leveling temp
M190 S60 ; wait for bed temp
M204 T1250 ; set travel acceleration
G28 ; home all without mesh bed level
G29 ; mesh bed leveling 
M204 T2500 ; restore travel acceleration
M104 S215 ; set extruder temp
G92 E0
G1 Y-2 X179 F2400
G1 Z3 F720
M109 S215 ; wait for extruder temp

; intro line
G1 X170 F1000
G1 Z0.2 F720
G1 X110 E8 F900
G1 X40 E10 F700
G92 E0

M221 S95 ; set flow
G21 ; set units to millimeters
G90 ; use absolute coordinates
M83 ; use relative distances for extrusion
M900 K0.2 ; Filament gcode LA 1.5
; ; Filament gcode LA 1.0
M107
;LAYER_CHANGE
;Z:0.2
;HEIGHT:0.2
;BEFORE_LAYER_CHANGE
G92 E0.0
;0.2


G1 E-3.2 F4200
G1 Z.2 F720
;AFTER_LAYER_CHANGE
;0.2
G1 Z.4
G1 X69.481 Y51.854 F9000
G1 Z.2 F720
G1 E3.2 F2400
M204 P800
;TYPE:Skirt/Brim
;WIDTH:0.42
G1 F1200
G1 X70.17 Y51.264 E.02845
G1 X71.127 Y50.84 E.0328
G1 X71.811 Y50.73 E.02172
G1 X108.186 Y50.73 E1.14053
G1 X108.711 Y50.801 E.01661
M73 P0 R31
G1 X109.361 Y51.012 E.02141
G1 X110.124 Y51.477 E.02803
G1 X110.515 Y51.849 E.01691
G1 X110.836 Y52.27 E.01661
G1 X111.147 Y52.881 E.0215
G1 X111.299 Y53.389 E.01661
G1 X111.377 Y54.097 E.02234
G1 X111.377 Y125.9 E2.25133
G1 X111.301 Y126.602 E.02213
M73 P1 R31
G1 X111.09 Y127.257 E.0216
G1 X110.519 Y128.146 E.03311
G1 X109.838 Y128.73 E.02815
G1 X109.219 Y129.047 E.02181
G1 X108.193 Y129.269 E.03289
G1 X72 Y129.277 E1.13482
G1 X71.289 Y129.199 E.02244
G1 X70.646 Y128.991 E.02119
G1 X69.757 Y128.421 E.03311
G1 X69.164 Y127.73 E.02855
G1 X68.738 Y126.764 E.03311
G1 X68.623 Y125.9 E.02733
G1 X68.623 Y54.1 E2.25124
G1 X68.701 Y53.389 E.02244
G1 X68.909 Y52.746 E.02119
G1 X69.448 Y51.905 E.03132
M204 P1000
; printing object Shell-Middle-REV-P1.8.STL id:0 copy 0
G1 E-2.24 F4200
;WIPE_START
G1 F7200
G1 X70.17 Y51.264 E-.53479
G1 X70.792 Y50.988 E-.37721
;WIPE_END
G1 E-.048 F4200
G1 Z.4 F720
G1 X108.213 Y57.882 F9000
G1 Z.2 F720
G1 E3.2 F2400
M204 P800
;TYPE:Perimeter
;WIDTH:0.419999
G1 F1200
G1 X108.213 Y123.269 E2.05017
;WIDTH:0.444461
G1 X108.201 Y123.849 E.01937
;WIDTH:0.476868
G1 X108.184 Y124.398 E.01981
G1 X108.199 Y124.726 E.01184
;WIDTH:0.448434
G1 X108.213 Y125.054 E.01107
;WIDTH:0.419999
G1 X108.213 Y125.787 E.02299
G1 X108.155 Y126.031 E.00784
G1 X107.925 Y126.113 E.00766
G1 X107.065 Y126.113 E.02697
;WIDTH:0.469744
G1 X106.447 Y126.088 E.02196
G1 X105.892 Y126.1 E.01969
;WIDTH:0.446545
G1 X105.283 Y126.113 E.02046
;WIDTH:0.419999
G1 X91 Y126.113 E.44782
;WIDTH:0.444381
G1 X81.4 Y126.113 E.32046
;WIDTH:0.419999
G1 X75.065 Y126.113 E.19863
;WIDTH:0.469743
G1 X74.447 Y126.088 E.02196
G1 X73.892 Y126.1 E.01969
;WIDTH:0.446545
G1 X73.283 Y126.113 E.02046
;WIDTH:0.419999
G1 X72.113 Y126.113 E.03668
G1 X71.869 Y126.055 E.00784
G1 X71.787 Y125.825 E.00766
G1 X71.787 Y124.691 E.03555
;WIDTH:0.454269
G1 X71.804 Y124.168 E.01792
;WIDTH:0.458153
G1 X71.787 Y122.923 E.04298
;WIDTH:0.419999
G1 X71.787 Y56.903 E2.07
;WIDTH:0.455095
G1 X71.805 Y56.394 E.01747
;WIDTH:0.458031
G1 X71.787 Y55.123 E.04386
;WIDTH:0.419999
G1 X71.787 Y54.213 E.02854
G1 X71.845 Y53.969 E.00784
G1 X72.075 Y53.887 E.00766
G1 X72.756 Y53.887 E.02138
;WIDTH:0.42107
G1 X73.449 Y53.888 E.02179
;WIDTH:0.453225
G1 X74.257 Y53.904 E.02756
G1 X74.889 Y53.888 E.02159
;WIDTH:0.419999
G1 X104.759 Y53.897 E.93653
;WIDTH:0.420908
G1 X105.45 Y53.897 E.02173
;WIDTH:0.448589
M73 P2 R31
G1 X106.257 Y53.911 E.02721
G1 X106.888 Y53.897 E.0213
;WIDTH:0.419999
G1 X107.96 Y53.897 E.03361
G1 X108.153 Y53.966 E.00642
G1 X108.213 Y54.175 E.0068
G1 X108.213 Y55.469 E.04059
;WIDTH:0.444461
G1 X108.201 Y56.049 E.01937
;WIDTH:0.476866
G1 X108.184 Y56.598 E.01981
G1 X108.199 Y56.926 E.01184
;WIDTH:0.448433
G1 X108.213 Y57.254 E.01107
;WIDTH:0.419999
G1 X108.213 Y57.822 E.01782
M204 P1000
G1 E-3.2 F4200
G1 Z.4 F720
G1 X108.419 Y53.7 F9000
G1 Z.2 F720
G1 E3.2 F2400
M204 P800
;TYPE:External perimeter
G1 F1200
G1 X108.558 Y53.918 E.00812
G1 X108.59 Y54.175 E.0081
G1 X108.59 Y125.787 E2.24535
G1 X108.541 Y126.077 E.00923
G1 X108.46 Y126.252 E.00603
G1 X108.273 Y126.418 E.00785
G1 X107.969 Y126.49 E.00978
G1 X72.113 Y126.49 E1.12425
G1 X71.823 Y126.441 E.00923
G1 X71.648 Y126.36 E.00603
G1 X71.482 Y126.173 E.00785
G1 X71.41 Y125.869 E.00978
G1 X71.41 Y54.213 E2.24674
G1 X71.459 Y53.923 E.00923
G1 X71.54 Y53.748 E.00603
G1 X71.727 Y53.582 E.00785
G1 X72.031 Y53.51 E.00978
G1 X107.96 Y53.52 E1.12654
G1 X108.199 Y53.568 E.00764
G1 X108.368 Y53.669 E.00617
M204 P1000
G1 X108.35 Y53.949 F9000
G1 E-2.24 F4200
;WIPE_START
G1 F7200
G1 X108.558 Y53.918 E-.17379
G1 X108.59 Y54.175 E-.14319
G1 X108.59 Y55.249 E-.59502
;WIPE_END
G1 E-.048 F4200
G1 Z.4 F720
G1 X105.572 Y57.826 F9000
G1 Z.2 F720
G1 E3.2 F2400
M204 P800
;TYPE:Perimeter
G1 F1200
G1 X105.504 Y57.816 E.00216
G1 X105.18 Y57.682 E.011
G1 X104.7 Y57.319 E.01889
G1 X104.368 Y56.816 E.01889
G1 X104.223 Y56.231 E.01888
G1 X104.28 Y55.632 E.0189
G1 X104.535 Y55.085 E.01889
G1 X104.956 Y54.655 E.01889
;WIDTH:0.420908
G1 X105.494 Y54.39 E.01883
;WIDTH:0.441069
G1 X106.009 Y54.305 E.01728
G1 X106.397 Y54.356 E.01297
;WIDTH:0.432935
G1 X106.951 Y54.593 E.01956
;WIDTH:0.419999
G1 X107.399 Y54.996 E.01889
G1 X107.687 Y55.525 E.01889
;WIDTH:0.444461
G1 X107.799 Y56.049 E.01789
;WIDTH:0.476866
G1 X107.754 Y56.561 E.01852
G1 X107.621 Y56.821 E.01055
;WIDTH:0.448433
G1 X107.488 Y57.081 E.00986
;WIDTH:0.419999
G1 X107.076 Y57.521 E.01889
G1 X106.54 Y57.798 E.0189
G1 X106.014 Y57.887 E.01674
G1 X105.632 Y57.834 E.01211
M204 P1000
G1 X105.63 Y57.461 F9000
M204 P800
;TYPE:External perimeter
G1 F1200
G1 X105.391 Y57.37 E.00801
G1 X105.003 Y57.095 E.01493
G1 X104.728 Y56.706 E.01493
G1 X104.599 Y56.247 E.01492
G1 X104.63 Y55.772 E.01493
G1 X104.818 Y55.335 E.01493
G1 X105.14 Y54.984 E.01493
G1 X105.56 Y54.762 E.01489
G1 X105.984 Y54.692 E.01347
G1 X106.269 Y54.717 E.00899
G1 X106.715 Y54.886 E.01493
G1 X107.078 Y55.194 E.01493
G1 X107.318 Y55.605 E.01493
G1 X107.41 Y56.049 E.01423
G1 X107.337 Y56.543 E.01564
G1 X107.113 Y56.963 E.01493
G1 X106.762 Y57.284 E.01493
G1 X106.332 Y57.47 E.01469
G1 X105.987 Y57.509 E.01086
G1 X105.689 Y57.469 E.00943
M204 P1000
G1 X105.452 Y57.644 F9000
G1 E-3.2 F4200
G1 Z.4 F720
G1 X105.345 Y60.328 F9000
G1 Z.2 F720
G1 E3.2 F2400
M204 P800
;TYPE:Perimeter
G1 F1200
G1 X105.5 Y60.361 E.00498
G1 X105.654 Y60.462 E.00577
G1 X105.785 Y60.642 E.00696
G1 X105.837 Y60.879 E.0076
G1 X105.837 Y63.321 E.0766
G1 X105.77 Y63.588 E.00861
G1 X105.61 Y63.774 E.0077
G1 X105.429 Y63.865 E.00635
G1 X105.271 Y63.887 E.00502
G1 X96.548 Y63.876 E.27349
G1 X95.984 Y63.817 E.01778
G1 X95.382 Y63.665 E.01946
G1 X95.263 Y63.618 E.00403
G1 X95.15 Y63.448 E.00639
G1 X95.037 Y63.618 E.00639
G1 X94.399 Y63.802 E.02085
G1 X93.752 Y63.876 E.0204
G1 X86.243 Y63.876 E.23545
G1 X85.684 Y63.817 E.01761
G1 X85.082 Y63.665 E.01946
G1 X84.963 Y63.618 E.00403
G1 X84.85 Y63.448 E.00639
G1 X84.737 Y63.618 E.00639
G1 X84.099 Y63.802 E.02085
G1 X83.452 Y63.876 E.02041
G1 X74.729 Y63.887 E.27349
G1 X74.571 Y63.865 E.00502
G1 X74.39 Y63.774 E.00635
G1 X74.23 Y63.588 E.0077
G1 X74.163 Y63.321 E.00861
G1 X74.163 Y60.879 E.0766
G1 X74.215 Y60.642 E.0076
G1 X74.372 Y60.439 E.00804
G1 X74.578 Y60.333 E.00724
G1 X75.082 Y60.313 E.01584
G1 X83.463 Y60.324 E.26277
G1 X84.016 Y60.383 E.01744
G1 X84.618 Y60.535 E.01946
G1 X84.737 Y60.582 E.00403
G1 X84.85 Y60.769 E.00684
G1 X84.963 Y60.582 E.00684
G1 X85.601 Y60.398 E.02085
G1 X86.243 Y60.324 E.02024
G1 X93.752 Y60.324 E.23545
G1 X94.316 Y60.383 E.01777
G1 X94.918 Y60.535 E.01946
G1 X95.037 Y60.582 E.00403
G1 X95.15 Y60.769 E.00684
G1 X95.263 Y60.582 E.00684
G1 X95.901 Y60.398 E.02085
G1 X96.543 Y60.324 E.02024
G1 X105.286 Y60.316 E.27415
M204 P1000
G1 X105.271 Y60.69 F9000
M204 P800
;TYPE:External perimeter
G1 F1200
G1 X105.399 Y60.74 E.0043
G1 X105.46 Y60.879 E.00475
G1 X105.46 Y63.321 E.0766
G1 X105.384 Y63.472 E.00529
G1 X105.271 Y63.51 E.00374
G1 X96.549 Y63.499 E.27349
G1 X96.025 Y63.443 E.0165
G1 X95.479 Y63.3 E.01771
;WIDTH:0.42144
G1 X95.339 Y63.118 E.00724
;WIDTH:0.419999
G1 X95.339 Y61.082 E.06384
G1 X95.479 Y60.9 E.00721
G1 X95.998 Y60.762 E.01683
G1 X96.547 Y60.701 E.01732
G1 X105.211 Y60.69 E.27168
M204 P1000
G1 E-3.2 F4200
G1 Z.4 F720
G1 X94.821 Y60.9 F9000
G1 Z.2 F720
G1 E3.2 F2400
M204 P800
;WIDTH:0.42
G1 F1200
G1 X94.961 Y61.082 E.00721
G1 X94.961 Y63.118 E.06384
G1 X94.861 Y63.285 E.0061
;WIDTH:0.419999
G1 X94.302 Y63.438 E.01817
G1 X93.752 Y63.499 E.01737
G1 X87.248 Y63.51 E.20392
G1 X86.247 Y63.499 E.03139
M73 P3 R31
G1 X85.725 Y63.443 E.01644
G1 X85.179 Y63.3 E.01771
;WIDTH:0.42144
G1 X85.039 Y63.118 E.00724
;WIDTH:0.42
G1 X85.039 Y61.082 E.06384
G1 X85.179 Y60.9 E.00721
G1 X85.698 Y60.762 E.01683
G1 X86.247 Y60.701 E.01732
G1 X87.25 Y60.69 E.03147
G1 X93.752 Y60.701 E.20384
G1 X94.275 Y60.757 E.0165
G1 X94.763 Y60.885 E.01583
M204 P1000
G1 X95.035 Y60.815 F9000
G1 E-2.24 F4200
;WIPE_START
G1 F7200
G1 X94.961 Y61.082 E-.15509
G1 X94.961 Y62.448 E-.75691
;WIPE_END
G1 E-.048 F4200
G1 Z.4 F720
G1 X95.009 Y62.448 F9000
G1 X95.009 Y63.359
G1 X94.467 Y63.666
G1 X85.533 Y63.666
G1 X84.991 Y63.359
G1 X84.991 Y63.285
G1 X84.561 Y63.285
G1 Z.2 F720
G1 E3.2 F2400
M204 P800
;WIDTH:0.419999
G1 F1200
G1 X84.002 Y63.438 E.01817
G1 X83.451 Y63.499 E.01738
G1 X74.729 Y63.51 E.27349
G1 X74.616 Y63.472 E.00374
G1 X74.54 Y63.321 E.00529
G1 X74.54 Y60.879 E.0766
G1 X74.61 Y60.732 E.00509
G1 X74.729 Y60.69 E.00395
G1 X82.95 Y60.691 E.25779
G1 X83.455 Y60.701 E.01583
G1 X83.975 Y60.757 E.01638
G1 X84.521 Y60.9 E.01771
G1 X84.661 Y61.082 E.00721
G1 X84.661 Y63.118 E.06384
G1 X84.592 Y63.233 E.00422
M204 P1000
G1 X84.626 Y63.679 F9000
G1 E-2.24 F4200
;WIPE_START
G1 F7200
G1 X84.002 Y63.438 E-.34595
G1 X83.451 Y63.499 E-.30711
G1 X82.984 Y63.5 E-.25895
;WIPE_END
G1 E-.048 F4200
G1 Z.4 F720
G1 X82.984 Y63.666 F9000
G1 X84.167 Y63.666
G1 X84.709 Y63.359
G1 X84.709 Y60.841
G1 X84.167 Y60.534
G1 X78.063 Y60.534
G1 X73.605 Y57.617
G1 X73.568 Y57.826
G1 Z.2 F720
G1 E3.2 F2400
M204 P800
;TYPE:Perimeter
G1 F1200
G1 X73.504 Y57.816 E.00203
G1 X73.18 Y57.682 E.011
G1 X72.7 Y57.319 E.01889
G1 X72.368 Y56.816 E.01888
;WIDTH:0.44916
G1 X72.208 Y56.257 E.01963
;WIDTH:0.458031
G1 X72.221 Y55.818 E.01516
G1 X72.434 Y55.248 E.02101
;WIDTH:0.419999
G1 X72.769 Y54.819 E.01707
G1 X72.956 Y54.655 E.00779
;WIDTH:0.42107
G1 X73.494 Y54.39 E.01884
;WIDTH:0.445703
G1 X74.009 Y54.303 E.0175
G1 X74.397 Y54.355 E.01313
;WIDTH:0.434924
G1 X74.951 Y54.593 E.01966
;WIDTH:0.419999
G1 X75.397 Y54.993 E.01878
G1 X75.672 Y55.491 E.01783
G1 X75.782 Y56.12 E.02003
G1 X75.674 Y56.713 E.01889
G1 X75.374 Y57.235 E.01889
G1 X74.917 Y57.628 E.01889
G1 X74.438 Y57.833 E.01634
G1 X73.942 Y57.883 E.01563
G1 X73.627 Y57.835 E.00998
M204 P1000
G1 X73.63 Y57.461 F9000
M204 P800
;TYPE:External perimeter
G1 F1200
G1 X73.391 Y57.37 E.00801
G1 X73.003 Y57.095 E.01493
G1 X72.728 Y56.706 E.01492
G1 X72.6 Y56.25 E.01485
G1 X72.63 Y55.772 E.015
G1 X72.818 Y55.335 E.01493
G1 X73.14 Y54.984 E.01493
G1 X73.56 Y54.762 E.01489
G1 X73.984 Y54.692 E.01347
G1 X74.269 Y54.717 E.00899
G1 X74.715 Y54.886 E.01493
G1 X75.077 Y55.193 E.01489
G1 X75.305 Y55.576 E.01398
G1 X75.408 Y56.072 E.01589
G1 X75.337 Y56.543 E.01493
G1 X75.113 Y56.963 E.01493
G1 X74.762 Y57.284 E.01493
G1 X74.351 Y57.466 E.01409
G1 X73.987 Y57.509 E.01148
G1 X73.689 Y57.469 E.00943
M204 P1000
G1 X73.452 Y57.644 F9000
G1 E-2.24 F4200
;WIPE_START
G1 F7200
G1 X73.391 Y57.37 E-.17409
G1 X73.003 Y57.095 E-.26381
G1 X72.728 Y56.706 E-.26377
G1 X72.625 Y56.34 E-.21033
;WIPE_END
G1 E-.048 F4200
G1 Z.4 F720
G1 X72.461 Y56.376 F9000
G1 X72.501 Y56.559
G1 X74.384 Y63.666
G1 X75.352 Y63.666
G1 X94.977 Y116.823
G1 X95.077 Y116.647
G1 Z.2 F720
G1 E3.2 F2400
M204 P800
;TYPE:Perimeter
G1 F1200
G1 X95.15 Y116.769 E.00447
G1 X95.263 Y116.582 E.00684
G1 X95.901 Y116.398 E.02085
G1 X96.543 Y116.324 E.02024
G1 X105.271 Y116.313 E.27369
G1 X105.43 Y116.336 E.00502
G1 X105.611 Y116.426 E.00634
G1 X105.771 Y116.612 E.00769
G1 X105.837 Y116.879 E.0086
G1 X105.837 Y119.321 E.0766
G1 X105.793 Y119.54 E.00699
G1 X105.593 Y119.787 E.00996
G1 X105.371 Y119.878 E.00755
G1 X104.702 Y119.886 E.02096
G1 X96.548 Y119.876 E.25566
G1 X95.984 Y119.817 E.01778
G1 X95.382 Y119.665 E.01946
G1 X95.263 Y119.618 E.00403
G1 X95.15 Y119.448 E.00639
G1 X95.037 Y119.618 E.00639
G1 X94.399 Y119.802 E.02085
G1 X93.813 Y119.873 E.01849
G1 X86.243 Y119.876 E.23737
G1 X85.684 Y119.817 E.01761
G1 X85.188 Y119.693 E.01603
G1 X84.963 Y119.618 E.00745
G1 X84.85 Y119.448 E.00639
G1 X84.737 Y119.618 E.00639
G1 X84.099 Y119.802 E.02085
G1 X83.452 Y119.876 E.02041
G1 X74.729 Y119.887 E.27349
G1 X74.456 Y119.817 E.00886
G1 X74.321 Y119.714 E.00531
G1 X74.171 Y119.419 E.01036
G1 X74.163 Y116.879 E.07966
G1 X74.229 Y116.612 E.0086
G1 X74.389 Y116.426 E.00769
G1 X74.57 Y116.336 E.00635
G1 X74.729 Y116.313 E.00502
G1 X83.463 Y116.324 E.27385
G1 X84.016 Y116.383 E.01744
G1 X84.618 Y116.535 E.01946
G1 X84.737 Y116.582 E.00403
G1 X84.85 Y116.769 E.00684
G1 X84.963 Y116.582 E.00684
G1 X85.601 Y116.398 E.02085
G1 X86.243 Y116.324 E.02024
G1 X93.752 Y116.324 E.23545
G1 X94.316 Y116.383 E.01777
G1 X94.918 Y116.535 E.01946
G1 X95.046 Y116.596 E.00444
M204 P1000
G1 X94.821 Y116.9 F9000
M204 P800
;TYPE:External perimeter
;WIDTH:0.42
G1 F1200
G1 X94.961 Y117.082 E.00721
G1 X94.961 Y119.118 E.06384
G1 X94.861 Y119.285 E.0061
G1 X94.302 Y119.438 E.01817
G1 X93.772 Y119.498 E.01673
G1 X86.247 Y119.499 E.23595
G1 X85.725 Y119.443 E.01644
G1 X85.179 Y119.3 E.01771
;WIDTH:0.42144
G1 X85.039 Y119.118 E.00724
;WIDTH:0.42
G1 X85.039 Y117.082 E.06384
G1 X85.179 Y116.9 E.00721
G1 X85.698 Y116.762 E.01683
G1 X86.247 Y116.701 E.01732
G1 X93.752 Y116.701 E.23531
G1 X94.275 Y116.757 E.0165
G1 X94.763 Y116.885 E.01583
M204 P1000
G1 X95.035 Y116.815 F9000
G1 E-2.24 F4200
;WIPE_START
G1 F7200
G1 X94.961 Y117.082 E-.15509
G1 X94.961 Y118.448 E-.75691
;WIPE_END
G1 E-.048 F4200
G1 Z.4 F720
G1 X95.009 Y118.448 F9000
G1 X95.009 Y119.359
G1 X94.467 Y119.666
G1 X85.533 Y119.666
G1 X84.991 Y119.359
G1 X84.991 Y119.285
G1 X84.561 Y119.285
G1 Z.2 F720
G1 E3.2 F2400
M204 P800
;WIDTH:0.419999
G1 F1200
G1 X84.002 Y119.438 E.01817
G1 X83.451 Y119.499 E.01738
G1 X74.729 Y119.51 E.27349
G1 X74.593 Y119.452 E.00463
G1 X74.54 Y119.321 E.00442
G1 X74.54 Y116.879 E.0766
G1 X74.615 Y116.728 E.00529
G1 X74.729 Y116.69 E.00374
G1 X82.95 Y116.691 E.25778
G1 X83.455 Y116.701 E.01584
G1 X83.975 Y116.757 E.01638
G1 X84.521 Y116.9 E.01771
G1 X84.661 Y117.082 E.00721
G1 X84.661 Y119.118 E.06384
G1 X84.592 Y119.233 E.00422
M204 P1000
G1 X84.626 Y119.679 F9000
G1 E-3.2 F4200
G1 Z.4 F720
G1 X82.092 Y122.315 F9000
G1 Z.2 F720
G1 E3.2 F2400
M204 P800
;TYPE:Perimeter
G1 F1200
G1 X82.179 Y122.293 E.0028
G1 X84.268 Y122.293 E.0655
G1 X90.221 Y122.293 E.18668
G1 X90.487 Y122.359 E.00858
G1 X90.673 Y122.518 E.00768
G1 X90.764 Y122.698 E.00633
G1 X90.787 Y122.993 E.00926
G1 X90.787 Y125.121 E.06674
G1 X90.674 Y125.461 E.01122
;WIDTH:0.45028
G1 X90.322 Y125.693 E.0143
G1 X90.221 Y125.699 E.0034
;WIDTH:0.444381
G1 X82.179 Y125.699 E.26849
G1 X81.726 Y125.461 E.01707
;WIDTH:0.419999
G1 X81.613 Y125.121 E.01122
G1 X81.613 Y122.859 E.07095
G1 X81.636 Y122.7 E.00502
G1 X81.726 Y122.519 E.00635
G1 X81.912 Y122.359 E.00769
G1 X82.034 Y122.329 E.00392
M204 P1000
